;FLAVOR:Marlin
;TIME:5498
;Filament used: 1.7595m
;Layer height: 0.1
;MINX:22.026
;MINY:28.371
;MINZ:0.1
;MAXX:200.248
;MAXY:203.975
;MAXZ:0.6
;Generated with Cura_SteamEngine 5.3.0
M140 S65
M105
M190 S65
M104 S205
M105
M109 S205
M82 ;absolute extrusion mode
START_PRINT
G92 E0
G92 E0
G1 F3000 E-6.5
;LAYER_COUNT:6
;LAYER:0
M107
;MESH:roulette-wheel-29.stl
G0 X38.241 Y61.578 Z0.1
;TYPE:WALL-INNER
G1 F3000 E0
G1 F1800 X38.123 Y59.548 E0.03382
G1 X38.112 Y55.988 E0.09302
G1 X38.219 Y53.934 E0.12722
G1 X23.775 Y52.712 E0.36829
G1 X23.648 Y55.608 E0.41649
G1 X23.667 Y59.906 E0.48797
G1 X23.823 Y62.814 E0.5364
G1 X38.241 Y61.578 E0.77705
G0 F3000 X38.663 Y61.944
G1 F1800 X38.522 Y59.524 E0.81736
G1 X38.512 Y56.009 E0.87582
G1 X38.639 Y53.568 E0.91647
G1 X23.394 Y52.278 E1.1709
G1 X23.248 Y55.6 E1.2262
G1 X23.267 Y59.917 E1.29799
G1 X23.445 Y63.247 E1.35345
G1 X38.663 Y61.944 E1.60745
G0 F3000 X39.085 Y62.309
G1 F1800 X38.921 Y59.501 E1.65423
G1 X38.911 Y56.03 E1.71195
G1 X39.059 Y53.202 E1.75904
G1 X23.013 Y51.844 E2.02684
G1 X22.848 Y55.592 E2.08923
G1 X22.867 Y59.929 E2.16136
G1 X23.068 Y63.681 E2.22385
G1 X39.085 Y62.309 E2.49118
G0 F3000 X39.507 Y62.675
;TYPE:WALL-OUTER
G1 F1800 X39.321 Y59.467 E2.54462
G1 X39.311 Y56.051 E2.60143
G1 X39.479 Y52.836 E2.65497
G1 X22.631 Y51.41 E2.93616
G1 X22.448 Y55.584 E3.00564
G1 X22.467 Y59.941 E3.07809
G1 X22.691 Y64.115 E3.14761
G1 X39.507 Y62.675 E3.42828
G0 F3000 X39.221 Y62.426
G0 X37.86 Y61.25
;TYPE:SKIN
G1 F1500 X24.163 Y62.423 E3.6569
G1 X24.027 Y59.887 E3.69913
G1 X24.009 Y55.623 E3.77004
G1 X24.119 Y53.102 E3.81201
G1 X37.842 Y54.263 E4.04104
G1 X37.752 Y55.978 E4.0696
G1 X37.763 Y59.568 E4.1293
G1 X37.86 Y61.25 E4.15732
G0 F3000 X37.623 Y54.594
G1 F1500 X37.46 Y54.43 E4.16116
G0 F3000 X36.842 Y54.378
G1 F1500 X37.596 Y55.132 E4.1789
G0 F3000 X37.567 Y55.669
G1 F1500 X36.224 Y54.326 E4.21048
G0 F3000 X35.606 Y54.273
G1 F1500 X37.553 Y56.22 E4.25627
G0 F3000 X37.554 Y56.787
G1 F1500 X34.988 Y54.221 E4.31662
G0 F3000 X34.37 Y54.169
G1 F1500 X37.556 Y57.355 E4.39155
G0 F3000 X37.557 Y57.922
G1 F1500 X33.752 Y54.117 E4.48104
G0 F3000 X33.134 Y54.064
G1 F1500 X37.56 Y58.49 E4.58513
G0 F3000 X37.561 Y59.057
G1 F1500 X32.516 Y54.012 E4.70378
G0 F3000 X31.899 Y53.96
G1 F1500 X37.565 Y59.626 E4.83704
G0 F3000 X37.6 Y60.227
G1 F1500 X31.28 Y53.908 E4.98566
G0 F3000 X30.662 Y53.856
G1 F1500 X37.635 Y60.828 E5.14965
G0 F3000 X37.334 Y61.093
G1 F1500 X30.044 Y53.803 E5.32109
G0 F3000 X29.426 Y53.751
G1 F1500 X36.813 Y61.137 E5.49481
G0 F3000 X36.292 Y61.182
G1 F1500 X28.808 Y53.699 E5.67081
G0 F3000 X28.19 Y53.646
G1 F1500 X35.771 Y61.226 E5.8491
G0 F3000 X35.249 Y61.271
G1 F1500 X27.572 Y53.594 E6.02965
G0 F3000 X26.954 Y53.542
G1 F1500 X34.728 Y61.316 E6.21248
G0 F3000 X34.207 Y61.36
G1 F1500 X26.336 Y53.489 E6.39759
G0 F3000 X25.718 Y53.437
G1 F1500 X33.686 Y61.405 E6.58499
G0 F3000 X33.165 Y61.449
G1 F1500 X25.1 Y53.385 E6.77465
G0 F3000 X24.482 Y53.332
G1 F1500 X32.644 Y61.494 E6.96661
G0 F3000 X32.123 Y61.538
G1 F1500 X24.291 Y53.707 E7.1508
G0 F3000 X24.268 Y54.249
G1 F1500 X31.602 Y61.584 E7.32329
G0 F3000 X31.081 Y61.628
G1 F1500 X24.245 Y54.792 E7.48406
G0 F3000 X24.221 Y55.333
G1 F1500 X30.56 Y61.673 E7.63316
G0 F3000 X30.039 Y61.717
G1 F1500 X24.209 Y55.888 E7.77026
G0 F3000 X24.212 Y56.456
G1 F1500 X29.518 Y61.762 E7.89505
G0 F3000 X28.997 Y61.806
G1 F1500 X24.214 Y57.024 E8.00753
G0 F3000 X24.216 Y57.592
G1 F1500 X28.475 Y61.851 E8.10769
G0 F3000 X27.954 Y61.895
G1 F1500 X24.219 Y58.16 E8.19553
G0 F3000 X24.221 Y58.728
G1 F1500 X27.433 Y61.94 E8.27107
G0 F3000 X26.912 Y61.984
G1 F1500 X24.224 Y59.296 E8.33429
G0 F3000 X24.226 Y59.864
G1 F1500 X26.391 Y62.029 E8.38521
G0 F3000 X25.87 Y62.074
G1 F1500 X24.258 Y60.461 E8.42313
G0 F3000 X24.289 Y61.059
G1 F1500 X25.349 Y62.119 E8.44806
G0 F3000 X24.828 Y62.163
G1 F1500 X24.322 Y61.657 E8.45996
G1 F3000 E1.95996
;MESH:roulette-wheel-17.stl
G0 X36.106 Y62.764
G0 X36.197 Y63.825
G0 X34.686 Y79.535
G0 X34.595 Y80.615
G0 X38.402 Y89.564
;TYPE:WALL-INNER
G1 F3000 E8.45996
G1 F1800 X38.284 Y87.534 E8.49378
G1 X38.274 Y83.974 E8.55298
G1 X38.381 Y81.92 E8.58719
G1 X23.937 Y80.698 E8.82825
G1 X23.81 Y83.593 E8.87644
G1 X23.829 Y87.892 E8.94793
G1 X23.985 Y90.8 E8.99636
G1 X38.402 Y89.564 E9.237
G0 F3000 X38.824 Y89.93
G1 F1800 X38.683 Y87.511 E9.2773
G1 X38.674 Y83.995 E9.33577
G1 X38.801 Y81.554 E9.37642
G1 X23.556 Y80.264 E9.63085
G1 X23.41 Y83.585 E9.68613
G1 X23.429 Y87.903 E9.75794
G1 X23.607 Y91.233 E9.8134
G1 X38.824 Y89.93 E10.06738
G0 F3000 X39.246 Y90.295
G1 F1800 X39.082 Y87.487 E10.11416
G1 X39.073 Y84.016 E10.17188
G1 X39.221 Y81.188 E10.21898
G1 X23.175 Y79.83 E10.48678
G1 X23.01 Y83.577 E10.54915
G1 X23.029 Y87.915 E10.62129
G1 X23.23 Y91.667 E10.68378
G1 X39.246 Y90.295 E10.9511
G0 F3000 X39.668 Y90.661
;TYPE:WALL-OUTER
G1 F1800 X39.482 Y87.453 E11.00454
G1 X39.473 Y84.037 E11.06135
G1 X39.641 Y80.822 E11.11488
G1 X22.793 Y79.396 E11.39607
G1 X22.61 Y83.569 E11.46553
G1 X22.629 Y87.927 E11.53801
G1 X22.853 Y92.101 E11.60752
G1 X39.668 Y90.661 E11.88818
G0 F3000 X39.383 Y90.412
G0 X38.021 Y89.236
;TYPE:SKIN
G1 F1500 X24.325 Y90.409 E12.11678
G1 X24.189 Y87.873 E12.15901
G1 X24.171 Y83.607 E12.22996
G1 X24.28 Y81.088 E12.27189
G1 X38.004 Y82.249 E12.50093
G1 X37.914 Y83.964 E12.52949
G1 X37.924 Y87.555 E12.58921
G1 X38.021 Y89.236 E12.61722
G0 F3000 X37.763 Y83.018
G1 F1500 X37.119 Y82.374 E12.63236
G0 F3000 X36.501 Y82.322
G1 F1500 X37.735 Y83.555 E12.66137
G0 F3000 X37.714 Y84.101
G1 F1500 X35.883 Y82.269 E12.70445
G0 F3000 X35.265 Y82.217
G1 F1500 X37.716 Y84.668 E12.76209
G0 F3000 X37.717 Y85.235
G1 F1500 X34.647 Y82.165 E12.83429
G0 F3000 X34.029 Y82.112
G1 F1500 X37.719 Y85.802 E12.92107
G0 F3000 X37.72 Y86.369
G1 F1500 X33.411 Y82.06 E13.02241
G0 F3000 X32.793 Y82.008
G1 F1500 X37.722 Y86.936 E13.13833
G0 F3000 X37.723 Y87.503
G1 F1500 X32.175 Y81.955 E13.26881
G0 F3000 X31.557 Y81.903
G1 F1500 X37.754 Y88.1 E13.41455
G0 F3000 X37.789 Y88.7
G1 F1500 X30.939 Y81.851 E13.57564
G0 F3000 X30.321 Y81.798
G1 F1500 X37.593 Y89.07 E13.74667
G0 F3000 X37.072 Y89.115
G1 F1500 X29.704 Y81.747 E13.91995
G0 F3000 X29.086 Y81.694
G1 F1500 X36.551 Y89.159 E14.09552
G0 F3000 X36.029 Y89.204
G1 F1500 X28.468 Y81.642 E14.27335
G0 F3000 X27.85 Y81.59
G1 F1500 X35.508 Y89.248 E14.45345
G0 F3000 X34.987 Y89.293
G1 F1500 X27.232 Y81.537 E14.63585
G0 F3000 X26.614 Y81.485
G1 F1500 X34.466 Y89.337 E14.82052
G0 F3000 X33.946 Y89.383
G1 F1500 X25.996 Y81.433 E15.00749
G0 F3000 X25.378 Y81.38
G1 F1500 X33.424 Y89.427 E15.19673
G0 F3000 X32.903 Y89.472
G1 F1500 X24.76 Y81.328 E15.38825
G0 F3000 X24.458 Y81.592
G1 F1500 X32.382 Y89.516 E15.57462
G0 F3000 X31.861 Y89.561
G1 F1500 X24.434 Y82.133 E15.7493
G0 F3000 X24.41 Y82.676
G1 F1500 X31.34 Y89.605 E15.91227
G0 F3000 X30.819 Y89.65
G1 F1500 X24.387 Y83.218 E16.06354
G0 F3000 X24.37 Y83.767
G1 F1500 X30.298 Y89.695 E16.20296
G0 F3000 X29.777 Y89.74
G1 F1500 X24.373 Y84.335 E16.33006
G0 F3000 X24.375 Y84.903
G1 F1500 X29.256 Y89.784 E16.44486
G0 F3000 X28.735 Y89.829
G1 F1500 X24.378 Y85.472 E16.54733
G0 F3000 X24.38 Y86.04
G1 F1500 X28.214 Y89.873 E16.63749
G0 F3000 X27.693 Y89.918
G1 F1500 X24.383 Y86.608 E16.71533
G0 F3000 X24.385 Y87.176
G1 F1500 X27.171 Y89.963 E16.78087
G0 F3000 X26.65 Y90.007
G1 F1500 X24.388 Y87.744 E16.83408
G0 F3000 X24.413 Y88.336
G1 F1500 X26.13 Y90.052 E16.87445
G0 F3000 X25.609 Y90.097
G1 F1500 X24.446 Y88.934 E16.9018
G0 F3000 X24.477 Y89.531
G1 F1500 X25.088 Y90.141 E16.91616
G0 F3000 X24.567 Y90.186
G1 F1500 X24.51 Y90.129 E16.9175
G1 F3000 E10.4175
;MESH:roulette-wheel-2.stl
G0 X36.608 Y90.721
G0 X36.699 Y91.782
G0 X35.415 Y104.815
G0 X35.324 Y105.895
G0 X38.671 Y114.805
;TYPE:WALL-INNER
G1 F3000 E16.9175
G1 F1800 X38.553 Y112.775 E16.95131
G1 X38.542 Y109.215 E17.01052
G1 X38.649 Y107.161 E17.04472
G1 X24.206 Y105.94 E17.28576
G1 X24.079 Y108.836 E17.33397
G1 X24.098 Y113.133 E17.40543
G1 X24.253 Y116.041 E17.45386
G1 X38.671 Y114.805 E17.69451
G0 F3000 X39.093 Y115.171
G1 F1800 X38.952 Y112.751 E17.73483
G1 X38.942 Y109.236 E17.79328
G1 X39.069 Y106.795 E17.83393
G1 X23.824 Y105.506 E18.08836
G1 X23.679 Y108.828 E18.14366
G1 X23.698 Y113.145 E18.21545
G1 X23.876 Y116.474 E18.27089
G1 X39.093 Y115.171 E18.52488
G0 F3000 X39.515 Y115.536
G1 F1800 X39.351 Y112.728 E18.57165
G1 X39.341 Y109.257 E18.62938
G1 X39.489 Y106.429 E18.67647
G1 X23.443 Y105.072 E18.94427
G1 X23.279 Y108.82 E19.00666
G1 X23.298 Y113.156 E19.07877
G1 X23.499 Y116.908 E19.14125
G1 X39.515 Y115.536 E19.40857
G0 F3000 X39.937 Y115.902
;TYPE:WALL-OUTER
G1 F1800 X39.751 Y112.694 E19.46201
G1 X39.741 Y109.278 E19.51882
G1 X39.909 Y106.063 E19.57236
G1 X23.061 Y104.638 E19.85354
G1 X22.879 Y108.812 E19.92302
G1 X22.898 Y113.168 E19.99547
G1 X23.121 Y117.342 E20.06498
G1 X39.937 Y115.902 E20.34565
G0 F3000 X39.651 Y115.653
G0 X38.29 Y114.477
;TYPE:SKIN
G1 F1500 X24.594 Y115.65 E20.57425
G1 X24.458 Y113.114 E20.61649
G1 X24.439 Y108.851 E20.68738
G1 X24.55 Y106.329 E20.72936
G1 X38.272 Y107.491 E20.95838
G1 X38.182 Y109.205 E20.98692
G1 X38.193 Y112.795 E21.04662
G1 X38.29 Y114.477 E21.07464
G0 F3000 X38.035 Y108.18
G1 F1500 X37.479 Y107.624 E21.08772
G0 F3000 X36.861 Y107.572
G1 F1500 X38.006 Y108.717 E21.11465
G0 F3000 X37.982 Y109.258
G1 F1500 X36.243 Y107.519 E21.15555
G0 F3000 X35.625 Y107.467
G1 F1500 X37.983 Y109.825 E21.211
G0 F3000 X37.985 Y110.393
G1 F1500 X35.006 Y107.414 E21.28106
G0 F3000 X34.388 Y107.362
G1 F1500 X37.987 Y110.96 E21.36569
G0 F3000 X37.989 Y111.528
G1 F1500 X33.77 Y107.309 E21.46492
G0 F3000 X33.152 Y107.257
G1 F1500 X37.99 Y112.095 E21.5787
G0 F3000 X37.992 Y112.663
G1 F1500 X32.534 Y107.205 E21.70706
G0 F3000 X31.916 Y107.152
G1 F1500 X38.018 Y113.254 E21.85057
G0 F3000 X38.053 Y113.855
G1 F1500 X31.298 Y107.1 E22.00944
G0 F3000 X30.68 Y107.048
G1 F1500 X37.937 Y114.305 E22.18012
G0 F3000 X37.416 Y114.349
G1 F1500 X30.062 Y106.995 E22.35307
G0 F3000 X29.444 Y106.943
G1 F1500 X36.895 Y114.394 E22.52831
G0 F3000 X36.374 Y114.438
G1 F1500 X28.826 Y106.891 E22.70581
G0 F3000 X28.208 Y106.838
G1 F1500 X35.853 Y114.483 E22.88561
G0 F3000 X35.332 Y114.527
G1 F1500 X27.59 Y106.786 E23.06768
G0 F3000 X26.972 Y106.734
G1 F1500 X34.81 Y114.572 E23.25202
G0 F3000 X34.289 Y114.617
G1 F1500 X26.354 Y106.681 E23.43865
G0 F3000 X25.736 Y106.629
G1 F1500 X33.769 Y114.662 E23.62757
G0 F3000 X33.248 Y114.706
G1 F1500 X25.118 Y106.577 E23.81876
G0 F3000 X24.731 Y106.755
G1 F1500 X32.727 Y114.751 E24.00682
G0 F3000 X32.205 Y114.795
G1 F1500 X24.707 Y107.297 E24.18316
G0 F3000 X24.683 Y107.839
G1 F1500 X31.684 Y114.84 E24.34781
G0 F3000 X31.163 Y114.885
G1 F1500 X24.659 Y108.381 E24.50078
G0 F3000 X24.639 Y108.926
G1 F1500 X30.642 Y114.929 E24.64196
G0 F3000 X30.122 Y114.974
G1 F1500 X24.641 Y109.494 E24.77085
G0 F3000 X24.644 Y110.062
G1 F1500 X29.6 Y115.019 E24.88742
G0 F3000 X29.079 Y115.063
G1 F1500 X24.646 Y110.631 E24.99167
G0 F3000 X24.649 Y111.198
G1 F1500 X28.558 Y115.108 E25.08361
G0 F3000 X28.037 Y115.153
G1 F1500 X24.651 Y111.767 E25.16324
G0 F3000 X24.654 Y112.335
G1 F1500 X27.516 Y115.197 E25.23055
G0 F3000 X26.995 Y115.242
G1 F1500 X24.656 Y112.903 E25.28556
G0 F3000 X24.678 Y113.491
G1 F1500 X26.474 Y115.286 E25.32779
G0 F3000 X25.953 Y115.331
G1 F1500 X24.71 Y114.088 E25.35703
G0 F3000 X24.742 Y114.686
G1 F1500 X25.432 Y115.376 E25.37325
G0 F3000 X24.911 Y115.421
G1 F1500 X24.774 Y115.283 E25.37649
G1 F3000 E18.87649
;MESH:roulette-wheel-3.stl
G0 X36.584 Y115.987
G0 X36.675 Y117.048
G0 X35.245 Y131.803
G0 X35.154 Y132.883
G0 X38.797 Y141.818
;TYPE:WALL-INNER
G1 F3000 E25.37649
G1 F1800 X38.679 Y139.788 E25.4103
G1 X38.668 Y136.228 E25.46951
G1 X38.775 Y134.174 E25.50371
G1 X24.332 Y132.953 E25.74476
G1 X24.205 Y135.849 E25.79296
G1 X24.224 Y140.146 E25.86442
G1 X24.379 Y143.054 E25.91285
G1 X38.797 Y141.818 E26.1535
G0 F3000 X39.219 Y142.184
G1 F1800 X39.078 Y139.764 E26.19382
G1 X39.068 Y136.249 E26.25227
G1 X39.195 Y133.808 E26.29292
G1 X23.95 Y132.519 E26.54735
G1 X23.805 Y135.841 E26.60265
G1 X23.824 Y140.158 E26.67444
G1 X24.002 Y143.487 E26.72988
G1 X39.219 Y142.184 E26.98387
G0 F3000 X39.641 Y142.549
G1 F1800 X39.477 Y139.741 E27.03064
G1 X39.467 Y136.27 E27.08837
G1 X39.615 Y133.442 E27.13546
G1 X23.569 Y132.085 E27.40326
G1 X23.405 Y135.833 E27.46565
G1 X23.424 Y140.169 E27.53776
G1 X23.625 Y143.921 E27.60024
G1 X39.641 Y142.549 E27.86757
G0 F3000 X40.063 Y142.915
;TYPE:WALL-OUTER
G1 F1800 X39.877 Y139.707 E27.921
G1 X39.867 Y136.291 E27.97781
G1 X40.035 Y133.076 E28.03135
G1 X23.187 Y131.651 E28.31254
G1 X23.005 Y135.825 E28.38201
G1 X23.024 Y140.181 E28.45446
G1 X23.247 Y144.355 E28.52397
G1 X40.063 Y142.915 E28.80464
G0 F3000 X39.777 Y142.666
G0 X38.416 Y141.49
;TYPE:SKIN
G1 F1500 X24.72 Y142.663 E29.03324
G1 X24.584 Y140.127 E29.07548
G1 X24.565 Y135.864 E29.14637
G1 X24.676 Y133.342 E29.18835
G1 X38.398 Y134.504 E29.41737
G1 X38.308 Y136.218 E29.44591
G1 X38.319 Y139.808 E29.50561
G1 X38.416 Y141.49 E29.53363
G0 F3000 X38.176 Y134.908
G1 F1500 X37.933 Y134.665 E29.53935
G0 F3000 X37.315 Y134.613
G1 F1500 X38.148 Y135.446 E29.55894
G0 F3000 X38.12 Y135.983
G1 F1500 X36.697 Y134.561 E29.59239
G0 F3000 X36.079 Y134.508
G1 F1500 X38.109 Y136.538 E29.64014
G0 F3000 X38.11 Y137.105
G1 F1500 X35.461 Y134.456 E29.70244
G0 F3000 X34.843 Y134.404
G1 F1500 X38.113 Y137.673 E29.77933
G0 F3000 X38.114 Y138.24
G1 F1500 X34.225 Y134.351 E29.87079
G0 F3000 X33.607 Y134.299
G1 F1500 X38.115 Y138.807 E29.97681
G0 F3000 X38.118 Y139.375
G1 F1500 X32.989 Y134.247 E30.09743
G0 F3000 X32.37 Y134.194
G1 F1500 X38.125 Y139.949 E30.23278
G0 F3000 X38.161 Y140.55
G1 F1500 X31.752 Y134.141 E30.38351
G0 F3000 X31.134 Y134.089
G1 F1500 X38.196 Y141.151 E30.54959
G0 F3000 X37.818 Y141.339
G1 F1500 X30.516 Y134.037 E30.72133
G0 F3000 X29.898 Y133.984
G1 F1500 X37.297 Y141.383 E30.89534
G0 F3000 X36.776 Y141.428
G1 F1500 X29.28 Y133.932 E31.07163
G0 F3000 X28.662 Y133.88
G1 F1500 X36.255 Y141.472 E31.2502
G0 F3000 X35.735 Y141.518
G1 F1500 X28.044 Y133.827 E31.43108
G0 F3000 X27.426 Y133.775
G1 F1500 X35.213 Y141.562 E31.61422
G0 F3000 X34.692 Y141.607
G1 F1500 X26.808 Y133.723 E31.79964
G0 F3000 X26.19 Y133.67
G1 F1500 X34.171 Y141.651 E31.98734
G0 F3000 X33.65 Y141.696
G1 F1500 X25.572 Y133.618 E32.17732
G0 F3000 X24.954 Y133.566
G1 F1500 X33.129 Y141.74 E32.36957
G0 F3000 X32.608 Y141.785
G1 F1500 X24.846 Y134.023 E32.55212
G0 F3000 X24.822 Y134.565
G1 F1500 X32.087 Y141.83 E32.72298
G0 F3000 X31.565 Y141.874
G1 F1500 X24.798 Y135.106 E32.88214
G0 F3000 X24.774 Y135.648
G1 F1500 X31.044 Y141.919 E33.02962
G0 F3000 X30.524 Y141.964
G1 F1500 X24.766 Y136.206 E33.16504
G0 F3000 X24.768 Y136.774
G1 F1500 X30.003 Y142.008 E33.28814
G0 F3000 X29.482 Y142.053
G1 F1500 X24.771 Y137.342 E33.39894
G0 F3000 X24.773 Y137.91
G1 F1500 X28.96 Y142.098 E33.49742
G0 F3000 X28.439 Y142.142
G1 F1500 X24.776 Y138.479 E33.58357
G0 F3000 X24.779 Y139.047
G1 F1500 X27.918 Y142.187 E33.65741
G0 F3000 X27.397 Y142.231
G1 F1500 X24.781 Y139.615 E33.71893
G0 F3000 X24.787 Y140.187
G1 F1500 X26.876 Y142.276 E33.76806
G0 F3000 X26.355 Y142.32
G1 F1500 X24.819 Y140.784 E33.80419
G0 F3000 X24.851 Y141.382
G1 F1500 X25.834 Y142.365 E33.8273
G0 F3000 X25.313 Y142.409
G1 F1500 X24.883 Y141.979 E33.83742
G1 F3000 E27.33742
;MESH:roulette-wheel-34.stl
G0 X36.109 Y143.051
G0 X36.2 Y144.112
G0 X34.447 Y162.678
G0 X34.357 Y163.758
G0 X38.654 Y172.75
;TYPE:WALL-INNER
G1 F3000 E33.83742
G1 F1800 X38.536 Y170.718 E33.87127
G1 X38.526 Y167.16 E33.93044
G1 X38.633 Y165.105 E33.96466
G1 X24.189 Y163.884 E34.20572
G1 X24.062 Y166.78 E34.25393
G1 X24.081 Y171.078 E34.3254
G1 X24.236 Y173.985 E34.37382
G1 X38.654 Y172.75 E34.61447
G0 F3000 X39.076 Y173.116
G1 F1800 X38.935 Y170.695 E34.6548
G1 X38.926 Y167.181 E34.71323
G1 X39.053 Y164.739 E34.7539
G1 X23.807 Y163.45 E35.00835
G1 X23.662 Y166.772 E35.06364
G1 X23.681 Y171.09 E35.13545
G1 X23.859 Y174.418 E35.19088
G1 X39.076 Y173.116 E35.44486
G0 F3000 X39.498 Y173.481
G1 F1800 X39.334 Y170.672 E35.49165
G1 X39.325 Y167.202 E35.54936
