;FLAVOR:Marlin
;TIME:794
;Filament used: 0.25572m
;Layer height: 0.1
;MINX:77.415
;MINY:76.761
;MINZ:0.1
;MAXX:138.954
;MAXY:123.762
;MAXZ:0.6
;Generated with Cura_SteamEngine 5.3.0
M140 S55
M105
M190 S55
M104 S212
M105
M109 S212
M82 ;absolute extrusion mode
START_PRINT
G92 E0
G92 E0
G1 F3000 E-6.5
;LAYER_COUNT:6
;LAYER:0
M107
G0 X92.101 Y78.536 Z0.1
;TYPE:SKIRT
G1 F3000 E0
G1 F600 X92.369 Y78.401 E0.00499
G1 X92.546 Y78.37 E0.00798
G1 X95.927 Y78.547 E0.06428
G1 X99.302 Y78.538 E0.12041
G1 X102.684 Y78.341 E0.17675
G1 X102.93 Y78.385 E0.1809
G1 X103.088 Y78.468 E0.18387
G1 X103.262 Y78.718 E0.18894
G1 X103.317 Y78.889 E0.19192
G1 X104.792 Y96.106 E0.47929
G1 X104.755 Y96.351 E0.48341
G1 X104.622 Y96.568 E0.48765
G1 X104.511 Y96.661 E0.49005
G1 X104.275 Y96.753 E0.49427
G1 X99.82 Y96.991 E0.56846
G1 X95.409 Y97.011 E0.64181
G1 X91.029 Y96.817 E0.71473
G1 X90.789 Y96.747 E0.71888
G1 X90.593 Y96.588 E0.72308
G1 X90.516 Y96.467 E0.72547
G1 X90.454 Y96.218 E0.72973
G1 X91.917 Y78.918 E1.01846
G1 X91.997 Y78.68 E1.02264
G1 X92.101 Y78.536 E1.02559
G0 F3000 X92.365 Y78.837
G1 F600 X92.525 Y78.769 E1.02848
G1 X95.925 Y78.947 E1.0851
G1 X99.308 Y78.938 E1.14136
G1 X102.707 Y78.74 E1.19798
G1 X102.828 Y78.772 E1.20006
G1 X102.918 Y78.923 E1.20299
G1 X104.393 Y96.14 E1.49035
G1 X104.365 Y96.261 E1.49242
G1 X104.254 Y96.354 E1.49483
G1 X99.818 Y96.591 E1.5687
G1 X95.427 Y96.611 E1.64173
G1 X91.047 Y96.417 E1.71464
G1 X90.93 Y96.373 E1.71672
G1 X90.853 Y96.252 E1.7191
G1 X92.316 Y78.952 E2.00783
G1 X92.365 Y78.837 E2.00991
G1 F3000 E-4.49009
G0 X92.393 Y78.297
G0 X116.315 Y77.333
G0 X116.38 Y77.338
G1 F3000 E2.00991
G1 F600 X116.46 Y77.1 E2.01408
G1 X116.564 Y76.956 E2.01704
G1 X116.832 Y76.821 E2.02203
G1 X117.009 Y76.79 E2.02502
G1 X120.39 Y76.967 E2.08132
G1 X123.765 Y76.957 E2.13745
G1 X127.147 Y76.761 E2.19378
G1 X127.393 Y76.805 E2.19794
G1 X127.551 Y76.888 E2.20091
G1 X127.725 Y77.138 E2.20597
G1 X127.78 Y77.309 E2.20896
G1 X129.255 Y94.526 E2.49633
G1 X129.218 Y94.771 E2.50045
G1 X129.085 Y94.988 E2.50468
G1 X128.974 Y95.081 E2.50709
G1 X128.738 Y95.173 E2.5113
G1 X124.283 Y95.411 E2.5855
G1 X119.871 Y95.431 E2.65887
G1 X115.492 Y95.237 E2.73176
G1 X115.252 Y95.167 E2.73592
G1 X115.056 Y95.008 E2.74012
G1 X114.979 Y94.887 E2.7425
G1 X114.917 Y94.638 E2.74677
G1 X116.38 Y77.338 E3.0355
G0 F3000 X116.828 Y77.257
G1 F600 X116.988 Y77.189 E3.03839
G1 X120.388 Y77.367 E3.09501
G1 X123.771 Y77.357 E3.15127
G1 X127.17 Y77.16 E3.20789
G1 X127.291 Y77.192 E3.20997
G1 X127.381 Y77.343 E3.21289
G1 X128.856 Y94.56 E3.50026
G1 X128.828 Y94.681 E3.50233
G1 X128.717 Y94.774 E3.50474
G1 X124.281 Y95.011 E3.57861
G1 X119.889 Y95.031 E3.65165
G1 X115.51 Y94.837 E3.72455
G1 X115.393 Y94.793 E3.72662
G1 X115.316 Y94.672 E3.72901
G1 X116.779 Y77.372 E4.01774
G1 X116.828 Y77.257 E4.01982
G1 F3000 E-2.48018
G0 X116.325 Y77.215
G0 X113.286 Y105.03
G0 X113.29 Y105.093
G1 F3000 E4.01982
G1 F600 X113.536 Y105.137 E4.02397
G1 X113.694 Y105.22 E4.02694
G1 X113.868 Y105.47 E4.032
G1 X113.923 Y105.641 E4.03499
G1 X115.397 Y122.858 E4.32236
G1 X115.36 Y123.103 E4.32648
G1 X115.227 Y123.32 E4.33071
G1 X115.116 Y123.413 E4.33312
G1 X114.88 Y123.505 E4.33733
G1 X110.426 Y123.742 E4.41151
G1 X106.014 Y123.762 E4.48488
G1 X101.635 Y123.569 E4.55777
G1 X101.395 Y123.499 E4.56193
G1 X101.199 Y123.34 E4.56613
G1 X101.122 Y123.219 E4.56851
G1 X101.06 Y122.97 E4.57278
G1 X102.523 Y105.669 E4.86153
G1 X102.603 Y105.431 E4.8657
G1 X102.707 Y105.287 E4.86866
G1 X102.975 Y105.152 E4.87365
G1 X103.152 Y105.121 E4.87663
G1 X106.533 Y105.298 E4.93294
G1 X109.908 Y105.289 E4.98906
G1 X113.29 Y105.093 E5.0454
G1 F3000 E-1.4546
G0 X113.286 Y105.03
G0 X102.999 Y105.048
G0 X102.971 Y105.588
G1 F3000 E5.0454
G1 F600 X103.131 Y105.52 E5.04829
G1 X106.531 Y105.698 E5.10491
G1 X109.914 Y105.689 E5.16117
G1 X113.313 Y105.492 E5.21779
G1 X113.434 Y105.524 E5.21987
G1 X113.524 Y105.675 E5.2228
G1 X114.998 Y122.892 E5.51016
G1 X114.97 Y123.013 E5.51223
G1 X114.859 Y123.106 E5.51464
G1 X110.424 Y123.342 E5.5885
G1 X106.032 Y123.362 E5.66154
G1 X101.653 Y123.169 E5.73443
G1 X101.536 Y123.125 E5.73651
G1 X101.459 Y123.004 E5.73889
G1 X102.922 Y105.703 E6.02764
G1 X102.971 Y105.588 E6.02972
G1 F3000 E-0.47028
G0 X102.468 Y105.546
G0 X90.341 Y105.506
G0 X90.278 Y105.512
G1 F3000 E6.02972
G1 F600 X91.753 Y122.729 E6.31709
G1 X91.716 Y122.974 E6.32121
G1 X91.583 Y123.191 E6.32544
G1 X91.472 Y123.284 E6.32785
G1 X91.236 Y123.376 E6.33206
G1 X86.781 Y123.613 E6.40625
G1 X82.37 Y123.633 E6.47961
G1 X77.99 Y123.44 E6.55252
G1 X77.75 Y123.37 E6.55667
G1 X77.554 Y123.211 E6.56087
G1 X77.477 Y123.09 E6.56326
G1 X77.415 Y122.841 E6.56752
G1 X78.878 Y105.54 E6.85627
G1 X78.958 Y105.302 E6.86044
G1 X79.062 Y105.158 E6.8634
G1 X79.331 Y105.023 E6.8684
G1 X79.508 Y104.992 E6.87139
G1 X82.889 Y105.17 E6.92769
G1 X86.263 Y105.16 E6.9838
G1 X89.645 Y104.964 E7.04014
G1 X89.891 Y105.008 E7.0443
G1 X90.049 Y105.091 E7.04727
G1 X90.223 Y105.341 E7.05233
G1 X90.278 Y105.512 E7.05532
G1 F3000 E0.55532
G0 X90.341 Y105.506
G0 X90.277 Y104.874
G0 X79.354 Y104.919
G0 X79.326 Y105.459
G1 F3000 E7.05532
G1 F600 X79.487 Y105.391 E7.05823
G1 X82.887 Y105.57 E7.11485
G1 X86.269 Y105.56 E7.17109
G1 X89.668 Y105.363 E7.22771
G1 X89.789 Y105.395 E7.22979
G1 X89.879 Y105.546 E7.23271
G1 X91.354 Y122.763 E7.52008
G1 X91.326 Y122.884 E7.52215
G1 X91.215 Y122.977 E7.52456
G1 X86.779 Y123.213 E7.59843
G1 X82.388 Y123.233 E7.67146
G1 X78.008 Y123.04 E7.74437
G1 X77.891 Y122.996 E7.74644
G1 X77.814 Y122.875 E7.74883
G1 X79.277 Y105.574 E8.03757
G1 X79.326 Y105.459 E8.03965
G1 F3000 E1.53965
G0 X79.354 Y104.919
G0 X126.015 Y104.257
G0 X126.079 Y104.262
G1 F3000 E8.03965
G1 F600 X126.159 Y104.024 E8.04383
G1 X126.263 Y103.88 E8.04678
G1 X126.532 Y103.745 E8.05179
G1 X126.709 Y103.714 E8.05477
G1 X130.09 Y103.892 E8.11108
G1 X133.464 Y103.882 E8.16719
G1 X136.846 Y103.686 E8.22353
G1 X137.092 Y103.73 E8.22768
G1 X137.25 Y103.813 E8.23065
G1 X137.424 Y104.063 E8.23572
G1 X137.479 Y104.234 E8.2387
G1 X138.954 Y121.451 E8.52607
G1 X138.917 Y121.696 E8.53019
G1 X138.784 Y121.913 E8.53442
G1 X138.673 Y122.006 E8.53683
G1 X138.437 Y122.098 E8.54105
G1 X133.982 Y122.335 E8.61524
G1 X129.571 Y122.355 E8.68859
G1 X125.191 Y122.162 E8.7615
G1 X124.951 Y122.092 E8.76566
G1 X124.755 Y121.933 E8.76986
G1 X124.678 Y121.812 E8.77224
G1 X124.616 Y121.563 E8.77651
G1 X126.079 Y104.262 E9.06525
G0 F3000 X126.527 Y104.181
G1 F600 X126.688 Y104.113 E9.06816
G1 X130.088 Y104.292 E9.12478
G1 X133.47 Y104.282 E9.18102
G1 X136.869 Y104.085 E9.23764
G1 X136.99 Y104.117 E9.23973
G1 X137.08 Y104.268 E9.24265
G1 X138.555 Y121.485 E9.53002
G1 X138.527 Y121.606 E9.53208
G1 X138.416 Y121.699 E9.53449
G1 X133.98 Y121.935 E9.60837
G1 X129.589 Y121.955 E9.68139
G1 X125.209 Y121.762 E9.7543
G1 X125.092 Y121.718 E9.75638
G1 X125.015 Y121.597 E9.75876
G1 X126.478 Y104.296 E10.04751
G1 X126.527 Y104.181 E10.04959
G1 F3000 E3.54959
;MESH:roulette-wheel-3.stl
G0 X126.024 Y104.139
G0 X104.819 Y95.675
G0 X103.745 Y95.767
G0 X102.676 Y94.835
;TYPE:WALL-INNER
G1 F3000 E10.04959
G1 F1800 X101.441 Y80.417 E10.29024
G1 X99.332 Y80.539 E10.32537
G1 X95.849 Y80.546 E10.38329
G1 X93.796 Y80.439 E10.41748
G1 X92.573 Y94.883 E10.65854
G1 X95.468 Y95.011 E10.70673
G1 X99.768 Y94.991 E10.77824
G1 X102.676 Y94.835 E10.82667
G0 F3000 X103.109 Y95.213
G1 F1800 X101.806 Y79.995 E11.08068
G1 X99.331 Y80.139 E11.12191
G1 X95.87 Y80.146 E11.17946
G1 X93.43 Y80.019 E11.2201
G1 X92.139 Y95.264 E11.47453
G1 X95.46 Y95.411 E11.52981
G1 X99.779 Y95.391 E11.60164
G1 X103.109 Y95.213 E11.65709
G0 F3000 X103.543 Y95.59
G1 F1800 X102.171 Y79.573 E11.92443
G1 X99.33 Y79.739 E11.97176
G1 X95.891 Y79.747 E12.02895
G1 X93.064 Y79.599 E12.07603
G1 X91.706 Y95.646 E12.34384
G1 X95.452 Y95.811 E12.4062
G1 X99.791 Y95.791 E12.47836
G1 X103.543 Y95.59 E12.54085
G0 F3000 X103.977 Y95.967
;TYPE:WALL-OUTER
G1 F1800 X102.537 Y79.151 E12.82152
G1 X99.329 Y79.339 E12.87496
G1 X95.912 Y79.347 E12.93179
G1 X92.698 Y79.179 E12.98531
G1 X91.272 Y96.027 E13.26649
G1 X95.444 Y96.211 E13.33594
G1 X99.803 Y96.191 E13.40843
G1 X103.977 Y95.967 E13.47795
G0 F3000 X103.685 Y95.715
G0 X102.285 Y94.495
;TYPE:SKIN
G1 F1500 X99.749 Y94.631 E13.52018
G1 X95.48 Y94.651 E13.59118
G1 X92.964 Y94.539 E13.63306
G1 X94.126 Y80.817 E13.86207
G1 X95.838 Y80.906 E13.89058
G1 X99.34 Y80.899 E13.94882
G1 X101.113 Y80.797 E13.97835
G1 X102.285 Y94.495 E14.20698
G0 F3000 X93.227 Y93.793
G1 F1500 X93.809 Y94.375 E14.22067
G0 F3000 X94.402 Y94.402
G1 F1500 X93.271 Y93.271 E14.24727
G0 F3000 X93.316 Y92.75
G1 F1500 X94.994 Y94.429 E14.28675
G0 F3000 X95.581 Y94.45
G1 F1500 X93.36 Y92.228 E14.33899
G0 F3000 X93.403 Y91.706
G1 F1500 X96.144 Y94.447 E14.40346
G0 F3000 X96.707 Y94.444
G1 F1500 X93.448 Y91.185 E14.4801
G0 F3000 X93.492 Y90.663
G1 F1500 X97.27 Y94.441 E14.56896
G0 F3000 X97.833 Y94.439
G1 F1500 X93.536 Y90.142 E14.67002
G0 F3000 X93.58 Y89.62
G1 F1500 X98.396 Y94.436 E14.78328
G0 F3000 X98.959 Y94.434
G1 F1500 X93.625 Y89.099 E14.90874
G0 F3000 X93.669 Y88.577
G1 F1500 X99.522 Y94.431 E15.04641
G0 F3000 X100.069 Y94.412
G1 F1500 X93.712 Y88.056 E15.1959
G0 F3000 X93.757 Y87.534
G1 F1500 X100.606 Y94.383 E15.35698
G0 F3000 X101.143 Y94.354
G1 F1500 X93.801 Y87.013 E15.52964
G0 F3000 X93.845 Y86.491
G1 F1500 X101.68 Y94.326 E15.71391
G0 F3000 X102.053 Y94.133
G1 F1500 X93.889 Y85.97 E15.9059
G0 F3000 X93.933 Y85.448
G1 F1500 X102 Y93.514 E16.09561
G0 F3000 X101.947 Y92.896
G1 F1500 X93.978 Y84.927 E16.28303
G0 F3000 X94.021 Y84.405
G1 F1500 X101.894 Y92.277 E16.46818
G0 F3000 X101.841 Y91.658
G1 F1500 X94.066 Y83.884 E16.65102
G0 F3000 X94.11 Y83.362
G1 F1500 X101.788 Y91.039 E16.83159
G0 F3000 X101.734 Y90.421
G1 F1500 X94.154 Y82.84 E17.00987
G0 F3000 X94.198 Y82.319
G1 F1500 X101.681 Y89.802 E17.18586
G0 F3000 X101.628 Y89.183
G1 F1500 X94.242 Y81.797 E17.35956
G0 F3000 X94.287 Y81.276
G1 F1500 X101.575 Y88.565 E17.53098
G0 F3000 X101.523 Y87.947
G1 F1500 X94.62 Y81.043 E17.69334
G0 F3000 X95.216 Y81.074
G1 F1500 X101.47 Y87.328 E17.84042
G0 F3000 X101.417 Y86.709
G1 F1500 X95.812 Y81.105 E17.97223
G0 F3000 X96.378 Y81.105
G1 F1500 X101.364 Y86.09 E18.08948
G0 F3000 X101.311 Y85.472
G1 F1500 X96.942 Y81.103 E18.19224
G0 F3000 X97.507 Y81.103
G1 F1500 X101.258 Y84.853 E18.28044
G0 F3000 X101.205 Y84.234
G1 F1500 X98.072 Y81.101 E18.35413
G0 F3000 X98.637 Y81.1
G1 F1500 X101.152 Y83.616 E18.41329
G0 F3000 X101.099 Y82.997
G1 F1500 X99.201 Y81.099 E18.45792
G0 F3000 X99.744 Y81.076
G1 F1500 X101.046 Y82.378 E18.48855
G0 F3000 X100.993 Y81.76
G1 F1500 X100.279 Y81.046 E18.50534
G0 F3000 X100.814 Y81.015
G1 F1500 X100.94 Y81.141 E18.5083
G1 F3000 E12.0083
;MESH:roulette-wheel-5.stl
G0 X103.645 Y94.449
G0 X104.706 Y94.358
G0 X114.893 Y94.152
G0 X115.968 Y94.242
G0 X117.036 Y93.302
;TYPE:WALL-INNER
G1 F3000 E18.5083
G1 F1800 X119.93 Y93.431 E18.55648
G1 X124.231 Y93.411 E18.628
G1 X127.139 Y93.255 E18.67643
G1 X125.904 Y78.837 E18.91708
G1 X123.872 Y78.955 E18.95093
G1 X120.312 Y78.966 E19.01014
G1 X118.259 Y78.859 E19.04432
G1 X117.036 Y93.302 E19.28537
G0 F3000 X116.603 Y93.684
G1 F1800 X119.922 Y93.831 E19.34062
G1 X124.242 Y93.811 E19.41246
G1 X127.572 Y93.633 E19.46792
G1 X126.269 Y78.415 E19.72192
G1 X123.849 Y78.556 E19.76224
G1 X120.333 Y78.566 E19.82071
G1 X117.893 Y78.439 E19.86134
G1 X116.603 Y93.684 E20.11577
G0 F3000 X116.169 Y94.065
G1 F1800 X119.914 Y94.231 E20.17811
G1 X124.254 Y94.211 E20.25029
G1 X128.006 Y94.01 E20.31277
G1 X126.634 Y77.993 E20.58011
G1 X123.793 Y78.157 E20.62744
G1 X120.354 Y78.167 E20.68463
G1 X117.527 Y78.019 E20.7317
G1 X116.169 Y94.065 E20.9995
G0 F3000 X115.735 Y94.446
;TYPE:WALL-OUTER
G1 F1800 X119.906 Y94.631 E21.06894
G1 X124.266 Y94.611 E21.14144
G1 X128.44 Y94.387 E21.21096
G1 X127 Y77.571 E21.49163
G1 X123.792 Y77.757 E21.54507
G1 X120.375 Y77.767 E21.6019
G1 X117.161 Y77.599 E21.65542
G1 X115.735 Y94.446 E21.93659
G0 F3000 X116.028 Y94.189
G0 X117.427 Y92.959
;TYPE:SKIN
G1 F1500 X118.589 Y79.237 E22.1656
G1 X120.301 Y79.326 E22.19411
G1 X123.891 Y79.315 E22.25381
G1 X125.576 Y79.217 E22.28188
G1 X126.748 Y92.915 E22.51051
G1 X124.212 Y93.051 E22.55275
G1 X119.942 Y93.071 E22.62376
G1 X117.427 Y92.959 E22.66563
G0 F3000 X117.688 Y92.232
G1 F1500 X118.25 Y92.795 E22.67885
G0 F3000 X118.843 Y92.821
G1 F1500 X117.731 Y91.71 E22.705
G0 F3000 X117.776 Y91.189
G1 F1500 X119.435 Y92.848 E22.74401
G0 F3000 X120.023 Y92.87
G1 F1500 X117.82 Y90.667 E22.79582
G0 F3000 X117.864 Y90.145
G1 F1500 X120.586 Y92.867 E22.85984
G0 F3000 X121.149 Y92.865
G1 F1500 X117.908 Y89.624 E22.93606
G0 F3000 X117.952 Y89.102
G1 F1500 X121.712 Y92.862 E23.02449
G0 F3000 X122.275 Y92.86
G1 F1500 X117.997 Y88.581 E23.12512
G0 F3000 X118.04 Y88.059
G1 F1500 X122.838 Y92.857 E23.23796
G0 F3000 X123.401 Y92.854
G1 F1500 X118.085 Y87.538 E23.36298
G0 F3000 X118.129 Y87.016
G1 F1500 X123.964 Y92.851 E23.50021
G0 F3000 X124.512 Y92.833
G1 F1500 X118.173 Y86.495 E23.64929
G0 F3000 X118.217 Y85.973
G1 F1500 X125.049 Y92.805 E23.80996
G0 F3000 X125.586 Y92.776
G1 F1500 X118.261 Y85.451 E23.98224
G0 F3000 X118.306 Y84.93
G1 F1500 X126.123 Y92.747 E24.16608
G0 F3000 X126.517 Y92.576
G1 F1500 X118.349 Y84.408 E24.35818
G0 F3000 X118.394 Y83.887
G1 F1500 X126.465 Y91.958 E24.548
G0 F3000 X126.412 Y91.339
G1 F1500 X118.438 Y83.365 E24.73553
G0 F3000 X118.482 Y82.844
G1 F1500 X126.359 Y90.721 E24.92079
G0 F3000 X126.306 Y90.102
G1 F1500 X118.526 Y82.322 E25.10376
G0 F3000 X118.571 Y81.801
G1 F1500 X126.253 Y89.483 E25.28443
G0 F3000 X126.2 Y88.864
G1 F1500 X118.615 Y81.279 E25.46282
G0 F3000 X118.658 Y80.757
G1 F1500 X126.147 Y88.246 E25.63895
G0 F3000 X126.094 Y87.628
G1 F1500 X118.703 Y80.236 E25.81278
G0 F3000 X118.747 Y79.714
G1 F1500 X126.041 Y87.009 E25.98434
G0 F3000 X125.988 Y86.39
G1 F1500 X119.06 Y79.462 E26.14728
G0 F3000 X119.656 Y79.492
G1 F1500 X125.935 Y85.772 E26.29496
G0 F3000 X125.882 Y85.153
G1 F1500 X120.253 Y79.524 E26.42735
G0 F3000 X120.819 Y79.524
G1 F1500 X125.829 Y84.534 E26.54517
G0 F3000 X125.777 Y83.916
G1 F1500 X121.383 Y79.522 E26.64851
G0 F3000 X121.947 Y79.521
G1 F1500 X125.724 Y83.297 E26.73733
G0 F3000 X125.671 Y82.679
G1 F1500 X122.511 Y79.519 E26.81165
G0 F3000 X123.076 Y79.518
G1 F1500 X125.618 Y82.06 E26.87143
G0 F3000 X125.565 Y81.441
G1 F1500 X123.64 Y79.516 E26.91671
G0 F3000 X124.188 Y79.499
G1 F1500 X125.512 Y80.823 E26.94784
G0 F3000 X125.459 Y80.204
G1 F1500 X124.723 Y79.468 E26.96515
G0 F3000 X125.256 Y79.436
G1 F1500 X125.406 Y79.586 E26.96868
G1 F3000 E20.46868
;MESH:roulette-wheel-7.stl
G0 X125.353 Y94.353
G0 X125.41 Y95.415
G0 X127.112 Y103.67
G0 X127.056 Y104.747
G0 X126.736 Y120.228
;TYPE:WALL-INNER
G1 F3000 E26.96868
G1 F1800 X129.631 Y120.355 E27.01687
G1 X133.93 Y120.335 E27.08837
G1 X136.838 Y120.18 E27.13679
G1 X135.603 Y105.762 E27.37744
G1 X133.571 Y105.88 E27.41129
G1 X130.011 Y105.891 E27.4705
G1 X127.959 Y105.783 E27.50467
G1 X126.736 Y120.228 E27.74575
G0 F3000 X126.303 Y120.609
G1 F1800 X129.623 Y120.755 E27.80102
G1 X133.942 Y120.735 E27.87284
G1 X137.271 Y120.557 E27.92828
G1 X135.968 Y105.34 E28.18227
G1 X133.548 Y105.481 E28.22258
G1 X130.032 Y105.491 E28.28105
G1 X127.593 Y105.363 E28.32167
G1 X126.303 Y120.609 E28.57612
G0 F3000 X125.869 Y120.99
G1 F1800 X129.615 Y121.155 E28.63847
G1 X133.953 Y121.135 E28.71062
G1 X137.705 Y120.934 E28.7731
G1 X136.333 Y104.918 E29.04042
G1 X133.492 Y105.082 E29.08775
G1 X130.053 Y105.092 E29.14494
G1 X127.227 Y104.943 E29.192
G1 X125.869 Y120.99 E29.45982
G0 F3000 X125.435 Y121.372
;TYPE:WALL-OUTER
G1 F1800 X129.607 Y121.555 E29.52927
G1 X133.965 Y121.535 E29.60174
G1 X138.139 Y121.312 E29.67125
G1 X136.699 Y104.496 E29.95193
G1 X133.491 Y104.682 E30.00537
G1 X130.074 Y104.692 E30.06219
G1 X126.861 Y104.523 E30.1157
G1 X125.435 Y121.372 E30.3969
G0 F3000 X125.727 Y121.114
G0 X127.127 Y119.885
;TYPE:SKIN
G1 F1500 X128.289 Y106.161 E30.62595
G1 X129.999 Y106.251 E30.65442
G1 X133.59 Y106.24 E30.71414
G1 X135.275 Y106.142 E30.74221
G1 X136.447 Y119.839 E30.97083
G1 X133.911 Y119.975 E31.01306
