;FLAVOR:Marlin
;TIME:3088
;Filament used: 2.48007m
;Layer height: 0.2
;MINX:93.713
;MINY:101.151
;MINZ:0.25
;MAXX:141.287
;MAXY:133.849
;MAXZ:22.05
;Generated with Cura_SteamEngine 5.3.0
M140 S55
M105
M190 S55
M104 S212
M105
M109 S212
M82 ;absolute extrusion mode
START_PRINT
G92 E0
G92 E0
G1 F5100 E-0.6
;LAYER_COUNT:110
;LAYER:0
M107
G0 F3000 X95.151 Y105.496 Z0.25
;TYPE:SKIRT
G1 F5100 E0
G1 F600 X95.931 Y104.895 E0.04094
G1 X96.381 Y104.636 E0.06252
G1 X97.351 Y104.244 E0.10602
G1 X98.311 Y104.104 E0.14636
G1 X98.357 Y103.667 E0.16462
G1 X98.693 Y103.072 E0.19303
G1 X100.091 Y101.674 E0.27523
G1 X101.013 Y101.278 E0.31695
G1 X101.669 Y101.151 E0.34473
G1 X104.959 Y101.151 E0.48151
G1 X105.775 Y101.418 E0.51721
G1 X106.43 Y101.808 E0.5489
G1 X107.12 Y102.561 E0.59136
G1 X107.768 Y104.112 E0.66125
G1 X107.947 Y104.112 E0.66869
G1 X108.014 Y103.793 E0.68224
G1 X108.458 Y102.722 E0.73044
G1 X108.744 Y102.333 E0.75051
G1 X108.961 Y102.128 E0.76293
G1 X109.503 Y101.835 E0.78854
G1 X109.99 Y101.749 E0.8091
G1 X113.197 Y101.753 E0.94243
G1 X113.85 Y101.807 E0.96967
G1 X114.8 Y101.848 E1.00921
G1 X118.218 Y101.849 E1.15131
G1 X118.734 Y101.978 E1.17342
G1 X119.183 Y102.216 E1.19455
G1 X119.485 Y102.522 E1.21243
G1 X119.695 Y102.875 E1.2295
G1 X120.099 Y103.828 E1.27254
G1 X120.165 Y104.111 E1.28462
G1 X136.775 Y104.118 E1.97518
G1 X137.13 Y104.157 E1.99003
G1 X137.774 Y104.303 E2.01748
G1 X138.665 Y104.661 E2.05741
G1 X139.189 Y104.977 E2.08285
G1 X139.904 Y105.551 E2.12097
G1 X140.505 Y106.331 E2.16191
G1 X140.764 Y106.781 E2.18349
G1 X141.157 Y107.753 E2.22708
G1 X141.275 Y108.56 E2.26099
G1 X141.287 Y126.265 E2.99708
G1 X141.219 Y126.868 E3.02231
G1 X141.115 Y127.317 E3.04147
G1 X140.739 Y128.265 E3.08387
G1 X140.423 Y128.789 E3.10931
G1 X139.849 Y129.504 E3.14743
G1 X139.069 Y130.105 E3.18837
G1 X138.619 Y130.364 E3.20995
G1 X137.647 Y130.757 E3.25354
G1 X136.661 Y130.887 E3.29489
G1 X120.443 Y130.888 E3.96916
G1 X119.883 Y132.199 E4.02843
G1 X119.592 Y132.582 E4.04842
G1 X119.374 Y132.782 E4.06072
G1 X118.842 Y133.066 E4.0858
G1 X118.358 Y133.151 E4.10623
G1 X114.769 Y133.152 E4.25544
G1 X113.657 Y133.203 E4.30172
G1 X113.124 Y133.248 E4.32396
G1 X109.921 Y133.25 E4.45712
G1 X109.411 Y133.121 E4.47899
G1 X108.956 Y132.884 E4.50032
G1 X108.655 Y132.575 E4.51826
G1 X108.443 Y132.22 E4.53545
G1 X108.001 Y131.166 E4.58297
G1 X107.944 Y130.888 E4.59476
G1 X107.771 Y130.889 E4.60196
G1 X107.207 Y132.207 E4.66156
G1 X106.926 Y132.664 E4.68386
G1 X106.388 Y133.235 E4.71648
G1 X105.522 Y133.702 E4.75739
G1 X104.739 Y133.848 E4.7905
G1 X101.413 Y133.849 E4.92878
G1 X100.45 Y133.507 E4.97127
G1 X99.87 Y133.101 E5.0007
G1 X98.719 Y131.953 E5.06829
G1 X98.448 Y131.507 E5.08998
G1 X98.304 Y131.058 E5.10959
G1 X98.289 Y130.884 E5.11685
G1 X97.732 Y130.819 E5.14016
G1 X97.283 Y130.715 E5.15932
G1 X96.335 Y130.339 E5.20172
G1 X95.811 Y130.023 E5.22716
G1 X95.096 Y129.449 E5.26528
G1 X94.495 Y128.669 E5.30622
G1 X94.236 Y128.219 E5.32781
G1 X93.843 Y127.247 E5.3714
G1 X93.725 Y126.44 E5.40531
G1 X93.713 Y108.735 E6.14139
G1 X93.781 Y108.132 E6.16662
G1 X93.885 Y107.683 E6.18579
G1 X94.261 Y106.735 E6.22819
G1 X94.577 Y106.211 E6.25363
G1 X95.151 Y105.496 E6.29175
G0 F3000 X95.432 Y105.784
G1 F600 X96.131 Y105.242 E6.32852
G1 X96.581 Y104.983 E6.35011
G1 X97.455 Y104.633 E6.38925
G1 X98.225 Y104.521 E6.4216
G1 X98.742 Y104.515 E6.44309
G1 X98.702 Y104.211 E6.45584
G1 X98.746 Y103.791 E6.4734
G1 X99.014 Y103.317 E6.49604
G1 X100.319 Y102.012 E6.57277
G1 X101.132 Y101.663 E6.60955
G1 X101.709 Y101.551 E6.63399
G1 X104.896 Y101.551 E6.76649
G1 X105.605 Y101.783 E6.7975
G1 X106.176 Y102.123 E6.82513
G1 X106.778 Y102.78 E6.86218
G1 X107.368 Y104.192 E6.9258
G1 X107.418 Y104.512 E6.93927
G1 X108.338 Y104.512 E6.97751
G1 X108.327 Y104.253 E6.98829
G1 X108.399 Y103.907 E7.00299
G1 X108.808 Y102.921 E7.04737
G1 X109.066 Y102.57 E7.06548
G1 X109.198 Y102.455 E7.07275
G1 X109.636 Y102.218 E7.09346
G1 X110.026 Y102.149 E7.10993
G1 X113.164 Y102.152 E7.24039
G1 X113.825 Y102.207 E7.26796
G1 X114.783 Y102.248 E7.30783
G1 X118.169 Y102.249 E7.4486
G1 X118.588 Y102.354 E7.46656
G1 X118.944 Y102.542 E7.4833
G1 X119.165 Y102.767 E7.49641
G1 X119.327 Y103.031 E7.50929
G1 X119.731 Y103.984 E7.55232
G1 X119.807 Y104.356 E7.56811
G1 X119.811 Y104.511 E7.57456
G1 X136.731 Y104.516 E8.27801
G1 X137.086 Y104.555 E8.29286
G1 X137.684 Y104.693 E8.31837
G1 X138.458 Y105.004 E8.35305
G1 X138.982 Y105.32 E8.37849
G1 X139.616 Y105.832 E8.41237
G1 X140.158 Y106.531 E8.44915
G1 X140.417 Y106.981 E8.47073
G1 X140.768 Y107.857 E8.50997
G1 X140.879 Y108.618 E8.54194
G1 X140.887 Y126.265 E9.27562
G1 X140.829 Y126.778 E9.29708
G1 X140.725 Y127.227 E9.31624
G1 X140.396 Y128.058 E9.3534
G1 X140.08 Y128.582 E9.37884
G1 X139.568 Y129.216 E9.41272
G1 X138.869 Y129.758 E9.4495
G1 X138.419 Y130.017 E9.47108
G1 X137.543 Y130.368 E9.51032
G1 X136.661 Y130.487 E9.54732
G1 X120.144 Y130.488 E10.23401
G1 X120.107 Y130.657 E10.24121
G1 X119.535 Y131.995 E10.30171
G1 X119.273 Y132.34 E10.31972
G1 X119.143 Y132.451 E10.32682
G1 X118.709 Y132.683 E10.34728
G1 X118.323 Y132.751 E10.36358
G1 X114.751 Y132.752 E10.51208
G1 X113.63 Y132.803 E10.55874
G1 X113.09 Y132.849 E10.58127
G1 X109.971 Y132.85 E10.71094
G1 X109.553 Y132.744 E10.72887
G1 X109.199 Y132.56 E10.74546
G1 X108.975 Y132.33 E10.75881
G1 X108.812 Y132.065 E10.77174
G1 X108.37 Y131.011 E10.81926
G1 X108.284 Y130.488 E10.84129
G1 X107.416 Y130.489 E10.87738
G1 X107.372 Y130.806 E10.89069
G1 X106.866 Y131.998 E10.94453
G1 X106.608 Y132.418 E10.96502
G1 X106.14 Y132.914 E10.99337
G1 X105.386 Y133.321 E11.02899
G1 X104.704 Y133.448 E11.05783
G1 X101.482 Y133.449 E11.19179
G1 X100.635 Y133.148 E11.22916
G1 X100.125 Y132.791 E11.25504
G1 X99.036 Y131.705 E11.31898
G1 X98.816 Y131.342 E11.33663
G1 X98.685 Y130.935 E11.35441
G1 X98.737 Y130.488 E11.37312
G1 X98.334 Y130.487 E11.38987
G1 X97.822 Y130.429 E11.41129
G1 X97.373 Y130.325 E11.43046
G1 X96.542 Y129.996 E11.46761
G1 X96.018 Y129.68 E11.49305
G1 X95.384 Y129.168 E11.52693
G1 X94.842 Y128.469 E11.56371
G1 X94.583 Y128.019 E11.58529
G1 X94.232 Y127.143 E11.62453
G1 X94.121 Y126.382 E11.6565
G1 X94.113 Y108.735 E12.39018
G1 X94.171 Y108.222 E12.41164
G1 X94.275 Y107.773 E12.43081
G1 X94.604 Y106.942 E12.46796
G1 X94.92 Y106.418 E12.4934
G1 X95.432 Y105.784 E12.52728
G0 F3000 X95.714 Y106.072
G1 F600 X96.331 Y105.589 E12.55986
G1 X96.781 Y105.33 E12.58145
G1 X97.559 Y105.022 E12.61624
G1 X98.282 Y104.917 E12.64661
G1 X99.298 Y104.913 E12.68885
G1 X99.148 Y104.537 E12.70568
G1 X99.105 Y104.205 E12.7196
G1 X99.135 Y103.915 E12.73172
G1 X99.335 Y103.562 E12.74859
G1 X100.549 Y102.348 E12.81997
G1 X101.247 Y102.048 E12.85155
G1 X101.749 Y101.951 E12.87281
G1 X104.833 Y101.951 E13.00103
G1 X105.435 Y102.148 E13.02736
G1 X105.922 Y102.438 E13.05093
G1 X106.436 Y102.999 E13.08256
G1 X106.981 Y104.302 E13.14128
G1 X107.027 Y104.599 E13.15378
G1 X106.982 Y104.912 E13.16692
G1 X108.865 Y104.912 E13.24521
G1 X108.768 Y104.713 E13.25441
G1 X108.719 Y104.334 E13.2703
G1 X108.784 Y104.021 E13.28359
G1 X109.158 Y103.12 E13.32415
G1 X109.388 Y102.807 E13.3403
G1 X109.769 Y102.601 E13.3583
G1 X110.062 Y102.549 E13.37068
G1 X113.131 Y102.551 E13.49827
G1 X113.8 Y102.607 E13.52618
G1 X114.766 Y102.648 E13.56638
G1 X118.119 Y102.649 E13.70578
G1 X118.445 Y102.731 E13.71976
G1 X118.704 Y102.867 E13.73192
G1 X118.828 Y102.982 E13.73895
G1 X118.959 Y103.187 E13.74906
G1 X119.347 Y104.101 E13.79035
G1 X119.415 Y104.436 E13.80456
G1 X119.392 Y104.732 E13.8169
G1 X119.321 Y104.911 E13.82491
G1 X136.687 Y104.914 E14.5469
G1 X137.042 Y104.953 E14.56175
G1 X137.537 Y105.065 E14.58285
G1 X138.251 Y105.347 E14.61477
G1 X138.775 Y105.663 E14.64021
G1 X139.328 Y106.114 E14.66987
G1 X139.811 Y106.731 E14.70245
G1 X140.07 Y107.181 E14.72404
G1 X140.379 Y107.961 E14.75892
G1 X140.483 Y108.676 E14.78896
G1 X140.487 Y126.265 E15.52022
G1 X140.439 Y126.688 E15.53792
G1 X140.335 Y127.137 E15.55708
G1 X140.053 Y127.851 E15.589
G1 X139.737 Y128.375 E15.61444
G1 X139.286 Y128.928 E15.64411
G1 X138.669 Y129.411 E15.67668
G1 X138.219 Y129.67 E15.69827
G1 X137.44 Y129.979 E15.73311
G1 X136.661 Y130.087 E15.76581
G1 X119.795 Y130.088 E16.46702
G1 X119.739 Y130.5 E16.4843
G1 X119.187 Y131.791 E16.54268
G1 X118.954 Y132.098 E16.5587
G1 X118.576 Y132.3 E16.57652
G1 X118.287 Y132.351 E16.58872
G1 X114.733 Y132.352 E16.73648
G1 X113.612 Y132.403 E16.78313
G1 X113.09 Y132.449 E16.80492
G1 X110.022 Y132.45 E16.93247
G1 X109.697 Y132.368 E16.94641
G1 X109.438 Y132.233 E16.95855
G1 X109.312 Y132.115 E16.96573
G1 X109.181 Y131.91 E16.97584
G1 X108.757 Y130.9 E17.02138
G1 X108.694 Y130.516 E17.03756
G1 X108.828 Y130.088 E17.05621
G1 X106.982 Y130.089 E17.13295
G1 X107.028 Y130.372 E17.14487
G1 X106.984 Y130.697 E17.15851
G1 X106.525 Y131.788 E17.20772
G1 X106.286 Y132.176 E17.22666
G1 X105.894 Y132.592 E17.25043
G1 X105.25 Y132.94 E17.28086
G1 X104.669 Y133.048 E17.30543
G1 X101.551 Y133.049 E17.43506
G1 X100.82 Y132.789 E17.46732
G1 X100.38 Y132.481 E17.48965
G1 X99.355 Y131.459 E17.54983
G1 X99.182 Y131.174 E17.56369
G1 X99.092 Y130.894 E17.57591
G1 X99.14 Y130.482 E17.59316
G1 X99.3 Y130.089 E17.6108
G1 X98.335 Y130.087 E17.65092
G1 X97.912 Y130.039 E17.66862
G1 X97.463 Y129.935 E17.68778
G1 X96.749 Y129.653 E17.7197
G1 X96.225 Y129.337 E17.74514
G1 X95.672 Y128.886 E17.7748
G1 X95.189 Y128.269 E17.80738
G1 X94.93 Y127.819 E17.82897
G1 X94.621 Y127.039 E17.86385
G1 X94.517 Y126.324 E17.89389
G1 X94.513 Y108.735 E18.62515
G1 X94.561 Y108.312 E18.64285
G1 X94.665 Y107.863 E18.66201
G1 X94.947 Y107.149 E18.69393
G1 X95.263 Y106.625 E18.71937
G1 X95.714 Y106.072 E18.74904
G0 F3000 X95.996 Y106.359
G1 F600 X96.531 Y105.936 E18.77739
G1 X96.981 Y105.677 E18.79898
G1 X97.663 Y105.411 E18.82941
G1 X98.339 Y105.313 E18.85781
G1 X100.367 Y105.313 E18.94213
G1 X100.075 Y105.213 E18.95496
G1 X99.807 Y105.009 E18.96896
G1 X99.711 Y104.867 E18.97609
G1 X99.539 Y104.436 E18.99538
G1 X99.502 Y104.153 E19.00725
G1 X99.53 Y103.978 E19.01462
G1 X99.618 Y103.845 E19.02125
G1 X100.777 Y102.686 E19.08939
G1 X101.366 Y102.433 E19.11604
G1 X101.789 Y102.351 E19.13396
G1 X104.77 Y102.351 E19.25789
G1 X105.265 Y102.513 E19.27954
G1 X105.668 Y102.753 E19.29905
G1 X106.094 Y103.218 E19.32526
G1 X106.593 Y104.412 E19.37907
G1 X106.632 Y104.661 E19.38954
G1 X106.573 Y104.901 E19.39982
G1 X106.507 Y105.007 E19.40501
G1 X106.305 Y105.171 E19.41583
G1 X106.039 Y105.243 E19.42729
G1 X105.677 Y105.243 E19.44234
G1 X105.508 Y105.312 E19.44993
G1 X109.804 Y105.312 E19.62853
G1 X109.299 Y104.844 E19.65716
G1 X109.16 Y104.633 E19.66766
G1 X109.113 Y104.403 E19.67742
G1 X109.153 Y104.174 E19.68709
G1 X109.508 Y103.319 E19.72558
G1 X109.658 Y103.115 E19.7361
G1 X109.851 Y102.993 E19.7456
G1 X110.062 Y102.949 E19.75456
G1 X113.097 Y102.95 E19.88074
G1 X113.773 Y103.007 E19.90894
G1 X114.749 Y103.048 E19.94956
G1 X118.069 Y103.049 E20.08758
G1 X118.347 Y103.119 E20.0995
G1 X118.499 Y103.21 E20.10687
G1 X118.591 Y103.343 E20.11359
G1 X118.979 Y104.257 E20.15487
G1 X119.02 Y104.502 E20.1652
G1 X118.996 Y104.678 E20.17259
G1 X118.844 Y104.907 E20.18401
G1 X118.721 Y105.014 E20.19079
G1 X118.193 Y105.311 E20.21598
G1 X136.643 Y105.312 E20.98304
G1 X136.998 Y105.351 E20.99789
G1 X137.447 Y105.455 E21.01705
G1 X138.047 Y105.691 E21.04385
G1 X138.522 Y105.973 E21.06682
G1 X139.041 Y106.396 E21.09466
G1 X139.464 Y106.931 E21.12301
G1 X139.723 Y107.381 E21.1446
G1 X139.991 Y108.068 E21.17526
G1 X140.083 Y108.676 E21.20082
G1 X140.087 Y126.265 E21.93209
G1 X140.049 Y126.598 E21.94602
G1 X139.945 Y127.047 E21.96518
G1 X139.709 Y127.647 E21.99199
G1 X139.427 Y128.122 E22.01496
G1 X139.004 Y128.641 E22.04279
G1 X138.469 Y129.064 E22.07115
G1 X138.019 Y129.323 E22.09273
G1 X137.337 Y129.589 E22.12317
G1 X136.661 Y129.687 E22.15157
G1 X119.142 Y129.688 E22.87992
G1 X119.316 Y129.865 E22.89024
G1 X119.388 Y130.116 E22.9011
G1 X119.35 Y130.391 E22.91264
G1 X118.839 Y131.587 E22.96671
G1 X118.686 Y131.789 E22.97725
G1 X118.495 Y131.908 E22.9866
G1 X118.287 Y131.951 E22.99543
G1 X114.715 Y131.952 E23.14394
G1 X113.594 Y132.003 E23.19059
G1 X113.09 Y132.049 E23.21163
G1 X110.072 Y132.05 E23.33711
G1 X109.795 Y131.98 E23.34899
G1 X109.642 Y131.889 E23.35639
G1 X109.55 Y131.755 E23.36315
G1 X109.144 Y130.789 E23.40671
G1 X109.104 Y130.542 E23.41711
G1 X109.161 Y130.302 E23.42737
G1 X109.308 Y130.1 E23.43776
G1 X109.793 Y129.688 E23.46421
G1 X105.53 Y129.689 E23.64145
G1 X105.681 Y129.759 E23.64837
G1 X106.041 Y129.759 E23.66333
G1 X106.285 Y129.818 E23.67377
G1 X106.487 Y129.967 E23.68421
G1 X106.559 Y130.069 E23.6894
G1 X106.632 Y130.318 E23.70019
G1 X106.595 Y130.589 E23.71156
G1 X106.156 Y131.633 E23.75864
G1 X105.968 Y131.93 E23.77326
G1 X105.646 Y132.271 E23.79276
G1 X105.114 Y132.559 E23.81791
G1 X104.634 Y132.648 E23.8382
G1 X101.62 Y132.649 E23.96351
G1 X101.005 Y132.43 E23.99065
G1 X100.635 Y132.171 E24.00943
G1 X99.672 Y131.211 E24.06596
G1 X99.524 Y130.967 E24.07783
G1 X99.48 Y130.795 E24.08521
G1 X99.51 Y130.633 E24.09206
G1 X99.728 Y130.099 E24.11604
G1 X99.831 Y129.953 E24.12347
G1 X100.115 Y129.75 E24.13798
G1 X100.324 Y129.689 E24.14703
G1 X98.377 Y129.689 E24.22798
G1 X98.002 Y129.649 E24.24366
G1 X97.553 Y129.545 E24.26282
G1 X96.953 Y129.309 E24.28962
G1 X96.478 Y129.027 E24.31259
G1 X95.959 Y128.604 E24.34043
G1 X95.536 Y128.069 E24.36878
G1 X95.277 Y127.619 E24.39037
G1 X95.009 Y126.932 E24.42103
G1 X94.917 Y126.324 E24.44659
G1 X94.913 Y108.735 E25.17786
G1 X94.951 Y108.402 E25.19179
G1 X95.055 Y107.953 E25.21095
G1 X95.291 Y107.353 E25.23776
G1 X95.573 Y106.878 E25.26072
G1 X95.996 Y106.359 E25.28856
G0 F3000 X96.278 Y106.647
G1 F600 X96.731 Y106.283 E25.31272
G1 X97.181 Y106.024 E25.33431
G1 X97.765 Y105.8 E25.36031
G1 X98.339 Y105.713 E25.38445
G1 X136.603 Y105.71 E26.97528
G1 X136.908 Y105.741 E26.98803
G1 X137.357 Y105.845 E27.00719
G1 X137.846 Y106.037 E27.02903
G1 X138.269 Y106.283 E27.04937
G1 X138.753 Y106.678 E27.07535
G1 X139.117 Y107.131 E27.09951
G1 X139.376 Y107.581 E27.12109
G1 X139.601 Y108.167 E27.14719
G1 X139.687 Y108.736 E27.17112
G1 X139.689 Y126.223 E27.89814
G1 X139.659 Y126.508 E27.91005
G1 X139.555 Y126.957 E27.92922
G1 X139.363 Y127.446 E27.95106
G1 X139.117 Y127.869 E27.9714
G1 X138.722 Y128.353 E27.99737
G1 X138.269 Y128.717 E28.02153
G1 X137.819 Y128.976 E28.04312
G1 X137.235 Y129.2 E28.06913
G1 X136.661 Y129.287 E28.09326
G1 X98.377 Y129.289 E29.68493
G1 X98.092 Y129.259 E29.69684
G1 X97.643 Y129.155 E29.716
G1 X97.154 Y128.963 E29.73784
G1 X96.731 Y128.717 E29.75819
G1 X96.247 Y128.322 E29.78416
G1 X95.883 Y127.869 E29.80832
G1 X95.624 Y127.419 E29.82991
G1 X95.399 Y126.833 E29.856
G1 X95.313 Y126.264 E29.87993
G1 X95.311 Y108.777 E30.60695
G1 X95.341 Y108.492 E30.61887
G1 X95.445 Y108.043 E30.63803
G1 X95.637 Y107.554 E30.65987
G1 X95.883 Y107.131 E30.68022
G1 X96.278 Y106.647 E30.70619
G1 F5100 E30.10619
G0 F3000 X95.986 Y106.283
G0 X96.479 Y105.889
G0 X96.967 Y105.608
G0 X97.338 Y105.464
G0 X100.083 Y104.719
G1 F5100 E30.70619
G1 F600 X99.911 Y104.288 E30.72548
G1 X99.901 Y104.128 E30.73215
G1 X101.007 Y103.022 E30.79717
G1 X101.481 Y102.818 E30.81863
G1 X101.829 Y102.751 E30.83336
G1 X104.707 Y102.751 E30.95302
G1 X105.095 Y102.878 E30.96999
G1 X105.414 Y103.068 E30.98543
G1 X105.752 Y103.437 E31.00623
G1 X106.224 Y104.566 E31.05711
G1 X106.233 Y104.69 E31.06227
G1 X106.167 Y104.796 E31.06747
G1 X106.039 Y104.843 E31.07314
G1 X105.598 Y104.843 E31.09147
G1 X105.108 Y105.044 E31.11349
G1 X104.785 Y105.2 E31.1284
G1 X100.906 Y105.2 E31.28967
G1 X100.778 Y105.153 E31.29534
G1 X100.53 Y104.945 E31.3088
G1 X100.204 Y104.834 E31.32312
G1 X100.083 Y104.719 E31.33006
G1 F5100 E30.73006
G0 F3000 X109.511 Y104.441
G1 F5100 E31.33006
G1 F600 X109.522 Y104.327 E31.33482
G1 X109.877 Y103.472 E31.37331
G1 X109.959 Y103.378 E31.37849
G1 X110.062 Y103.349 E31.38294
G1 X113.063 Y103.349 E31.50771
G1 X113.746 Y103.407 E31.53621
G1 X114.732 Y103.448 E31.57724
G1 X118.069 Y103.449 E31.71597
G1 X118.223 Y103.499 E31.7227
