;FLAVOR:Marlin
;TIME:2844
;Filament used: 1.77218m
;Layer height: 0.2
;MINX:98.025
;MINY:103.524
;MINZ:0.25
;MAXX:136.975
;MAXY:131.476
;MAXZ:21.65
;Generated with Cura_SteamEngine 5.3.0
M140 S85
M105
M190 S85
M104 S240
M105
M109 S240
M82 ;absolute extrusion mode
START_PRINT
G92 E0
G92 E0
G1 F1500 E-8
;LAYER_COUNT:108
;LAYER:0
M107
G0 F6000 X103.46 Y104.002 Z0.25
;TYPE:SKIRT
G1 F1500 E0
G1 F1200 X103.826 Y103.741 E0.01869
G1 X104.378 Y103.56 E0.04284
G1 X104.814 Y103.535 E0.061
G1 X105.109 Y103.571 E0.07335
G1 X105.623 Y103.777 E0.09638
G1 X105.862 Y103.951 E0.10867
G1 X106.16 Y104.266 E0.12669
G1 X106.401 Y104.713 E0.14781
G1 X106.509 Y105.076 E0.16355
G1 X106.526 Y105.424 E0.17804
G1 X128.479 Y105.425 E1.09074
G1 X128.489 Y105.136 E1.10276
G1 X128.574 Y104.743 E1.11948
G1 X128.844 Y104.257 E1.14259
G1 X129.179 Y103.908 E1.1627
G1 X129.424 Y103.755 E1.17471
G1 X129.858 Y103.582 E1.19414
G1 X130.334 Y103.524 E1.21407
G1 X130.628 Y103.562 E1.2264
G1 X131.164 Y103.733 E1.24979
G1 X131.538 Y103.996 E1.2688
G1 X132.072 Y104.579 E1.30167
G1 X132.483 Y105.06 E1.32797
G1 X132.882 Y105.555 E1.3544
G1 X133.27 Y106.069 E1.38118
G1 X133.633 Y106.59 E1.40758
G1 X133.981 Y107.124 E1.43408
G1 X134.31 Y107.667 E1.46047
G1 X134.624 Y108.222 E1.48698
G1 X134.917 Y108.787 E1.51344
G1 X135.194 Y109.362 E1.53998
G1 X135.451 Y109.947 E1.56655
G1 X135.689 Y110.538 E1.59303
G1 X135.906 Y111.135 E1.61944
G1 X136.105 Y111.744 E1.64608
G1 X136.282 Y112.356 E1.67257
G1 X136.439 Y112.967 E1.69879
G1 X136.58 Y113.595 E1.72555
G1 X136.696 Y114.219 E1.75194
G1 X136.794 Y114.851 E1.77853
G1 X136.869 Y115.483 E1.80499
G1 X136.925 Y116.117 E1.83145
G1 X136.961 Y116.752 E1.85789
G1 X136.975 Y117.39 E1.88443
G1 X136.969 Y118.028 E1.91095
G1 X136.94 Y118.664 E1.93742
G1 X136.892 Y119.297 E1.96381
G1 X136.822 Y119.933 E1.99041
G1 X136.732 Y120.563 E2.01687
G1 X136.621 Y121.192 E2.04343
G1 X136.491 Y121.815 E2.06989
G1 X136.346 Y122.409 E2.09531
G1 X136.168 Y123.05 E2.12297
G1 X135.891 Y123.905 E2.16033
G1 X135.671 Y124.506 E2.18694
G1 X135.432 Y125.097 E2.21344
G1 X135.175 Y125.675 E2.23974
G1 X134.909 Y126.229 E2.26529
G1 X134.602 Y126.815 E2.2928
G1 X134.286 Y127.374 E2.31949
G1 X133.956 Y127.911 E2.3457
G1 X133.605 Y128.449 E2.3724
G1 X133.238 Y128.971 E2.39893
G1 X132.857 Y129.475 E2.4252
G1 X132.453 Y129.978 E2.45202
G1 X132.04 Y130.454 E2.47822
G1 X131.54 Y130.998 E2.50894
G1 X131.174 Y131.259 E2.52763
G1 X130.622 Y131.44 E2.55178
G1 X130.186 Y131.465 E2.56994
G1 X129.891 Y131.429 E2.5823
G1 X129.377 Y131.223 E2.60532
G1 X129.138 Y131.049 E2.61761
G1 X128.84 Y130.734 E2.63564
G1 X128.599 Y130.287 E2.65675
G1 X128.491 Y129.924 E2.6725
G1 X128.474 Y129.576 E2.68698
G1 X106.521 Y129.575 E3.59968
G1 X106.511 Y129.864 E3.6117
G1 X106.426 Y130.257 E3.62842
G1 X106.156 Y130.743 E3.65153
G1 X105.821 Y131.092 E3.67165
G1 X105.576 Y131.245 E3.68366
G1 X105.142 Y131.418 E3.70308
G1 X104.666 Y131.476 E3.72302
G1 X104.372 Y131.438 E3.73534
G1 X103.836 Y131.267 E3.75873
G1 X103.462 Y131.004 E3.77774
G1 X102.928 Y130.421 E3.81061
G1 X102.516 Y129.939 E3.83697
G1 X102.118 Y129.445 E3.86335
G1 X101.73 Y128.931 E3.89012
G1 X101.367 Y128.41 E3.91652
G1 X101.018 Y127.874 E3.94311
G1 X100.69 Y127.333 E3.96942
G1 X100.375 Y126.776 E3.99602
G1 X100.083 Y126.212 E4.02242
G1 X99.806 Y125.637 E4.04896
G1 X99.549 Y125.053 E4.07549
G1 X99.311 Y124.462 E4.10198
G1 X99.094 Y123.864 E4.12842
G1 X98.895 Y123.258 E4.15494
G1 X98.719 Y122.657 E4.18098
G1 X98.561 Y122.033 E4.20774
G1 X98.42 Y121.405 E4.2345
G1 X98.304 Y120.781 E4.26089
G1 X98.206 Y120.149 E4.28748
G1 X98.131 Y119.517 E4.31394
G1 X98.075 Y118.883 E4.3404
G1 X98.039 Y118.248 E4.36684
G1 X98.025 Y117.61 E4.39337
G1 X98.031 Y116.972 E4.4199
G1 X98.06 Y116.336 E4.44637
G1 X98.108 Y115.703 E4.47276
G1 X98.178 Y115.067 E4.49936
G1 X98.268 Y114.437 E4.52582
G1 X98.379 Y113.808 E4.55237
G1 X98.509 Y113.185 E4.57883
G1 X98.654 Y112.591 E4.60425
G1 X98.832 Y111.95 E4.63191
G1 X99.109 Y111.095 E4.66928
G1 X99.329 Y110.494 E4.69589
G1 X99.568 Y109.903 E4.72239
G1 X99.825 Y109.325 E4.74869
G1 X100.091 Y108.771 E4.77424
G1 X100.398 Y108.185 E4.80174
G1 X100.714 Y107.626 E4.82844
G1 X101.044 Y107.089 E4.85464
G1 X101.395 Y106.551 E4.88135
G1 X101.762 Y106.029 E4.90788
G1 X102.143 Y105.525 E4.93415
G1 X102.547 Y105.022 E4.96097
G1 X102.96 Y104.546 E4.98717
G1 X103.46 Y104.002 E5.01789
G0 F6000 X103.725 Y104.304
G1 F1200 X104.009 Y104.102 E5.03238
G1 X104.454 Y103.956 E5.05185
G1 X104.837 Y103.934 E5.0678
G1 X105.009 Y103.962 E5.07504
G1 X105.429 Y104.13 E5.09385
G1 X105.571 Y104.226 E5.10098
G1 X105.834 Y104.504 E5.11689
G1 X106.03 Y104.868 E5.13407
G1 X106.126 Y105.19 E5.14804
G1 X106.126 Y105.824 E5.1744
G1 X128.878 Y105.825 E6.12032
G1 X128.88 Y105.221 E6.14543
G1 X128.953 Y104.884 E6.15977
G1 X129.169 Y104.496 E6.17823
G1 X129.431 Y104.222 E6.19399
G1 X129.572 Y104.127 E6.20106
G1 X129.959 Y103.973 E6.21838
G1 X130.335 Y103.927 E6.23413
G1 X130.506 Y103.943 E6.24127
G1 X130.985 Y104.096 E6.26217
G1 X131.272 Y104.298 E6.27676
G1 X131.768 Y104.839 E6.30728
G1 X132.172 Y105.311 E6.33311
G1 X132.563 Y105.796 E6.35901
G1 X132.942 Y106.298 E6.38516
G1 X133.298 Y106.808 E6.41102
G1 X133.639 Y107.331 E6.43698
G1 X133.962 Y107.864 E6.46289
G1 X134.269 Y108.407 E6.48882
G1 X134.557 Y108.961 E6.51478
G1 X134.828 Y109.523 E6.54072
G1 X135.08 Y110.096 E6.56674
G1 X135.313 Y110.675 E6.59269
G1 X135.526 Y111.26 E6.61857
G1 X135.721 Y111.855 E6.64461
G1 X135.895 Y112.455 E6.67058
G1 X136.049 Y113.055 E6.69633
G1 X136.187 Y113.668 E6.72246
G1 X136.301 Y114.28 E6.74834
G1 X136.397 Y114.898 E6.77434
G1 X136.471 Y115.518 E6.8003
G1 X136.526 Y116.139 E6.82622
G1 X136.561 Y116.761 E6.85212
G1 X136.575 Y117.386 E6.87811
G1 X136.569 Y118.01 E6.90405
G1 X136.541 Y118.634 E6.93002
G1 X136.494 Y119.254 E6.95587
G1 X136.426 Y119.877 E6.98193
G1 X136.338 Y120.494 E7.00784
G1 X136.23 Y121.11 E7.03384
G1 X136.102 Y121.72 E7.05975
G1 X135.957 Y122.314 E7.08518
G1 X135.787 Y122.927 E7.11162
G1 X135.515 Y123.768 E7.14837
G1 X135.3 Y124.356 E7.1744
G1 X135.066 Y124.935 E7.20036
G1 X134.814 Y125.502 E7.22616
G1 X134.555 Y126.043 E7.2511
G1 X134.254 Y126.618 E7.27808
G1 X133.945 Y127.165 E7.3042
G1 X133.621 Y127.693 E7.32995
G1 X133.278 Y128.219 E7.35606
G1 X132.919 Y128.73 E7.38203
G1 X132.545 Y129.225 E7.40782
G1 X132.151 Y129.716 E7.43399
G1 X131.745 Y130.184 E7.45975
G1 X131.275 Y130.696 E7.48865
G1 X130.991 Y130.898 E7.50314
G1 X130.546 Y131.044 E7.52261
G1 X130.163 Y131.066 E7.53856
G1 X129.991 Y131.038 E7.5458
G1 X129.571 Y130.87 E7.56461
G1 X129.429 Y130.774 E7.57173
G1 X129.166 Y130.496 E7.58764
G1 X128.97 Y130.132 E7.60483
G1 X128.874 Y129.81 E7.6188
G1 X128.874 Y129.176 E7.64516
G1 X106.122 Y129.175 E8.59108
G1 X106.12 Y129.779 E8.61619
G1 X106.047 Y130.116 E8.63053
G1 X105.831 Y130.504 E8.64899
G1 X105.569 Y130.778 E8.66475
G1 X105.428 Y130.873 E8.67182
G1 X105.041 Y131.027 E8.68914
G1 X104.665 Y131.073 E8.70488
G1 X104.494 Y131.057 E8.71202
G1 X104.015 Y130.904 E8.73293
G1 X103.728 Y130.702 E8.74752
G1 X103.232 Y130.161 E8.77804
G1 X102.827 Y129.688 E8.80392
G1 X102.437 Y129.204 E8.82977
G1 X102.058 Y128.702 E8.85592
G1 X101.702 Y128.192 E8.88178
G1 X101.36 Y127.667 E8.90783
G1 X101.038 Y127.136 E8.93364
G1 X100.73 Y126.592 E8.95963
G1 X100.443 Y126.039 E8.98554
G1 X100.172 Y125.476 E9.01151
G1 X99.92 Y124.904 E9.0375
G1 X99.687 Y124.325 E9.06345
G1 X99.474 Y123.739 E9.08937
G1 X99.279 Y123.146 E9.11532
G1 X99.107 Y122.559 E9.14076
G1 X98.951 Y121.945 E9.16709
G1 X98.813 Y121.332 E9.19322
G1 X98.699 Y120.72 E9.2191
G1 X98.603 Y120.102 E9.2451
G1 X98.529 Y119.482 E9.27106
G1 X98.474 Y118.861 E9.29698
G1 X98.439 Y118.239 E9.32288
G1 X98.425 Y117.614 E9.34887
G1 X98.431 Y116.99 E9.37481
G1 X98.459 Y116.366 E9.40078
G1 X98.506 Y115.746 E9.42663
G1 X98.574 Y115.123 E9.45269
G1 X98.662 Y114.506 E9.4786
G1 X98.77 Y113.89 E9.5046
G1 X98.898 Y113.28 E9.53051
G1 X99.043 Y112.686 E9.55594
G1 X99.213 Y112.073 E9.58238
G1 X99.485 Y111.232 E9.61913
G1 X99.7 Y110.644 E9.64516
G1 X99.934 Y110.065 E9.67112
G1 X100.186 Y109.498 E9.69692
G1 X100.445 Y108.957 E9.72186
G1 X100.746 Y108.382 E9.74884
G1 X101.055 Y107.835 E9.77496
G1 X101.379 Y107.307 E9.80071
G1 X101.722 Y106.781 E9.82682
G1 X102.081 Y106.27 E9.85279
G1 X102.455 Y105.775 E9.87858
G1 X102.849 Y105.284 E9.90475
G1 X103.255 Y104.816 E9.93051
G1 X103.725 Y104.304 E9.95941
G0 F6000 X104.02 Y104.574
G1 F1200 X104.19 Y104.464 E9.96782
G1 X104.531 Y104.352 E9.98275
G1 X104.86 Y104.333 E9.99645
G1 X105.28 Y104.501 E10.01525
G1 X105.508 Y104.742 E10.02905
G1 X105.678 Y105.058 E10.04397
G1 X105.726 Y105.248 E10.05211
G1 X105.726 Y106.224 E10.09269
G1 X129.277 Y106.225 E11.07183
G1 X129.28 Y105.222 E11.11353
G1 X129.33 Y105.029 E11.12182
G1 X129.493 Y104.736 E11.13576
G1 X129.72 Y104.499 E11.1494
G1 X130.06 Y104.364 E11.16461
G1 X130.384 Y104.324 E11.17818
G1 X130.805 Y104.459 E11.19656
G1 X130.977 Y104.569 E11.20505
G1 X131.464 Y105.099 E11.23498
G1 X131.861 Y105.562 E11.26033
G1 X132.244 Y106.037 E11.2857
G1 X132.614 Y106.527 E11.31123
G1 X132.963 Y107.027 E11.33658
G1 X133.297 Y107.538 E11.36196
G1 X133.614 Y108.061 E11.38738
G1 X133.914 Y108.592 E11.41274
G1 X134.197 Y109.135 E11.4382
G1 X134.462 Y109.684 E11.46354
G1 X134.709 Y110.245 E11.48903
G1 X134.937 Y110.812 E11.51443
G1 X135.146 Y111.385 E11.53979
G1 X135.337 Y111.967 E11.56526
G1 X135.508 Y112.554 E11.59068
G1 X135.659 Y113.143 E11.61596
G1 X135.794 Y113.742 E11.64149
G1 X135.906 Y114.341 E11.66682
G1 X136 Y114.946 E11.69228
G1 X136.073 Y115.553 E11.71769
G1 X136.127 Y116.161 E11.74307
G1 X136.161 Y116.77 E11.76843
G1 X136.175 Y117.382 E11.79388
G1 X136.169 Y117.992 E11.81924
G1 X136.142 Y118.604 E11.84471
G1 X136.096 Y119.211 E11.87002
G1 X136.03 Y119.821 E11.89553
G1 X135.944 Y120.425 E11.92089
G1 X135.838 Y121.028 E11.94635
G1 X135.713 Y121.625 E11.97171
G1 X135.568 Y122.219 E11.99713
G1 X135.406 Y122.804 E12.02236
G1 X135.139 Y123.631 E12.05849
G1 X134.929 Y124.206 E12.08394
G1 X134.7 Y124.773 E12.10937
G1 X134.453 Y125.329 E12.13466
G1 X134.194 Y125.87 E12.1596
G1 X133.906 Y126.421 E12.18545
G1 X133.604 Y126.956 E12.21099
G1 X133.286 Y127.475 E12.23629
G1 X132.951 Y127.989 E12.2618
G1 X132.6 Y128.489 E12.2872
G1 X132.233 Y128.975 E12.31252
G1 X131.849 Y129.454 E12.33804
G1 X131.45 Y129.914 E12.36336
G1 X130.98 Y130.426 E12.39226
G1 X130.81 Y130.536 E12.40067
G1 X130.469 Y130.648 E12.4156
G1 X130.14 Y130.667 E12.4293
G1 X129.72 Y130.499 E12.4481
G1 X129.492 Y130.258 E12.4619
G1 X129.322 Y129.942 E12.47681
G1 X129.274 Y129.752 E12.48496
G1 X129.274 Y128.776 E12.52554
G1 X105.723 Y128.775 E13.50468
G1 X105.72 Y129.778 E13.54638
G1 X105.67 Y129.971 E13.55467
G1 X105.507 Y130.264 E13.5686
G1 X105.28 Y130.501 E13.58225
G1 X104.94 Y130.636 E13.59746
G1 X104.616 Y130.676 E13.61103
G1 X104.195 Y130.541 E13.62941
G1 X104.023 Y130.431 E13.6379
G1 X103.536 Y129.901 E13.66782
G1 X103.138 Y129.437 E13.69324
G1 X102.756 Y128.963 E13.71855
G1 X102.386 Y128.473 E13.74408
G1 X102.037 Y127.973 E13.76943
G1 X101.702 Y127.46 E13.7949
G1 X101.386 Y126.939 E13.82023
G1 X101.085 Y126.407 E13.84565
G1 X100.803 Y125.865 E13.87105
G1 X100.538 Y125.315 E13.89643
G1 X100.291 Y124.755 E13.92188
G1 X100.063 Y124.188 E13.94728
G1 X99.854 Y123.614 E13.97268
G1 X99.663 Y123.033 E13.99811
G1 X99.495 Y122.46 E14.02293
G1 X99.341 Y121.857 E14.04881
G1 X99.206 Y121.258 E14.07434
G1 X99.094 Y120.659 E14.09967
G1 X99 Y120.054 E14.12513
G1 X98.927 Y119.447 E14.15054
G1 X98.873 Y118.839 E14.17592
G1 X98.839 Y118.23 E14.20128
G1 X98.825 Y117.618 E14.22673
G1 X98.831 Y117.008 E14.25209
G1 X98.858 Y116.396 E14.27756
G1 X98.904 Y115.789 E14.30287
G1 X98.97 Y115.179 E14.32838
G1 X99.056 Y114.575 E14.35374
G1 X99.162 Y113.972 E14.3792
G1 X99.287 Y113.375 E14.40456
G1 X99.432 Y112.781 E14.42998
G1 X99.594 Y112.196 E14.45521
G1 X99.861 Y111.369 E14.49134
G1 X100.071 Y110.794 E14.51679
G1 X100.3 Y110.227 E14.54222
G1 X100.547 Y109.671 E14.56751
G1 X100.806 Y109.13 E14.59245
G1 X101.094 Y108.579 E14.6183
G1 X101.396 Y108.044 E14.64384
G1 X101.714 Y107.525 E14.66914
G1 X102.049 Y107.011 E14.69465
G1 X102.4 Y106.511 E14.72005
G1 X102.767 Y106.025 E14.74537
G1 X103.151 Y105.546 E14.77089
G1 X103.55 Y105.086 E14.79621
G1 X104.02 Y104.574 E14.8251
G0 F6000 X104.315 Y104.844
G1 F1200 X104.656 Y104.732 E14.84003
G1 X104.792 Y104.736 E14.84568
G1 X105.054 Y104.841 E14.85742
G1 X105.156 Y104.932 E14.8631
G1 X105.326 Y105.248 E14.87802
G1 X105.326 Y106.624 E14.93523
G1 X129.676 Y106.625 E15.94758
G1 X129.68 Y105.223 E16.00587
G1 X129.843 Y104.93 E16.01981
G1 X129.944 Y104.841 E16.02541
G1 X130.208 Y104.736 E16.03722
G1 X130.343 Y104.731 E16.04284
G1 X130.683 Y104.84 E16.05768
G1 X131.161 Y105.36 E16.08705
G1 X131.55 Y105.813 E16.11187
G1 X131.925 Y106.278 E16.13671
G1 X132.286 Y106.756 E16.16161
G1 X132.628 Y107.246 E16.18645
G1 X132.955 Y107.746 E16.21129
G1 X133.266 Y108.258 E16.2362
G1 X133.559 Y108.777 E16.26098
G1 X133.837 Y109.309 E16.28593
G1 X134.096 Y109.846 E16.31072
G1 X134.338 Y110.394 E16.33562
G1 X134.561 Y110.949 E16.36049
G1 X134.766 Y111.51 E16.38532
G1 X134.953 Y112.079 E16.41022
G1 X135.121 Y112.653 E16.43509
G1 X135.269 Y113.231 E16.4599
G1 X135.401 Y113.816 E16.48483
G1 X135.511 Y114.402 E16.50962
G1 X135.603 Y114.994 E16.53453
G1 X135.675 Y115.588 E16.5594
G1 X135.728 Y116.183 E16.58424
G1 X135.761 Y116.779 E16.60905
G1 X135.775 Y117.378 E16.63396
G1 X135.769 Y117.975 E16.65879
G1 X135.743 Y118.574 E16.68371
G1 X135.698 Y119.168 E16.70848
G1 X135.634 Y119.765 E16.73344
G1 X135.55 Y120.356 E16.75826
G1 X135.447 Y120.946 E16.78316
G1 X135.324 Y121.531 E16.80801
G1 X135.183 Y122.112 E16.83287
G1 X135.025 Y122.681 E16.85742
G1 X134.763 Y123.494 E16.89293
G1 X134.558 Y124.056 E16.9178
G1 X134.334 Y124.611 E16.94269
G1 X134.092 Y125.156 E16.96748
G1 X133.833 Y125.697 E16.99242
G1 X133.557 Y126.225 E17.01719
G1 X133.263 Y126.747 E17.04209
G1 X132.951 Y127.257 E17.06695
G1 X132.624 Y127.759 E17.09186
G1 X132.281 Y128.248 E17.11669
G1 X131.921 Y128.725 E17.14154
G1 X131.546 Y129.192 E17.16644
G1 X131.155 Y129.644 E17.19128
G1 X130.685 Y130.156 E17.22018
G1 X130.344 Y130.268 E17.2351
G1 X130.208 Y130.264 E17.24076
G1 X129.946 Y130.159 E17.25249
G1 X129.844 Y130.068 E17.25818
G1 X129.674 Y129.752 E17.27309
G1 X129.674 Y128.376 E17.3303
G1 X105.324 Y128.375 E18.34266
G1 X105.32 Y129.777 E18.40095
G1 X105.157 Y130.07 E18.41489
G1 X105.056 Y130.159 E18.42048
G1 X104.792 Y130.264 E18.43229
G1 X104.657 Y130.269 E18.43791
G1 X104.317 Y130.16 E18.45275
G1 X103.839 Y129.64 E18.48212
G1 X103.449 Y129.186 E18.507
G1 X103.075 Y128.722 E18.53178
G1 X102.714 Y128.244 E18.55668
G1 X102.372 Y127.754 E18.58153
G1 X102.044 Y127.253 E18.60642
G1 X101.734 Y126.742 E18.63127
G1 X101.44 Y126.222 E18.65611
G1 X101.163 Y125.691 E18.68101
G1 X100.904 Y125.153 E18.70583
G1 X100.662 Y124.606 E18.7307
G1 X100.439 Y124.051 E18.75557
G1 X100.234 Y123.489 E18.78044
G1 X100.047 Y122.92 E18.80534
G1 X99.879 Y122.347 E18.83016
G1 X99.731 Y121.769 E18.85497
G1 X99.599 Y121.184 E18.8799
G1 X99.489 Y120.597 E18.90473
G1 X99.397 Y120.006 E18.9296
G1 X99.325 Y119.411 E18.95452
G1 X99.272 Y118.817 E18.97931
G1 X99.239 Y118.221 E19.00413
G1 X99.225 Y117.622 E19.02904
G1 X99.231 Y117.025 E19.05386
G1 X99.257 Y116.426 E19.07879
G1 X99.302 Y115.832 E19.10355
G1 X99.366 Y115.235 E19.12851
G1 X99.45 Y114.644 E19.15333
G1 X99.553 Y114.054 E19.17823
G1 X99.676 Y113.469 E19.20309
G1 X99.817 Y112.888 E19.22794
G1 X99.975 Y112.319 E19.25249
G1 X100.237 Y111.506 E19.28801
G1 X100.442 Y110.944 E19.31288
G1 X100.666 Y110.389 E19.33776
G1 X100.908 Y109.844 E19.36255
G1 X101.167 Y109.303 E19.38749
G1 X101.443 Y108.775 E19.41226
G1 X101.737 Y108.253 E19.43717
G1 X102.049 Y107.743 E19.46202
G1 X102.376 Y107.241 E19.48693
G1 X102.719 Y106.752 E19.51176
G1 X103.079 Y106.275 E19.53661
G1 X103.454 Y105.808 E19.56151
G1 X103.845 Y105.356 E19.58636
G1 X104.315 Y104.844 E19.61525
G1 F1500 E11.61525
;MESH:22mm-Spacer.stl
G0 F6000 X103.972 Y104.53
G0 X104.37 Y104.298
G0 X104.802 Y104.242
G0 X105.387 Y104.475
G0 X105.663 Y104.813
