;FLAVOR:Marlin
;TIME:3065
;Filament used: 3.05234m
;Layer height: 0.2
;MINX:105.702
;MINY:102.7
;MINZ:0.25
;MAXX:129.294
;MAXY:132.293
;MAXZ:52.05
;Generated with Cura_SteamEngine 5.3.0
M140 S55
M105
M190 S55
M104 S212
M105
M109 S212
M82 ;absolute extrusion mode
START_PRINT
G92 E0
G92 E0
G1 F5100 E-0.6
;LAYER_COUNT:260
;LAYER:0
M107
G0 F3000 X106.973 Y103.936 Z0.25
;TYPE:SKIRT
G1 F5100 E0
G1 F600 X107.593 Y103.428 E0.03332
G1 X108.385 Y103.007 E0.07061
G1 X109.165 Y102.784 E0.10434
G1 X109.629 Y102.714 E0.12385
G1 X125.005 Y102.7 E0.76311
G1 X125.829 Y102.774 E0.79751
G1 X126.675 Y103.029 E0.83424
G1 X127.388 Y103.415 E0.86795
G1 X128.064 Y103.972 E0.90437
G1 X128.572 Y104.593 E0.93772
G1 X128.99 Y105.377 E0.97466
G1 X129.19 Y106.057 E1.00413
G1 X129.294 Y106.746 E1.0331
G1 X129.291 Y128.185 E1.92443
G1 X129.226 Y128.833 E1.95151
G1 X128.973 Y129.672 E1.98794
G1 X128.583 Y130.391 E2.02195
G1 X128.033 Y131.059 E2.05792
G1 X127.404 Y131.574 E2.09172
G1 X126.615 Y131.993 E2.12886
G1 X125.835 Y132.216 E2.16259
G1 X125.371 Y132.286 E2.1821
G1 X109.855 Y132.293 E2.82718
G1 X109.163 Y132.226 E2.85608
G1 X108.337 Y131.974 E2.89199
G1 X107.61 Y131.583 E2.92631
G1 X106.923 Y131.017 E2.96331
G1 X106.403 Y130.371 E2.99779
G1 X106.021 Y129.654 E3.03157
G1 X105.796 Y128.881 E3.06504
G1 X105.702 Y128.194 E3.09387
G1 X105.709 Y106.815 E3.9827
G1 X105.774 Y106.161 E4.01003
G1 X106.027 Y105.332 E4.04606
G1 X106.415 Y104.611 E4.0801
G1 X106.973 Y103.936 E4.11651
G0 F3000 X107.256 Y104.221
G1 F600 X107.816 Y103.762 E4.14662
G1 X108.536 Y103.379 E4.18052
G1 X109.225 Y103.18 E4.21034
G1 X109.689 Y103.11 E4.22985
G1 X125.005 Y103.1 E4.86661
G1 X125.751 Y103.168 E4.89776
G1 X126.518 Y103.399 E4.93106
G1 X127.165 Y103.75 E4.96166
G1 X127.779 Y104.256 E4.99474
G1 X128.238 Y104.816 E5.02484
G1 X128.619 Y105.531 E5.05853
G1 X128.794 Y106.117 E5.08395
G1 X128.898 Y106.806 E5.11292
G1 X128.893 Y128.145 E6.0001
G1 X128.832 Y128.754 E6.02554
G1 X128.601 Y129.518 E6.05872
G1 X128.25 Y130.167 E6.0894
G1 X127.747 Y130.777 E6.12227
G1 X127.184 Y131.238 E6.15252
G1 X126.464 Y131.621 E6.18643
G1 X125.775 Y131.82 E6.21625
G1 X125.311 Y131.89 E6.23575
G1 X109.855 Y131.893 E6.87834
G1 X109.244 Y131.832 E6.90387
G1 X108.49 Y131.602 E6.93664
G1 X107.834 Y131.249 E6.96761
G1 X107.211 Y130.736 E7.00117
G1 X106.737 Y130.147 E7.0326
G1 X106.394 Y129.503 E7.06293
G1 X106.18 Y128.769 E7.09472
G1 X106.102 Y128.194 E7.11885
G1 X106.107 Y106.855 E8.00602
G1 X106.168 Y106.242 E8.03163
G1 X106.399 Y105.485 E8.06454
G1 X106.749 Y104.835 E8.09523
G1 X107.256 Y104.221 E8.12833
G0 F3000 X107.539 Y104.506
G1 F600 X108.04 Y104.096 E8.15525
G1 X108.686 Y103.752 E8.18568
G1 X109.285 Y103.576 E8.21163
G1 X109.749 Y103.506 E8.23114
G1 X125.005 Y103.5 E8.86541
G1 X125.672 Y103.562 E8.89326
G1 X126.364 Y103.771 E8.92332
G1 X126.941 Y104.083 E8.95059
G1 X127.494 Y104.539 E8.98039
G1 X127.904 Y105.04 E9.0073
G1 X128.248 Y105.685 E9.03769
G1 X128.411 Y106.231 E9.06138
G1 X128.498 Y106.806 E9.08556
G1 X128.495 Y128.105 E9.97107
G1 X128.438 Y128.674 E9.99484
G1 X128.229 Y129.364 E10.02482
G1 X127.918 Y129.94 E10.05203
G1 X127.461 Y130.494 E10.08189
G1 X126.96 Y130.904 E10.10881
G1 X126.314 Y131.248 E10.13923
G1 X125.715 Y131.424 E10.16519
G1 X125.251 Y131.494 E10.1847
G1 X109.895 Y131.495 E10.82313
G1 X109.325 Y131.438 E10.84694
G1 X108.64 Y131.229 E10.87672
G1 X108.06 Y130.917 E10.9041
G1 X107.496 Y130.452 E10.93449
G1 X107.073 Y129.927 E10.96252
G1 X106.767 Y129.352 E10.9896
G1 X106.564 Y128.657 E11.0197
G1 X106.502 Y128.194 E11.03912
G1 X106.505 Y106.895 E11.92463
G1 X106.562 Y106.323 E11.94853
G1 X106.771 Y105.638 E11.97831
G1 X107.083 Y105.059 E12.00565
G1 X107.539 Y104.506 E12.03545
G0 F3000 X107.825 Y104.789
G1 F600 X108.263 Y104.43 E12.059
G1 X108.839 Y104.123 E12.08613
G1 X109.345 Y103.972 E12.10809
G1 X109.809 Y103.902 E12.1276
G1 X125.005 Y103.9 E12.75937
G1 X125.593 Y103.956 E12.78393
G1 X126.21 Y104.143 E12.81073
G1 X126.714 Y104.415 E12.83454
G1 X127.211 Y104.825 E12.86133
G1 X127.57 Y105.263 E12.88488
G1 X127.877 Y105.839 E12.91201
G1 X128.028 Y106.345 E12.93397
G1 X128.098 Y106.806 E12.95335
G1 X128.097 Y128.065 E13.8372
G1 X128.044 Y128.594 E13.8593
G1 X127.857 Y129.21 E13.88607
G1 X127.586 Y129.713 E13.90982
G1 X127.175 Y130.211 E13.93667
G1 X126.737 Y130.57 E13.96021
G1 X126.161 Y130.877 E13.98735
G1 X125.655 Y131.028 E14.0093
G1 X125.191 Y131.098 E14.02881
G1 X109.935 Y131.097 E14.66308
G1 X109.406 Y131.044 E14.68518
G1 X108.79 Y130.856 E14.71196
G1 X108.286 Y130.585 E14.73575
G1 X107.784 Y130.171 E14.7628
G1 X107.407 Y129.703 E14.78779
G1 X107.139 Y129.2 E14.81148
G1 X106.96 Y128.601 E14.83748
G1 X106.902 Y128.194 E14.85457
G1 X106.903 Y106.935 E15.73841
G1 X106.956 Y106.404 E15.7606
G1 X107.143 Y105.791 E15.78725
G1 X107.415 Y105.286 E15.81109
G1 X107.825 Y104.789 E15.83788
G0 F3000 X108.108 Y105.074
G1 F600 X108.487 Y104.764 E15.85824
G1 X108.992 Y104.495 E15.88202
G1 X109.46 Y104.355 E15.90233
G1 X109.809 Y104.302 E15.91701
G1 X125.005 Y104.3 E16.54879
G1 X125.514 Y104.35 E16.57005
G1 X126.056 Y104.515 E16.5936
G1 X126.49 Y104.749 E16.6141
G1 X126.926 Y105.108 E16.63758
G1 X127.236 Y105.487 E16.65794
G1 X127.505 Y105.992 E16.68173
G1 X127.645 Y106.46 E16.70204
G1 X127.698 Y106.806 E16.71659
G1 X127.699 Y128.025 E17.59877
G1 X127.65 Y128.514 E17.61921
G1 X127.485 Y129.056 E17.64276
G1 X127.252 Y129.489 E17.6632
G1 X126.892 Y129.926 E17.68674
G1 X126.513 Y130.236 E17.7071
G1 X126.008 Y130.505 E17.73089
G1 X125.54 Y130.645 E17.7512
G1 X125.191 Y130.698 E17.76587
G1 X109.975 Y130.699 E18.39848
G1 X109.486 Y130.65 E18.41891
G1 X108.944 Y130.485 E18.44247
G1 X108.51 Y130.251 E18.46297
G1 X108.072 Y129.89 E18.48657
G1 X107.741 Y129.479 E18.50851
G1 X107.51 Y129.045 E18.52895
G1 X107.355 Y128.54 E18.55091
G1 X107.302 Y128.194 E18.56546
G1 X107.301 Y106.975 E19.44764
G1 X107.35 Y106.485 E19.46812
G1 X107.515 Y105.944 E19.49163
G1 X107.749 Y105.51 E19.51213
G1 X108.108 Y105.074 E19.53561
G1 F5100 E18.93561
;MESH:Double-Edge-Razor-Blades-Disposable-Container.stl
G0 F3000 X108.85 Y105.268
G0 X113.521 Y105.37
G0 X114.274 Y105.18
;TYPE:WALL-INNER
G1 F5100 E19.53561
G1 F1297.3 X120.608 Y105.175 E19.90099
G0 F3000 X121.036 Y105.422
G0 X122.009 Y129.1
G1 F1800 X125.065 Y129.1 E20.02805
G1 X125.409 Y129.013 E20.0428
G1 X125.61 Y128.906 E20.05227
G1 X125.908 Y128.608 E20.06979
G1 X126.072 Y128.212 E20.08761
G1 X126.1 Y127.939 E20.09902
G1 X126.1 Y106.935 E20.97226
G1 X126.014 Y106.59 E20.98704
G1 X125.775 Y106.228 E21.00508
G1 X125.424 Y105.993 E21.02264
G1 X125.213 Y105.928 E21.03182
G1 X124.939 Y105.9 E21.04327
G1 X122.008 Y105.9 E21.16513
G1 X122.009 Y129.1 E22.12967
G0 F3000 X121.493 Y129.5
G1 F1800 X125.181 Y129.5 E22.283
G1 X125.563 Y129.385 E22.29959
G1 X125.832 Y129.241 E22.31227
G1 X126.055 Y129.059 E22.32424
G1 X126.242 Y128.832 E22.33647
G1 X126.379 Y128.578 E22.34846
G1 X126.466 Y128.291 E22.36093
G1 X126.5 Y127.959 E22.37481
G1 X126.5 Y106.819 E23.25371
G1 X126.385 Y106.437 E23.27029
G1 X126.241 Y106.167 E23.28301
G1 X126.059 Y105.944 E23.29498
G1 X125.832 Y105.758 E23.30718
G1 X125.579 Y105.622 E23.31912
G1 X125.292 Y105.534 E23.3316
G1 X124.959 Y105.5 E23.34552
G1 X121.492 Y105.5 E23.48966
G1 X121.608 Y105.85 E23.50499
G1 X121.609 Y129.15 E24.47369
G1 X121.493 Y129.5 E24.48902
G0 F3000 X120.726 Y129.82
G1 F1500 X121.284 Y129.9 E24.51715
G1 F1800 X125.237 Y129.9 E24.68149
G1 X125.716 Y129.757 E24.70228
G1 X126.055 Y129.576 E24.71825
G1 X126.339 Y129.343 E24.73353
G1 X126.576 Y129.056 E24.749
G1 X126.75 Y128.732 E24.76429
G1 X126.86 Y128.37 E24.78002
G1 X126.9 Y127.979 E24.79636
G1 X126.9 Y106.763 E25.67842
G1 X126.757 Y106.284 E25.6992
G1 X126.576 Y105.945 E25.71518
G1 X126.344 Y105.66 E25.73046
G1 X126.056 Y105.424 E25.74594
G1 X125.734 Y105.251 E25.76113
G1 X125.371 Y105.14 E25.77692
G1 X124.979 Y105.1 E25.7933
G1 X121.283 Y105.1 E25.94696
G1 F1515.8 X120.608 Y105.175 E25.98049
G1 X121.088 Y105.489 E26.00881
G1 F1800 X121.208 Y105.85 E26.02462
G1 X121.209 Y129.15 E26.99333
G1 X121.089 Y129.511 E27.00914
G1 F1500 X120.726 Y129.82 E27.03293
G1 F1297.3 X114.392 Y129.825 E27.39831
G0 F3000 X112.992 Y129.1
G1 F1800 X112.991 Y105.9 E28.36285
G1 X109.935 Y105.9 E28.4899
G1 X109.59 Y105.986 E28.50469
G1 X109.228 Y106.225 E28.52272
G1 X108.993 Y106.576 E28.54028
G1 X108.929 Y106.785 E28.54937
G1 X108.9 Y107.062 E28.56095
G1 X108.9 Y128.065 E29.43415
G1 X108.987 Y128.41 E29.44894
G1 X109.094 Y128.61 E29.45837
G1 X109.392 Y128.908 E29.4759
G1 X109.788 Y129.072 E29.49372
G1 X110.061 Y129.1 E29.50513
G1 X112.992 Y129.1 E29.62698
G0 F3000 X113.508 Y129.5
G1 F1800 X113.392 Y129.15 E29.64231
G1 X113.391 Y105.85 E30.61101
G1 X113.507 Y105.5 E30.62634
G1 X109.819 Y105.5 E30.77967
G1 X109.437 Y105.615 E30.79626
G1 X109.167 Y105.759 E30.80898
G1 X108.944 Y105.941 E30.82095
G1 X108.758 Y106.168 E30.83315
G1 X108.622 Y106.421 E30.84509
G1 X108.535 Y106.705 E30.85744
G1 X108.5 Y107.042 E30.87152
G1 X108.5 Y128.18 E31.75034
G1 X108.615 Y128.563 E31.76697
G1 X108.759 Y128.832 E31.77965
G1 X108.941 Y129.055 E31.79162
G1 X109.168 Y129.242 E31.80385
G1 X109.421 Y129.378 E31.81579
G1 X109.708 Y129.466 E31.82827
G1 X110.041 Y129.5 E31.84219
G1 X113.508 Y129.5 E31.98633
G0 F3000 X114.392 Y129.825
G1 F1515.8 X113.912 Y129.511 E32.01464
G1 F1800 X113.792 Y129.15 E32.03046
G1 X113.791 Y105.85 E32.99916
G1 X113.911 Y105.489 E33.01498
G1 F1500 X114.274 Y105.18 E33.03876
G1 X113.716 Y105.1 E33.06688
G1 F1800 X109.763 Y105.1 E33.23123
G1 X109.284 Y105.243 E33.25201
G1 X108.945 Y105.424 E33.26799
G1 X108.66 Y105.656 E33.28327
G1 X108.424 Y105.944 E33.29875
G1 X108.251 Y106.266 E33.31395
G1 X108.141 Y106.626 E33.3296
G1 X108.1 Y107.022 E33.34615
G1 X108.1 Y128.236 E34.22812
G1 X108.243 Y128.716 E34.24895
G1 X108.424 Y129.055 E34.26492
G1 X108.657 Y129.339 E34.2802
G1 X108.944 Y129.576 E34.29567
G1 X109.266 Y129.749 E34.31087
G1 X109.629 Y129.86 E34.32665
G1 X110.021 Y129.9 E34.34303
G1 X113.717 Y129.9 E34.49669
G1 F1515.8 X114.392 Y129.825 E34.53022
G0 F3000 X114.232 Y129.271
;TYPE:WALL-OUTER
G1 F1800 X114.192 Y129.15 E34.53552
G1 X114.191 Y105.85 E35.50422
G1 X114.231 Y105.729 E35.50952
G1 X114.356 Y105.652 E35.51563
G1 X120.608 Y105.65 E35.77555
G1 X120.768 Y105.729 E35.78297
G1 X120.808 Y105.85 E35.78827
G1 X120.809 Y129.15 E36.75697
G1 X120.769 Y129.271 E36.76227
G1 X120.644 Y129.348 E36.76837
G1 X114.392 Y129.35 E37.0283
G1 X114.232 Y129.271 E37.03572
G1 F5100 E36.43572
G0 F3000 X113.491 Y129.271
G0 X109.683 Y129.565
G0 X109.55 Y130.254
G1 F5100 E37.03572
G1 F1800 X110.001 Y130.3 E37.05457
G1 X125.153 Y130.3 E37.68452
G1 X125.438 Y130.258 E37.69649
G1 X125.869 Y130.129 E37.7152
G1 X126.278 Y129.91 E37.73449
G1 X126.623 Y129.628 E37.75301
G1 X126.91 Y129.28 E37.77176
G1 X127.121 Y128.887 E37.79031
G1 X127.254 Y128.449 E37.80934
G1 X127.3 Y127.999 E37.82815
G1 X127.3 Y106.847 E38.70755
G1 X127.258 Y106.562 E38.71952
G1 X127.129 Y106.131 E38.73823
G1 X126.91 Y105.722 E38.75751
G1 X126.628 Y105.376 E38.77607
G1 X126.28 Y105.09 E38.7948
G1 X125.889 Y104.88 E38.81325
G1 X125.45 Y104.746 E38.83233
G1 X124.999 Y104.7 E38.85118
G1 X109.847 Y104.7 E39.48113
G1 X109.562 Y104.742 E39.49311
G1 X109.131 Y104.871 E39.51181
G1 X108.722 Y105.09 E39.5311
G1 X108.376 Y105.372 E39.54966
G1 X108.09 Y105.72 E39.56838
G1 X107.88 Y106.111 E39.58684
G1 X107.747 Y106.546 E39.60575
G1 X107.7 Y107.002 E39.62481
G1 X107.7 Y128.153 E40.50416
G1 X107.742 Y128.437 E40.5161
G1 X107.871 Y128.869 E40.53484
G1 X108.09 Y129.278 E40.55413
G1 X108.372 Y129.623 E40.57266
G1 X108.72 Y129.91 E40.59141
G1 X109.111 Y130.12 E40.60986
G1 X109.55 Y130.254 E40.62895
G0 F3000 X109.683 Y129.565
G0 X112.632 Y128.74
;TYPE:SKIN
G1 F1800 X110.084 Y128.74 E40.73488
G1 X109.717 Y128.671 E40.7504
G1 X109.486 Y128.514 E40.76202
G1 X109.322 Y128.266 E40.77438
G1 X109.261 Y128.027 E40.78463
G1 X109.26 Y106.921 E41.66212
G1 X109.394 Y106.597 E41.67669
G1 X109.648 Y106.343 E41.69163
G1 X109.971 Y106.26 E41.70549
G1 X112.631 Y106.26 E41.81608
G1 X112.632 Y128.74 E42.75069
G0 F3000 X109.817 Y128.485
G1 F1800 X109.505 Y128.173 E42.76904
G0 F3000 X109.46 Y127.562
G1 F1800 X110.437 Y128.539 E42.82648
G0 F3000 X111.003 Y128.539
G1 F1800 X109.46 Y126.996 E42.9172
G0 F3000 X109.46 Y126.43
G1 F1800 X111.568 Y128.539 E43.04118
G0 F3000 X112.134 Y128.539
G1 F1800 X109.46 Y125.865 E43.1984
G0 F3000 X109.46 Y125.299
G1 F1800 X112.431 Y128.27 E43.37308
G0 F3000 X112.431 Y127.704
G1 F1800 X109.46 Y124.733 E43.54776
G0 F3000 X109.46 Y124.167
G1 F1800 X112.431 Y127.139 E43.72248
G0 F3000 X112.431 Y126.573
G1 F1800 X109.46 Y123.602 E43.89716
G0 F3000 X109.46 Y123.036
G1 F1800 X112.431 Y126.007 E44.07184
G0 F3000 X112.431 Y125.442
G1 F1800 X109.46 Y122.47 E44.24656
G0 F3000 X109.46 Y121.905
G1 F1800 X112.431 Y124.876 E44.42124
G0 F3000 X112.431 Y124.31
G1 F1800 X109.46 Y121.339 E44.59592
G0 F3000 X109.46 Y120.773
G1 F1800 X112.431 Y123.745 E44.77064
G0 F3000 X112.431 Y123.179
G1 F1800 X109.46 Y120.208 E44.94532
G0 F3000 X109.46 Y119.642
G1 F1800 X112.431 Y122.613 E45.12
G0 F3000 X112.431 Y122.048
G1 F1800 X109.46 Y119.076 E45.29472
G0 F3000 X109.46 Y118.511
G1 F1800 X112.431 Y121.482 E45.4694
G0 F3000 X112.431 Y120.916
G1 F1800 X109.46 Y117.945 E45.64408
G0 F3000 X109.459 Y117.379
G1 F1800 X112.431 Y120.35 E45.8188
G0 F3000 X112.431 Y119.785
G1 F1800 X109.459 Y116.813 E45.99354
G0 F3000 X109.459 Y116.247
G1 F1800 X112.431 Y119.219 E46.16828
G0 F3000 X112.431 Y118.653
G1 F1800 X109.459 Y115.681 E46.34302
G0 F3000 X109.459 Y115.116
G1 F1800 X112.431 Y118.088 E46.51776
G0 F3000 X112.431 Y117.522
G1 F1800 X109.459 Y114.55 E46.69251
G0 F3000 X109.459 Y113.984
G1 F1800 X112.431 Y116.956 E46.86725
G0 F3000 X112.431 Y116.391
G1 F1800 X109.459 Y113.419 E47.04199
G0 F3000 X109.459 Y112.853
G1 F1800 X112.431 Y115.825 E47.21673
G0 F3000 X112.431 Y115.259
G1 F1800 X109.459 Y112.287 E47.39148
G0 F3000 X109.459 Y111.722
G1 F1800 X112.431 Y114.694 E47.56622
G0 F3000 X112.431 Y114.128
G1 F1800 X109.459 Y111.156 E47.74096
G0 F3000 X109.459 Y110.59
G1 F1800 X112.431 Y113.562 E47.9157
G0 F3000 X112.431 Y112.997
G1 F1800 X109.459 Y110.025 E48.09044
G0 F3000 X109.459 Y109.459
G1 F1800 X112.431 Y112.431 E48.26519
G0 F3000 X112.431 Y111.865
G1 F1800 X109.459 Y108.893 E48.43993
G0 F3000 X109.459 Y108.328
G1 F1800 X112.431 Y111.3 E48.61467
G0 F3000 X112.431 Y110.734
G1 F1800 X109.459 Y107.762 E48.78941
G0 F3000 X109.459 Y107.196
G1 F1800 X112.431 Y110.168 E48.96416
G0 F3000 X112.431 Y109.602
G1 F1800 X109.555 Y106.727 E49.13322
G0 F3000 X109.889 Y106.495
G1 F1800 X112.431 Y109.037 E49.28268
G0 F3000 X112.431 Y108.471
G1 F1800 X110.419 Y106.459 E49.40098
G0 F3000 X110.985 Y106.459
G1 F1800 X112.431 Y107.905 E49.486
G0 F3000 X112.431 Y107.34
G1 F1800 X111.551 Y106.459 E49.53777
G0 F3000 X112.116 Y106.459
G1 F1800 X112.431 Y106.774 E49.55629
G1 F5100 E48.95629
G0 F3000 X113.964 Y129.578
G0 X121.037 Y129.578
G0 X122.369 Y128.74
G1 F5100 E49.55629
G1 F1800 X122.368 Y106.26 E50.4909
G1 X124.915 Y106.26 E50.59679
G1 X125.283 Y106.331 E50.61237
G1 X125.515 Y106.485 E50.62395
G1 X125.679 Y106.735 E50.63638
G1 X125.74 Y106.971 E50.64652
G1 X125.74 Y127.917 E51.51735
G1 X125.67 Y128.283 E51.53284
G1 X125.515 Y128.514 E51.54441
G1 X125.266 Y128.678 E51.5568
G1 X125.028 Y128.74 E51.56703
G1 X122.369 Y128.74 E51.67758
G0 F3000 X122.882 Y128.539
G1 F1800 X122.567 Y128.224 E51.6961
G0 F3000 X122.567 Y127.658
G1 F1800 X123.448 Y128.539 E51.7479
G0 F3000 X124.013 Y128.539
G1 F1800 X122.567 Y127.093 E51.83292
G0 F3000 X122.567 Y126.527
G1 F1800 X124.579 Y128.539 E51.95121
G0 F3000 X125.115 Y128.509
G1 F1800 X122.567 Y125.961 E52.10103
G0 F3000 X122.567 Y125.396
G1 F1800 X125.439 Y128.267 E52.26986
G0 F3000 X125.539 Y127.802
G1 F1800 X122.567 Y124.83 E52.4446
G0 F3000 X122.567 Y124.264
G1 F1800 X125.539 Y127.236 E52.61935
G0 F3000 X125.539 Y126.671
G1 F1800 X122.567 Y123.699 E52.79409
G0 F3000 X122.567 Y123.133
G1 F1800 X125.539 Y126.105 E52.96883
G0 F3000 X125.539 Y125.539
G1 F1800 X122.567 Y122.567 E53.14357
G0 F3000 X122.567 Y122.002
G1 F1800 X125.539 Y124.974 E53.31831
