;FLAVOR:Marlin
;TIME:5115
;Filament used: 2.59793m
;Layer height: 0.2
;MINX:93.728
;MINY:93.7
;MINZ:0.25
;MAXX:141.275
;MAXY:141.3
;MAXZ:17.65
;Generated with Cura_SteamEngine 5.3.0
M140 S85
M105
M190 S85
M104 S240
M105
M109 S240
M82 ;absolute extrusion mode
START_PRINT
G92 E0
G92 E0
G1 F1500 E-8
;LAYER_COUNT:88
;LAYER:0
M107
G0 F6000 X102.532 Y102.335 Z0.25
;TYPE:SKIRT
G1 F1500 E0
G1 F1200 X103.111 Y101.781 E0.03332
G1 X103.712 Y101.251 E0.06663
G1 X104.329 Y100.749 E0.0997
G1 X104.97 Y100.261 E0.13319
G1 X105.62 Y99.808 E0.16613
G1 X106.294 Y99.37 E0.19955
G1 X106.983 Y98.963 E0.23282
G1 X107.684 Y98.582 E0.26599
G1 X108.401 Y98.225 E0.29929
G1 X109.125 Y97.9 E0.33229
G1 X109.87 Y97.595 E0.36576
G1 X110.657 Y97.31 E0.40055
G1 X111.415 Y97.069 E0.43362
G1 X112.186 Y96.854 E0.4669
G1 X112.961 Y96.669 E0.50003
G1 X113.748 Y96.511 E0.5334
G1 X114.535 Y96.386 E0.56653
G1 X115.331 Y96.287 E0.59988
G1 X116.128 Y96.219 E0.63313
G1 X116.927 Y96.183 E0.66639
G1 X117.727 Y96.175 E0.69965
G1 X118.526 Y96.199 E0.73288
G1 X119.357 Y96.254 E0.76751
G1 X120.151 Y96.338 E0.8007
G1 X120.946 Y96.45 E0.83408
G1 X121.728 Y96.593 E0.86713
G1 X122.514 Y96.765 E0.90058
G1 X123.29 Y96.967 E0.93392
G1 X124.051 Y97.197 E0.96697
G1 X124.806 Y97.455 E1.00014
G1 X125.543 Y97.737 E1.03295
G1 X126.293 Y98.06 E1.0669
G1 X127.039 Y98.415 E1.10125
G1 X127.724 Y98.771 E1.13334
G1 X128.417 Y99.166 E1.16651
G1 X129.094 Y99.587 E1.19965
G1 X129.761 Y100.034 E1.23303
G1 X130.431 Y100.525 E1.26757
G1 X131.062 Y101.021 E1.30094
G1 X131.667 Y101.539 E1.33405
G1 X132.259 Y102.081 E1.36742
G1 X132.825 Y102.644 E1.40061
G1 X133.372 Y103.228 E1.43388
G1 X133.885 Y103.821 E1.46648
G1 X134.397 Y104.456 E1.50039
G1 X134.874 Y105.097 E1.53361
G1 X135.309 Y105.73 E1.56554
G1 X135.755 Y106.433 E1.60015
G1 X136.154 Y107.121 E1.63322
G1 X136.532 Y107.83 E1.66662
G1 X136.894 Y108.578 E1.70117
G1 X137.216 Y109.312 E1.73449
G1 X137.508 Y110.055 E1.76769
G1 X137.774 Y110.811 E1.801
G1 X138.01 Y111.575 E1.83425
G1 X138.219 Y112.348 E1.86754
G1 X138.396 Y113.122 E1.90055
G1 X138.548 Y113.914 E1.93408
G1 X138.671 Y114.737 E1.96868
G1 X138.758 Y115.527 E2.00172
G1 X138.817 Y116.294 E2.0337
G1 X138.846 Y117.095 E2.06702
G1 X138.845 Y117.955 E2.10278
G1 X138.815 Y118.727 E2.1349
G1 X138.753 Y119.522 E2.16805
G1 X138.663 Y120.319 E2.2014
G1 X138.543 Y121.108 E2.23458
G1 X138.393 Y121.891 E2.26772
G1 X138.214 Y122.676 E2.3012
G1 X138.005 Y123.446 E2.33437
G1 X137.767 Y124.209 E2.3676
G1 X137.501 Y124.963 E2.40084
G1 X137.207 Y125.705 E2.43402
G1 X136.886 Y126.439 E2.46733
G1 X136.537 Y127.16 E2.50063
G1 X136.146 Y127.895 E2.53524
G1 X135.744 Y128.584 E2.56841
G1 X135.314 Y129.261 E2.60175
G1 X134.862 Y129.918 E2.63491
G1 X134.384 Y130.56 E2.66818
G1 X133.882 Y131.182 E2.70141
G1 X133.36 Y131.785 E2.73457
G1 X132.822 Y132.361 E2.76734
G1 X132.243 Y132.931 E2.80112
G1 X131.655 Y133.473 E2.83437
G1 X131.044 Y133.993 E2.86773
G1 X130.417 Y134.487 E2.90091
G1 X129.77 Y134.96 E2.93423
G1 X129.079 Y135.424 E2.96884
G1 X128.397 Y135.846 E3.00218
G1 X127.71 Y136.235 E3.035
G1 X126.995 Y136.61 E3.06857
G1 X126.278 Y136.948 E3.10153
G1 X125.534 Y137.266 E3.13516
G1 X124.791 Y137.548 E3.1682
G1 X124.031 Y137.809 E3.20161
G1 X123.263 Y138.038 E3.23493
G1 X122.464 Y138.243 E3.26923
G1 X121.707 Y138.412 E3.30147
G1 X120.89 Y138.557 E3.33597
G1 X120.1 Y138.669 E3.36914
G1 X119.304 Y138.751 E3.40241
G1 X118.506 Y138.803 E3.43566
G1 X117.706 Y138.825 E3.46893
G1 X116.908 Y138.818 E3.50211
G1 X116.109 Y138.779 E3.53537
G1 X115.314 Y138.71 E3.56855
G1 X114.524 Y138.614 E3.60163
G1 X113.725 Y138.484 E3.63529
G1 X112.917 Y138.32 E3.66957
G1 X112.162 Y138.141 E3.70182
G1 X111.394 Y137.926 E3.73498
G1 X110.636 Y137.681 E3.7681
G1 X109.854 Y137.398 E3.80268
G1 X109.109 Y137.096 E3.8361
G1 X108.393 Y136.772 E3.86877
G1 X107.668 Y136.41 E3.90246
G1 X106.963 Y136.027 E3.93582
G1 X106.29 Y135.625 E3.96841
G1 X105.604 Y135.182 E4.00236
G1 X104.952 Y134.724 E4.03549
G1 X104.315 Y134.24 E4.06875
G1 X103.695 Y133.733 E4.10205
G1 X103.094 Y133.202 E4.13539
G1 X102.513 Y132.646 E4.16882
G1 X101.94 Y132.054 E4.20308
G1 X101.424 Y131.483 E4.23507
G1 X100.892 Y130.846 E4.26958
G1 X100.402 Y130.212 E4.30289
G1 X99.937 Y129.561 E4.33615
G1 X99.496 Y128.891 E4.3695
G1 X99.085 Y128.212 E4.4025
G1 X98.693 Y127.51 E4.43592
G1 X98.334 Y126.799 E4.46904
G1 X97.997 Y126.068 E4.5025
G1 X97.693 Y125.336 E4.53546
G1 X97.408 Y124.581 E4.56901
G1 X97.159 Y123.822 E4.60222
G1 X96.929 Y123.027 E4.63663
G1 X96.743 Y122.28 E4.66863
G1 X96.572 Y121.465 E4.70325
G1 X96.44 Y120.679 E4.73639
G1 X96.334 Y119.886 E4.76965
G1 X96.259 Y119.087 E4.80302
G1 X96.214 Y118.293 E4.83608
G1 X96.199 Y117.489 E4.86951
G1 X96.216 Y116.693 E4.90261
G1 X96.261 Y115.891 E4.93601
G1 X96.339 Y115.067 E4.97042
G1 X96.436 Y114.332 E5.00124
G1 X96.582 Y113.484 E5.03702
G1 X96.74 Y112.731 E5.06901
G1 X96.943 Y111.923 E5.10364
G1 X97.164 Y111.155 E5.13687
G1 X97.416 Y110.398 E5.17004
G1 X97.692 Y109.661 E5.20276
G1 X98.006 Y108.907 E5.23671
G1 X98.337 Y108.191 E5.26951
G1 X98.702 Y107.473 E5.303
G1 X99.094 Y106.77 E5.33646
G1 X99.5 Y106.104 E5.36889
G1 X99.95 Y105.42 E5.40293
G1 X100.432 Y104.749 E5.43728
G1 X100.903 Y104.14 E5.46928
G1 X101.417 Y103.524 E5.50264
G1 X101.974 Y102.907 E5.5372
G1 X102.532 Y102.335 E5.57042
G0 F6000 X102.808 Y102.624
G1 F1200 X103.376 Y102.081 E5.60309
G1 X103.965 Y101.561 E5.63576
G1 X104.571 Y101.067 E5.66826
G1 X105.199 Y100.589 E5.70107
G1 X105.838 Y100.143 E5.73347
G1 X106.498 Y99.714 E5.7662
G1 X107.174 Y99.314 E5.79885
G1 X107.862 Y98.94 E5.83141
G1 X108.565 Y98.59 E5.86406
G1 X109.277 Y98.27 E5.89651
G1 X110.007 Y97.971 E5.92931
G1 X110.778 Y97.691 E5.96341
G1 X111.523 Y97.454 E5.99592
G1 X112.279 Y97.243 E6.02855
G1 X113.04 Y97.061 E6.06108
G1 X113.811 Y96.906 E6.09377
G1 X114.584 Y96.783 E6.12632
G1 X115.365 Y96.686 E6.15904
G1 X116.146 Y96.619 E6.19163
G1 X116.931 Y96.583 E6.2243
G1 X117.715 Y96.575 E6.25689
G1 X118.5 Y96.598 E6.28954
G1 X119.315 Y96.652 E6.3235
G1 X120.095 Y96.734 E6.35611
G1 X120.874 Y96.844 E6.38882
G1 X121.643 Y96.984 E6.42131
G1 X122.413 Y97.152 E6.45408
G1 X123.174 Y97.35 E6.48677
G1 X123.922 Y97.576 E6.51926
G1 X124.663 Y97.829 E6.55181
G1 X125.4 Y98.111 E6.58462
G1 X126.121 Y98.421 E6.61725
G1 X126.855 Y98.77 E6.65104
G1 X127.526 Y99.118 E6.68246
G1 X128.206 Y99.506 E6.71501
G1 X128.871 Y99.919 E6.74756
G1 X129.525 Y100.357 E6.78028
G1 X130.184 Y100.839 E6.81423
G1 X130.802 Y101.325 E6.84692
G1 X131.397 Y101.834 E6.87947
G1 X131.977 Y102.365 E6.91216
G1 X132.533 Y102.917 E6.94474
G1 X133.069 Y103.49 E6.97736
G1 X133.582 Y104.083 E7.00996
G1 X134.076 Y104.695 E7.04265
G1 X134.544 Y105.324 E7.07525
G1 X134.971 Y105.945 E7.10658
G1 X135.409 Y106.634 E7.14053
G1 X135.801 Y107.31 E7.17301
G1 X136.172 Y108.004 E7.20573
G1 X136.528 Y108.739 E7.23968
G1 X136.844 Y109.459 E7.27237
G1 X137.131 Y110.188 E7.30495
G1 X137.392 Y110.929 E7.33761
G1 X137.624 Y111.679 E7.37025
G1 X137.829 Y112.437 E7.40289
G1 X138.003 Y113.197 E7.43531
G1 X138.152 Y113.973 E7.46816
G1 X138.273 Y114.781 E7.50213
G1 X138.359 Y115.558 E7.53463
G1 X138.417 Y116.309 E7.56595
G1 X138.446 Y117.095 E7.59865
G1 X138.445 Y117.94 E7.63378
G1 X138.416 Y118.696 E7.66523
G1 X138.356 Y119.477 E7.6978
G1 X138.267 Y120.259 E7.73052
G1 X138.15 Y121.033 E7.76306
G1 X138.003 Y121.802 E7.79561
G1 X137.828 Y122.571 E7.8284
G1 X137.623 Y123.327 E7.86097
G1 X137.39 Y124.076 E7.89358
G1 X137.129 Y124.816 E7.9262
G1 X136.841 Y125.545 E7.95879
G1 X136.526 Y126.265 E7.99146
G1 X136.184 Y126.972 E8.02412
G1 X135.801 Y127.693 E8.05806
G1 X135.406 Y128.37 E8.09065
G1 X134.985 Y129.034 E8.12333
G1 X134.541 Y129.679 E8.15589
G1 X134.072 Y130.309 E8.18854
G1 X133.58 Y130.92 E8.22116
G1 X133.067 Y131.512 E8.25372
G1 X132.541 Y132.076 E8.28579
G1 X131.972 Y132.637 E8.31901
G1 X131.395 Y133.169 E8.35164
G1 X130.797 Y133.679 E8.38431
G1 X130.181 Y134.164 E8.41691
G1 X129.547 Y134.628 E8.44957
G1 X128.869 Y135.084 E8.48354
G1 X128.2 Y135.498 E8.51625
G1 X127.524 Y135.881 E8.54855
G1 X126.824 Y136.248 E8.58141
G1 X126.121 Y136.58 E8.61374
G1 X125.392 Y136.892 E8.6467
G1 X124.661 Y137.17 E8.67922
G1 X123.917 Y137.426 E8.71193
G1 X123.163 Y137.651 E8.74464
G1 X122.377 Y137.853 E8.77838
G1 X121.637 Y138.018 E8.8099
G1 X120.834 Y138.161 E8.84381
G1 X120.059 Y138.271 E8.87636
G1 X119.278 Y138.352 E8.909
G1 X118.495 Y138.403 E8.94162
G1 X117.71 Y138.425 E8.97427
G1 X116.927 Y138.418 E9.00683
G1 X116.143 Y138.38 E9.03946
G1 X115.362 Y138.313 E9.07205
G1 X114.588 Y138.219 E9.10447
G1 X113.804 Y138.092 E9.13749
G1 X113.009 Y137.931 E9.17121
G1 X112.27 Y137.756 E9.20278
G1 X111.517 Y137.545 E9.2353
G1 X110.772 Y137.305 E9.26784
G1 X110.004 Y137.027 E9.30179
G1 X109.274 Y136.731 E9.33454
G1 X108.572 Y136.414 E9.36657
G1 X107.859 Y136.058 E9.3997
G1 X107.168 Y135.683 E9.43239
G1 X106.507 Y135.289 E9.46438
G1 X105.834 Y134.855 E9.49767
G1 X105.194 Y134.405 E9.5302
G1 X104.568 Y133.93 E9.56287
G1 X103.96 Y133.433 E9.59552
G1 X103.371 Y132.913 E9.62818
G1 X102.79 Y132.357 E9.66162
G1 X102.237 Y131.786 E9.69467
G1 X101.731 Y131.226 E9.72604
G1 X101.208 Y130.601 E9.75993
G1 X100.727 Y129.979 E9.79262
G1 X100.271 Y129.341 E9.82522
G1 X99.838 Y128.684 E9.85793
G1 X99.434 Y128.017 E9.89035
G1 X99.05 Y127.329 E9.92311
G1 X98.697 Y126.631 E9.95563
G1 X98.366 Y125.915 E9.98843
G1 X98.067 Y125.195 E10.02084
G1 X97.788 Y124.456 E10.05368
G1 X97.543 Y123.711 E10.08628
G1 X97.317 Y122.93 E10.12009
G1 X97.134 Y122.198 E10.15146
G1 X96.966 Y121.399 E10.1854
G1 X96.836 Y120.626 E10.21799
G1 X96.732 Y119.848 E10.25062
G1 X96.658 Y119.064 E10.28336
G1 X96.614 Y118.285 E10.3158
G1 X96.599 Y117.497 E10.34857
G1 X96.615 Y116.715 E10.38109
G1 X96.659 Y115.929 E10.41382
G1 X96.736 Y115.119 E10.44764
G1 X96.83 Y114.4 E10.47779
G1 X96.973 Y113.566 E10.51297
G1 X97.128 Y112.828 E10.54432
G1 X97.327 Y112.034 E10.57835
G1 X97.544 Y111.281 E10.61093
G1 X97.791 Y110.538 E10.64349
G1 X98.061 Y109.815 E10.67557
G1 X98.369 Y109.075 E10.7089
G1 X98.694 Y108.372 E10.7411
G1 X99.052 Y107.668 E10.77393
G1 X99.436 Y106.978 E10.80676
G1 X99.834 Y106.324 E10.83859
G1 X100.275 Y105.653 E10.87198
G1 X100.749 Y104.993 E10.90576
G1 X101.21 Y104.396 E10.93712
G1 X101.714 Y103.792 E10.96982
G1 X102.26 Y103.186 E11.00374
G1 X102.808 Y102.624 E11.03637
G0 F6000 X103.084 Y102.913
G1 F1200 X103.641 Y102.381 E11.06839
G1 X104.218 Y101.871 E11.10041
G1 X104.813 Y101.385 E11.13235
G1 X105.428 Y100.917 E11.16448
G1 X106.056 Y100.478 E11.19634
G1 X106.702 Y100.058 E11.22837
G1 X107.365 Y99.665 E11.26041
G1 X108.04 Y99.298 E11.29236
G1 X108.729 Y98.955 E11.32436
G1 X109.429 Y98.64 E11.35627
G1 X110.144 Y98.347 E11.38839
G1 X110.899 Y98.072 E11.4218
G1 X111.63 Y97.839 E11.4537
G1 X112.372 Y97.632 E11.48573
G1 X113.119 Y97.453 E11.51766
G1 X113.874 Y97.301 E11.54968
G1 X114.633 Y97.18 E11.58163
G1 X115.399 Y97.085 E11.61372
G1 X116.165 Y97.019 E11.64569
G1 X116.935 Y96.983 E11.67774
G1 X117.704 Y96.975 E11.70971
G1 X118.474 Y96.997 E11.74174
G1 X119.273 Y97.05 E11.77503
G1 X120.039 Y97.13 E11.80705
G1 X120.802 Y97.237 E11.83908
G1 X121.558 Y97.375 E11.87103
G1 X122.312 Y97.539 E11.90311
G1 X123.058 Y97.733 E11.93516
G1 X123.793 Y97.955 E11.96708
G1 X124.52 Y98.203 E11.99901
G1 X125.242 Y98.479 E12.03115
G1 X125.949 Y98.782 E12.06313
G1 X126.671 Y99.125 E12.09636
G1 X127.328 Y99.466 E12.12714
G1 X127.995 Y99.846 E12.15905
G1 X128.649 Y100.252 E12.19105
G1 X129.289 Y100.68 E12.22306
G1 X129.937 Y101.153 E12.25642
G1 X130.542 Y101.629 E12.28842
G1 X131.127 Y102.129 E12.32042
G1 X131.695 Y102.649 E12.35243
G1 X132.241 Y103.19 E12.38439
G1 X132.767 Y103.752 E12.41639
G1 X133.271 Y104.334 E12.4484
G1 X133.755 Y104.934 E12.48045
G1 X134.214 Y105.551 E12.51242
G1 X134.641 Y106.172 E12.54376
G1 X135.063 Y106.835 E12.57643
G1 X135.448 Y107.499 E12.60834
G1 X135.812 Y108.179 E12.64041
G1 X136.162 Y108.9 E12.67373
G1 X136.472 Y109.606 E12.70579
G1 X136.754 Y110.321 E12.73774
G1 X137.01 Y111.047 E12.76975
G1 X137.238 Y111.783 E12.80178
G1 X137.439 Y112.526 E12.83378
G1 X137.61 Y113.273 E12.86564
G1 X137.756 Y114.032 E12.89777
G1 X137.875 Y114.825 E12.93111
G1 X137.96 Y115.589 E12.96307
G1 X138.017 Y116.324 E12.99372
G1 X138.046 Y117.095 E13.0258
G1 X138.045 Y117.925 E13.06031
G1 X138.017 Y118.666 E13.09113
G1 X137.959 Y119.432 E13.12307
G1 X137.872 Y120.199 E13.15517
G1 X137.757 Y120.958 E13.18708
G1 X137.613 Y121.713 E13.21904
G1 X137.442 Y122.466 E13.25114
G1 X137.241 Y123.208 E13.2831
G1 X137.013 Y123.943 E13.31509
G1 X136.757 Y124.669 E13.3471
G1 X136.475 Y125.385 E13.37909
G1 X136.166 Y126.091 E13.41113
G1 X135.831 Y126.784 E13.44313
G1 X135.455 Y127.492 E13.47646
G1 X135.068 Y128.156 E13.50842
G1 X134.656 Y128.807 E13.54045
G1 X134.22 Y129.44 E13.5724
G1 X133.76 Y130.058 E13.60443
G1 X133.278 Y130.658 E13.63643
G1 X132.774 Y131.239 E13.66841
G1 X132.26 Y131.791 E13.69976
G1 X131.701 Y132.343 E13.73243
G1 X131.135 Y132.865 E13.76444
G1 X130.549 Y133.365 E13.79646
G1 X129.945 Y133.841 E13.82844
G1 X129.324 Y134.296 E13.86044
G1 X128.658 Y134.744 E13.89381
G1 X128.003 Y135.15 E13.92585
G1 X127.338 Y135.527 E13.95763
G1 X126.653 Y135.886 E13.98979
G1 X125.964 Y136.212 E14.02148
G1 X125.249 Y136.518 E14.05381
G1 X124.531 Y136.792 E14.08576
G1 X123.802 Y137.043 E14.11782
G1 X123.063 Y137.264 E14.14988
G1 X122.29 Y137.463 E14.18307
G1 X121.567 Y137.624 E14.21386
G1 X120.778 Y137.765 E14.24719
G1 X120.017 Y137.873 E14.27914
G1 X119.252 Y137.953 E14.31112
G1 X118.484 Y138.003 E14.34312
G1 X117.714 Y138.025 E14.37514
G1 X116.946 Y138.018 E14.40708
G1 X116.177 Y137.981 E14.43908
G1 X115.41 Y137.916 E14.47109
G1 X114.652 Y137.824 E14.50283
G1 X113.883 Y137.7 E14.53522
G1 X113.101 Y137.542 E14.56838
G1 X112.378 Y137.371 E14.59927
G1 X111.639 Y137.164 E14.63118
G1 X110.908 Y136.929 E14.6631
G1 X110.154 Y136.656 E14.69644
G1 X109.439 Y136.366 E14.72852
G1 X108.737 Y136.049 E14.76054
G1 X108.05 Y135.707 E14.79245
G1 X107.373 Y135.339 E14.82448
G1 X106.712 Y134.945 E14.85648
G1 X106.064 Y134.528 E14.88851
G1 X105.435 Y134.086 E14.92048
G1 X104.821 Y133.621 E14.9525
G1 X104.225 Y133.133 E14.98452
G1 X103.648 Y132.624 E15.01651
G1 X103.067 Y132.068 E15.04995
G1 X102.534 Y131.518 E15.08179
G1 X102.038 Y130.969 E15.11255
G1 X101.524 Y130.356 E15.14581
G1 X101.052 Y129.746 E15.17787
G1 X100.605 Y129.121 E15.20982
G1 X100.18 Y128.477 E15.2419
G1 X99.783 Y127.822 E15.27374
G1 X99.407 Y127.148 E15.30583
G1 X99.06 Y126.463 E15.33775
G1 X98.735 Y125.762 E15.36988
G1 X98.441 Y125.054 E15.40175
G1 X98.168 Y124.331 E15.43388
G1 X97.927 Y123.6 E15.46588
G1 X97.705 Y122.833 E15.49908
G1 X97.525 Y122.116 E15.52981
G1 X97.36 Y121.332 E15.56312
G1 X97.232 Y120.573 E15.59512
G1 X97.13 Y119.81 E15.62713
G1 X97.057 Y119.042 E15.6592
G1 X97.014 Y118.277 E15.69106
G1 X96.999 Y117.505 E15.72316
G1 X97.014 Y116.737 E15.75509
G1 X97.057 Y115.967 E15.78716
G1 X97.133 Y115.171 E15.8204
G1 X97.227 Y114.452 E15.85055
G1 X97.364 Y113.648 E15.88446
G1 X97.516 Y112.925 E15.91517
G1 X97.711 Y112.145 E15.9486
G1 X97.924 Y111.407 E15.98053
G1 X98.166 Y110.678 E16.01247
G1 X98.43 Y109.969 E16.04392
G1 X98.732 Y109.243 E16.07661
G1 X99.051 Y108.553 E16.10822
G1 X99.402 Y107.862 E16.14044
G1 X99.778 Y107.186 E16.1726
G1 X100.176 Y106.532 E16.20443
G1 X100.6 Y105.886 E16.23655
G1 X101.066 Y105.237 E16.26977
G1 X101.517 Y104.652 E16.30048
G1 X102.011 Y104.06 E16.33254
G1 X102.547 Y103.465 E16.36583
G1 X103.084 Y102.913 E16.39785
G0 F6000 X103.36 Y103.202
G1 F1200 X103.906 Y102.681 E16.42923
G1 X104.471 Y102.181 E16.46059
G1 X105.055 Y101.703 E16.49197
G1 X105.657 Y101.245 E16.52342
G1 X106.274 Y100.813 E16.55473
G1 X106.906 Y100.402 E16.58607
G1 X107.556 Y100.016 E16.6175
G1 X108.218 Y99.656 E16.64883
G1 X108.894 Y99.32 E16.68022
G1 X109.581 Y99.01 E16.71155
G1 X110.281 Y98.723 E16.74301
G1 X111.021 Y98.453 E16.77576
G1 X111.738 Y98.224 E16.80705
G1 X112.465 Y98.021 E16.83843
G1 X113.198 Y97.845 E16.86977
G1 X113.937 Y97.696 E16.90111
G1 X114.682 Y97.577 E16.93248
G1 X115.434 Y97.484 E16.96398
G1 X116.184 Y97.419 E16.99528
G1 X116.939 Y97.383 E17.02671
