;FLAVOR:Marlin
;TIME:5807
;Filament used: 2.83079m
;Layer height: 0.2
;MINX:83.85
;MINY:72.2
;MINZ:0.25
;MAXX:151.15
;MAXY:146.6
;MAXZ:2.65
;Generated with Cura_SteamEngine 5.3.0
M140 S85
M105
M190 S85
M104 S240
M105
M109 S240
M82 ;absolute extrusion mode
START_PRINT
G92 E0
G92 E0
G1 F1500 E-8
;LAYER_COUNT:13
;LAYER:0
M107
;MESH:F??hrungsbuchse.stl(7)
G0 F6000 X95.852 Y103.216 Z0.25
;TYPE:WALL-INNER
G1 F1500 E0
G1 F1200 X95.112 Y103.337 E0.03117
G1 X94.366 Y103.375 E0.06223
G1 X93.688 Y103.337 E0.09046
G1 X92.948 Y103.216 E0.12164
G1 X92.164 Y102.99 E0.15556
G1 X91.536 Y102.73 E0.18382
G1 X90.815 Y102.332 E0.21806
G1 X90.265 Y101.94 E0.24614
G1 X89.704 Y101.444 E0.27727
G1 X89.202 Y100.887 E0.30844
G1 X88.732 Y100.227 E0.34213
G1 X88.37 Y99.564 E0.37353
G1 X88.088 Y98.873 E0.40456
G1 X87.883 Y98.149 E0.43585
G1 X87.766 Y97.425 E0.46634
G1 X87.727 Y96.676 E0.49752
G1 X87.764 Y95.981 E0.52646
G1 X87.885 Y95.248 E0.55734
G1 X88.11 Y94.464 E0.59125
G1 X88.37 Y93.836 E0.61951
G1 X88.732 Y93.173 E0.65092
G1 X89.16 Y92.565 E0.68183
G1 X89.704 Y91.956 E0.71578
G1 X90.265 Y91.46 E0.74691
G1 X90.815 Y91.068 E0.77499
G1 X91.536 Y90.67 E0.80923
G1 X92.164 Y90.41 E0.83749
G1 X92.948 Y90.184 E0.87141
G1 X93.688 Y90.063 E0.90259
G1 X94.434 Y90.025 E0.93364
G1 X95.112 Y90.063 E0.96187
G1 X95.852 Y90.184 E0.99305
G1 X96.636 Y90.41 E1.02697
G1 X97.264 Y90.67 E1.05523
G1 X97.985 Y91.068 E1.08947
G1 X98.535 Y91.46 E1.11755
G1 X99.096 Y91.956 E1.14868
G1 X99.64 Y92.565 E1.18263
G1 X100.068 Y93.173 E1.21354
G1 X100.43 Y93.836 E1.24495
G1 X100.712 Y94.528 E1.27602
G1 X100.915 Y95.249 E1.30716
G1 X101.027 Y95.912 E1.33511
G1 X101.075 Y96.699 E1.36789
G1 X101.028 Y97.478 E1.40034
G1 X100.915 Y98.155 E1.42887
G1 X100.69 Y98.936 E1.46266
G1 X100.43 Y99.564 E1.49092
G1 X100.068 Y100.227 E1.52233
G1 X99.64 Y100.835 E1.55324
G1 X99.096 Y101.444 E1.58719
G1 X98.535 Y101.94 E1.61832
G1 X97.985 Y102.332 E1.6464
G1 X97.264 Y102.73 E1.68064
G1 X96.636 Y102.99 E1.7089
G1 X95.852 Y103.216 E1.74282
G1 F1500 E-6.25718
G0 F6000 X95.867 Y103.315
G0 X97.333 Y102.897
G0 X97.333 Y104.225
G0 X104.189 Y104.425
G1 F1500 E1.74282
G1 F1200 X104.304 Y104.355 E1.74842
G1 X104.376 Y104.232 E1.75435
G1 X104.376 Y89.163 E2.38084
G1 X104.305 Y89.045 E2.38657
G1 X104.185 Y88.975 E2.39234
G1 X84.612 Y88.975 E3.20609
G1 X84.495 Y89.045 E3.21176
G1 X84.424 Y89.168 E3.21767
G1 X84.425 Y104.237 E3.84416
G1 X84.495 Y104.354 E3.84983
G1 X84.618 Y104.426 E3.85576
G1 X104.189 Y104.425 E4.66942
G0 F6000 X104.275 Y104.825
;TYPE:WALL-OUTER
G1 F1200 X104.59 Y104.64 E4.68461
G1 X104.776 Y104.319 E4.70004
G1 X104.775 Y89.075 E5.33381
G1 X104.59 Y88.76 E5.349
G1 X104.273 Y88.575 E5.36426
G1 X84.525 Y88.575 E6.18528
G1 X84.21 Y88.76 E6.20047
G1 X84.024 Y89.081 E6.21589
G1 X84.025 Y104.18 E6.84364
G1 X84.111 Y104.512 E6.8579
G1 X84.34 Y104.74 E6.87133
G1 X84.657 Y104.826 E6.88499
G1 X104.275 Y104.825 E7.70061
G1 F1500 E-0.29939
G0 F6000 X104.006 Y104.325
G0 X95.161 Y104.225
G0 X95.121 Y103.518
G0 X95.112 Y102.935
G1 F1500 E7.70061
G1 F1200 X94.388 Y102.975 E7.73075
G1 X93.688 Y102.935 E7.7599
G1 X92.993 Y102.816 E7.78922
G1 X92.338 Y102.628 E7.81755
G1 X91.689 Y102.36 E7.84674
G1 X91.047 Y102.006 E7.87722
G1 X90.479 Y101.6 E7.90625
G1 X89.954 Y101.13 E7.93555
G1 X89.5 Y100.621 E7.9639
G1 X89.082 Y100.033 E7.9939
G1 X88.74 Y99.411 E8.02341
G1 X88.472 Y98.762 E8.0526
G1 X88.278 Y98.083 E8.08196
G1 X88.168 Y97.423 E8.10978
G1 X88.127 Y96.697 E8.14001
G1 X88.166 Y95.979 E8.1699
G1 X88.284 Y95.293 E8.19884
G1 X88.472 Y94.638 E8.22717
G1 X88.74 Y93.989 E8.25637
G1 X89.082 Y93.367 E8.28588
G1 X89.5 Y92.779 E8.31587
G1 X89.97 Y92.254 E8.34517
G1 X90.479 Y91.8 E8.37352
G1 X91.047 Y91.394 E8.40255
G1 X91.689 Y91.04 E8.43303
G1 X92.338 Y90.772 E8.46222
G1 X93.015 Y90.579 E8.49149
G1 X93.688 Y90.465 E8.51987
G1 X94.412 Y90.425 E8.55002
G1 X95.112 Y90.465 E8.57917
G1 X95.807 Y90.584 E8.60848
G1 X96.462 Y90.772 E8.63681
G1 X97.111 Y91.04 E8.666
G1 X97.753 Y91.394 E8.69648
G1 X98.321 Y91.8 E8.72551
G1 X98.83 Y92.254 E8.75387
G1 X99.3 Y92.779 E8.78316
G1 X99.718 Y93.367 E8.81316
G1 X100.06 Y93.989 E8.84267
G1 X100.328 Y94.638 E8.87186
G1 X100.521 Y95.315 E8.90113
G1 X100.633 Y95.978 E8.92908
G1 X100.675 Y96.699 E8.95911
G1 X100.634 Y97.412 E8.9888
G1 X100.521 Y98.086 E9.01722
G1 X100.328 Y98.762 E9.04644
G1 X100.06 Y99.411 E9.07564
G1 X99.718 Y100.033 E9.10515
G1 X99.3 Y100.621 E9.13514
G1 X98.83 Y101.146 E9.16444
G1 X98.321 Y101.6 E9.19279
G1 X97.753 Y102.006 E9.22182
G1 X97.111 Y102.36 E9.2523
G1 X96.462 Y102.628 E9.28149
G1 X95.785 Y102.821 E9.31076
G1 X95.112 Y102.935 E9.33914
G1 F1500 E1.33914
G0 F6000 X95.161 Y103.23
G0 X97.333 Y102.897
G0 X97.333 Y104.225
G0 X104.016 Y104.064
;TYPE:SKIN
G1 F1500 E9.33914
G1 F1200 X96.831 Y104.065 E9.63786
G1 F1132.1 X95.949 Y104.04 E9.67674
G1 F1151.1 X95.183 Y104.071 E9.70997
G1 F1280 X94.364 Y104.083 E9.74189
G1 F1283.4 X93.664 Y104.073 E9.76911
G1 F1153.8 X92.856 Y104.041 E9.80407
G1 F1132.1 X92.032 Y104.065 E9.8404
G1 F1200 X84.786 Y104.065 E10.14165
G1 X84.785 Y89.336 E10.75401
G1 X92.032 Y89.335 E11.05531
G1 F1126.8 X92.805 Y89.362 E11.08956
G1 F1145.6 X93.617 Y89.329 E11.12495
G1 F1280 X94.436 Y89.317 E11.15687
G1 F1283.4 X95.136 Y89.327 E11.18409
G1 F1153.8 X95.944 Y89.359 E11.21905
G1 F1132.1 X96.768 Y89.335 E11.25538
G1 F1200 X104.016 Y89.335 E11.55672
G1 X104.016 Y104.064 E12.16908
G1 F1500 E4.16908
G0 F6000 X104.016 Y104.325
G0 X95.864 Y104.225
G0 X95.736 Y103.437
G0 X95.908 Y103.596
G1 F1500 E12.16908
G1 F1132.1 X96.692 Y103.351 E12.20528
G1 F1200 X97.404 Y103.062 E12.23722
G1 X98.203 Y102.622 E12.27515
G1 X98.8 Y102.19 E12.30578
G1 X99.401 Y101.649 E12.3394
G1 X99.925 Y101.056 E12.3723
G1 X100.37 Y100.421 E12.40454
G1 X100.757 Y99.714 E12.43805
G1 X101.032 Y99.052 E12.46785
G1 X101.271 Y98.216 E12.504
G1 X101.393 Y97.448 E12.53633
G1 X101.436 Y96.697 E12.56761
G1 X101.392 Y95.943 E12.59901
G1 X101.271 Y95.196 E12.63047
G1 X101.057 Y94.428 E12.66361
G1 X100.715 Y93.598 E12.70094
G1 X100.385 Y93 E12.72933
G1 X99.921 Y92.34 E12.76287
G1 X99.417 Y91.767 E12.7946
G1 X98.8 Y91.21 E12.82916
G1 X98.203 Y90.778 E12.8598
G1 X97.425 Y90.348 E12.89675
G1 X96.692 Y90.049 E12.92967
G1 F1132.1 X95.908 Y89.804 E12.96586
G1 F1151.1 X95.145 Y89.712 E12.99917
G1 F1280 X94.465 Y89.683 E13.0257
G1 X93.648 Y89.713 E13.05757
G1 F1145.6 X92.866 Y89.807 E13.09187
G1 F1126.8 X92.108 Y90.049 E13.1271
G1 F1200 X91.396 Y90.338 E13.15905
G1 X90.597 Y90.778 E13.19697
G1 X90 Y91.21 E13.22761
G1 X89.399 Y91.751 E13.26123
G1 X88.875 Y92.344 E13.29413
G1 X88.418 Y92.998 E13.3273
G1 X88.035 Y93.703 E13.36065
G1 X87.745 Y94.415 E13.39262
G1 X87.547 Y95.103 E13.42238
G1 X87.41 Y95.886 E13.45543
G1 X87.369 Y96.752 E13.49147
G1 X87.417 Y97.546 E13.52454
G1 X87.529 Y98.217 E13.55283
G1 X87.768 Y99.053 E13.58898
G1 X88.034 Y99.696 E13.61791
G1 X88.429 Y100.421 E13.65223
G1 X88.932 Y101.126 E13.68824
G1 X89.384 Y101.633 E13.71648
G1 X89.979 Y102.173 E13.74988
G1 X90.617 Y102.635 E13.78263
G1 X91.375 Y103.052 E13.8186
G1 X92.108 Y103.351 E13.85151
G1 F1132.1 X92.892 Y103.596 E13.88771
G1 F1151.1 X93.655 Y103.688 E13.92102
G1 F1276.6 X94.347 Y103.718 E13.94809
G1 X95.152 Y103.687 E13.97957
G1 F1151.1 X95.908 Y103.596 E14.01258
G1 F1500 E6.01258
G0 F6000 X95.864 Y103.316
G0 X94.089 Y103.202
G0 X91.467 Y102.897
G0 X91.467 Y104.226
G0 X85.196 Y103.864
G1 F1500 E14.01258
G1 F1200 X84.985 Y103.652 E14.02501
G0 F6000 X84.985 Y103.086
G1 F1200 X85.762 Y103.864 E14.07073
G0 F6000 X86.327 Y103.864
G1 F1200 X84.985 Y102.521 E14.14966
G0 F6000 X84.985 Y101.955
G1 F1200 X86.893 Y103.864 E14.26187
G0 F6000 X87.459 Y103.864
G1 F1200 X84.985 Y101.389 E14.40736
G0 F6000 X84.985 Y100.824
G1 F1200 X88.024 Y103.864 E14.58607
G0 F6000 X88.59 Y103.864
G1 F1200 X84.985 Y100.258 E14.79806
G0 F6000 X84.985 Y99.692
G1 F1200 X89.156 Y103.864 E15.04333
G0 F6000 X89.721 Y103.864
G1 F1200 X84.985 Y99.127 E15.32182
G0 F6000 X84.985 Y98.561
G1 F1200 X90.287 Y103.864 E15.63359
G0 F6000 X90.853 Y103.864
G1 F1200 X84.985 Y97.995 E15.97863
G0 F6000 X84.985 Y97.43
G1 F1200 X88.709 Y101.154 E16.19759
G0 F6000 X89.168 Y101.001
G0 X88.245 Y99.526
G0 X87.821 Y99.701
G1 F1200 X84.985 Y96.864 E16.36436
G0 F6000 X84.984 Y96.298
G1 F1200 X87.491 Y98.805 E16.51177
G0 F6000 X87.298 Y98.046
G1 F1200 X84.984 Y95.732 E16.64782
G0 F6000 X84.984 Y95.166
G1 F1200 X87.206 Y97.389 E16.77849
G0 F6000 X87.169 Y96.785
G1 F1200 X84.984 Y94.6 E16.90696
G0 F6000 X84.984 Y94.035
G1 F1200 X87.194 Y96.245 E17.0369
G0 F6000 X87.236 Y95.721
G1 F1200 X84.984 Y93.469 E17.16931
G0 F6000 X84.984 Y92.903
G1 F1200 X87.319 Y95.239 E17.30663
G0 F6000 X87.43 Y94.784
G1 F1200 X84.984 Y92.338 E17.45045
G0 F6000 X84.984 Y91.772
G1 F1200 X87.559 Y94.347 E17.60185
G0 F6000 X87.722 Y93.945
G1 F1200 X84.984 Y91.206 E17.76286
G0 F6000 X84.984 Y90.641
G1 F1200 X87.89 Y93.547 E17.93372
G0 F6000 X88.089 Y93.181
G1 F1200 X84.984 Y90.075 E18.11631
G0 F6000 X85.009 Y89.535
G1 F1200 X88.297 Y92.823 E18.30963
G0 F6000 X88.53 Y92.49
G1 F1200 X85.575 Y89.535 E18.48338
G0 F6000 X86.141 Y89.535
G1 F1200 X88.768 Y92.162 E18.63784
G0 F6000 X89.033 Y91.862
G1 F1200 X86.706 Y89.535 E18.77465
G0 F6000 X87.272 Y89.535
G1 F1200 X89.303 Y91.566 E18.89407
G0 F6000 X89.601 Y91.298
G1 F1200 X87.838 Y89.535 E18.99773
G0 F6000 X88.403 Y89.535
G1 F1200 X89.901 Y91.032 E19.08577
G0 F6000 X90.231 Y90.796
G1 F1200 X88.969 Y89.535 E19.15994
G0 F6000 X89.535 Y89.535
G1 F1200 X90.564 Y90.564 E19.22045
G0 F6000 X90.93 Y90.364
G1 F1200 X90.1 Y89.535 E19.26922
G0 F6000 X90.666 Y89.535
G1 F1200 X91.295 Y90.164 E19.3062
G0 F6000 X91.696 Y89.999
G1 F1200 X91.232 Y89.535 E19.33348
G0 F6000 X91.798 Y89.535
G1 F1200 X92.101 Y89.838 E19.3513
G0 F6000 X92.389 Y89.56
G1 F1200 X92.518 Y89.69 E19.35891
G0 F6000 X92.353 Y90.248
G0 X93.512 Y90.213
G0 X96.445 Y90.247
G0 X96.348 Y89.56
G1 F1200 X96.592 Y89.804 E19.37326
G0 F6000 X96.889 Y89.535
G1 F1200 X97.54 Y90.186 E19.41153
G0 F6000 X97.454 Y89.535
G1 F1200 X99.41 Y91.491 E19.52654
G0 F6000 X99.627 Y91.708
G1 F1200 X103.816 Y95.896 E19.77281
G0 F6000 X103.816 Y96.462
G1 F1200 X100.912 Y93.558 E19.94355
G0 F6000 X100.471 Y93.696
G0 X100.841 Y94.618
G0 X101.283 Y94.495
G1 F1200 X103.816 Y97.027 E20.09245
G0 F6000 X103.816 Y97.593
G1 F1200 X101.48 Y95.257 E20.2298
G0 F6000 X101.59 Y95.933
G1 F1200 X103.816 Y98.159 E20.36068
G0 F6000 X103.816 Y98.724
G1 F1200 X101.626 Y96.534 E20.48944
G0 F6000 X101.613 Y97.087
G1 F1200 X103.816 Y99.29 E20.61897
G0 F6000 X103.816 Y99.856
G1 F1200 X101.567 Y97.607 E20.7512
G0 F6000 X101.491 Y98.096
G1 F1200 X103.816 Y100.421 E20.88791
G0 F6000 X103.816 Y100.987
G1 F1200 X101.38 Y98.551 E21.03113
G0 F6000 X101.253 Y98.99
G1 F1200 X103.816 Y101.553 E21.18183
G0 F6000 X103.816 Y102.118
G1 F1200 X101.101 Y99.404 E21.34143
G0 F6000 X100.934 Y99.803
G1 F1200 X103.816 Y102.684 E21.51085
G0 F6000 X103.816 Y103.25
G1 F1200 X100.735 Y100.17 E21.69197
G0 F6000 X100.532 Y100.532
G1 F1200 X103.816 Y103.816 E21.88506
G0 F6000 X103.296 Y103.862
G1 F1200 X100.299 Y100.865 E22.06127
G0 F6000 X100.065 Y101.196
G1 F1200 X102.731 Y103.862 E22.21802
G0 F6000 X102.165 Y103.862
G1 F1200 X99.799 Y101.496 E22.35713
G0 F6000 X99.534 Y101.797
G1 F1200 X101.599 Y103.862 E22.47855
G0 F6000 X101.034 Y103.862
G1 F1200 X99.237 Y102.065 E22.5842
G0 F6000 X98.939 Y102.333
G1 F1200 X100.468 Y103.862 E22.6741
G0 F6000 X99.902 Y103.862
G1 F1200 X98.611 Y102.571 E22.75001
G0 F6000 X98.28 Y102.806
G1 F1200 X99.337 Y103.862 E22.81213
G0 F6000 X98.771 Y103.862
G1 F1200 X97.915 Y103.007 E22.86243
G0 F6000 X97.551 Y103.207
G1 F1200 X98.205 Y103.862 E22.90091
G0 F6000 X97.64 Y103.862
G1 F1200 X97.155 Y103.378 E22.9294
G0 F6000 X96.752 Y103.54
G1 F1200 X97.074 Y103.862 E22.94833
G0 F6000 X96.493 Y103.847
G1 F1200 X96.33 Y103.684 E22.95791
G1 F1500 E14.95791
G0 F6000 X96.447 Y103.152
G0 X92.919 Y103.394
G0 X92.919 Y104.226
G0 X92.521 Y103.835
G1 F1500 E22.95791
G1 F1200 X92.319 Y103.632 E22.96982
G0 F6000 X91.984 Y103.864
G1 F1200 X91.399 Y103.279 E23.00421
G0 F6000 X91.419 Y103.864
G1 F1200 X89.964 Y102.409 E23.08976
G1 F1500 E15.08976
G0 F6000 X90.101 Y101.933
G0 X88.884 Y100.167
G0 X88.529 Y99.527
G0 X88.251 Y98.852
G0 X88.047 Y98.149
G0 X87.885 Y96.701
G0 X87.926 Y95.972
G0 X88.048 Y95.251
G0 X88.251 Y94.548
G0 X88.529 Y93.873
G0 X88.884 Y93.233
G0 X89.306 Y92.638
G0 X89.793 Y92.093
G0 X90.338 Y91.606
G0 X90.933 Y91.184
G0 X91.573 Y90.829
G0 X92.248 Y90.551
G0 X92.951 Y90.348
G0 X93.671 Y90.226
G0 X94.4 Y90.184
G0 X97.333 Y90.503
G0 X97.333 Y89.175
G0 X98.02 Y89.535
G1 F1500 E23.08976
G1 F1200 X103.816 Y95.33 E23.43052
G0 F6000 X103.816 Y94.765
G1 F1200 X98.586 Y89.535 E23.73802
G0 F6000 X99.151 Y89.535
G1 F1200 X103.816 Y94.199 E24.01228
G0 F6000 X103.816 Y93.633
G1 F1200 X99.717 Y89.535 E24.25325
G0 F6000 X100.283 Y89.535
G1 F1200 X103.816 Y93.067 E24.46095
G0 F6000 X103.816 Y92.502
G1 F1200 X100.848 Y89.535 E24.63543
G0 F6000 X101.414 Y89.535
G1 F1200 X103.816 Y91.936 E24.77663
G0 F6000 X103.816 Y91.37
G1 F1200 X101.98 Y89.535 E24.88455
G0 F6000 X102.546 Y89.535
G1 F1200 X103.816 Y90.805 E24.95922
G0 F6000 X103.816 Y90.239
G1 F1200 X103.111 Y89.535 E25.00064
G0 F6000 X103.677 Y89.535
G1 F1200 X103.816 Y89.673 E25.00878
G1 F1500 E17.00878
;MESH:F??hrungsbuchse.stl(4)
G0 F6000 X104.276 Y89.673
G0 X104.204 Y104.252
G0 X98.166 Y104.625
G0 X97.509 Y110.693
G0 X98.149 Y124.017
;TYPE:WALL-INNER
G1 F1500 E25.00878
G1 F1200 X97.425 Y124.134 E25.03927
G1 X96.676 Y124.173 E25.07046
G1 X95.981 Y124.136 E25.09939
G1 X95.248 Y124.015 E25.13028
G1 X94.464 Y123.79 E25.16419
G1 X93.836 Y123.53 E25.19245
G1 X93.173 Y123.168 E25.22385
G1 X92.565 Y122.74 E25.25476
G1 X91.956 Y122.196 E25.28871
G1 X91.46 Y121.635 E25.31985
G1 X91.068 Y121.085 E25.34793
G1 X90.67 Y120.364 E25.38217
G1 X90.41 Y119.736 E25.41043
G1 X90.184 Y118.952 E25.44435
G1 X90.063 Y118.212 E25.47552
G1 X90.025 Y117.466 E25.50658
G1 X90.063 Y116.788 E25.53481
G1 X90.184 Y116.048 E25.56598
G1 X90.41 Y115.264 E25.59991
G1 X90.67 Y114.636 E25.62816
G1 X91.068 Y113.915 E25.6624
G1 X91.46 Y113.365 E25.69048
G1 X92.004 Y112.756 E25.72443
G1 X92.565 Y112.26 E25.75557
G1 X93.173 Y111.832 E25.78648
G1 X93.836 Y111.47 E25.81788
G1 X94.464 Y111.21 E25.84614
G1 X95.183 Y111 E25.87728
G1 X95.978 Y110.865 E25.91081
G1 X96.667 Y110.826 E25.9395
G1 X97.412 Y110.864 E25.97051
G1 X98.217 Y111 E26.00446
G1 X98.936 Y111.21 E26.0356
G1 X99.564 Y111.47 E26.06386
G1 X100.227 Y111.832 E26.09526
G1 X100.887 Y112.302 E26.12895
G1 X101.444 Y112.804 E26.16012
G1 X101.898 Y113.313 E26.18848
G1 X102.368 Y113.973 E26.22216
G1 X102.73 Y114.636 E26.25357
G1 X102.99 Y115.264 E26.28183
G1 X103.215 Y116.048 E26.31574
G1 X103.329 Y116.722 E26.34416
G1 X103.376 Y117.499 E26.37652
G1 X103.329 Y118.278 E26.40897
G1 X103.215 Y118.955 E26.43751
G1 X102.99 Y119.736 E26.4713
G1 X102.73 Y120.364 E26.49956
G1 X102.368 Y121.027 E26.53096
G1 X101.898 Y121.687 E26.56465
G1 X101.396 Y122.244 E26.59583
G1 X100.887 Y122.698 E26.62418
G1 X100.227 Y123.168 E26.65787
G1 X99.564 Y123.53 E26.68927
G1 X98.873 Y123.812 E26.7203
G1 X98.149 Y124.017 E26.75159
G1 F1500 E18.75159
G0 F6000 X98.167 Y124.115
G0 X99.007 Y123.957
G0 X99.007 Y127.275
G0 X104.239 Y127.475
G1 F1500 E26.75159
G1 F1200 X104.354 Y127.405 E26.75718
G1 X104.426 Y127.282 E26.76311
G1 X104.426 Y107.713 E27.57669
G1 X104.355 Y107.595 E27.58242
G1 X104.232 Y107.524 E27.58832
G1 X89.162 Y107.525 E28.21486
G1 X89.045 Y107.595 E28.22053
G1 X88.975 Y107.715 E28.22631
G1 X88.975 Y127.287 E29.04001
G1 X89.045 Y127.404 E29.04568
G1 X89.168 Y127.476 E29.05161
G1 X104.239 Y127.475 E29.67819
G0 F6000 X104.325 Y127.875
;TYPE:WALL-OUTER
G1 F1200 X104.64 Y127.69 E29.69338
G1 X104.826 Y127.369 E29.7088
G1 X104.825 Y107.625 E30.52966
G1 X104.64 Y107.31 E30.54485
G1 X104.319 Y107.124 E30.56027
G1 X89.075 Y107.125 E31.19404
G1 X88.76 Y107.31 E31.20923
G1 X88.575 Y107.627 E31.22449
G1 X88.575 Y127.23 E32.03949
G1 X88.661 Y127.562 E32.05375
G1 X88.89 Y127.79 E32.06718
G1 X89.207 Y127.876 E32.08084
G1 X104.325 Y127.875 E32.70937
G1 F1500 E24.70937
G0 F6000 X104.056 Y127.375
G0 X98.167 Y127.275
G0 X97.669 Y124.28
