;FLAVOR:Marlin
;TIME:1161
;Filament used: 0.652762m
;Layer height: 0.2
;MINX:102.201
;MINY:99.923
;MINZ:0.25
;MAXX:132.799
;MAXY:136.019
;MAXZ:8.45
;Generated with Cura_SteamEngine 5.3.0
M140 S95
M105
M190 S95
M104 S249
M105
M109 S249
M82 ;absolute extrusion mode
START_PRINT
G92 E0
G92 E0
G1 F1500 E-5
;LAYER_COUNT:42
;LAYER:0
M107
;MESH:BMW_Center_Console_Screw_Cover_v4.stl
G0 F6000 X119.195 Y130.8 Z0.25
;TYPE:WALL-INNER
G1 F1500 E0
G1 F1200 X119.208 Y130.811 E0.00071
G1 X120.16 Y130.659 E0.04079
G1 X120.723 Y130.546 E0.06466
G1 X121.263 Y130.415 E0.08776
G1 X121.82 Y130.258 E0.11182
G1 X122.355 Y130.084 E0.13521
G1 X122.887 Y129.891 E0.15874
G1 X123.196 Y129.763 E0.17265
G1 X123.207 Y129.771 E0.17321
G1 X123.935 Y129.439 E0.20648
G1 X124.431 Y129.188 E0.22959
G1 X124.94 Y128.908 E0.25374
G1 X125.424 Y128.617 E0.27722
G1 X125.934 Y128.282 E0.30259
G1 X126.351 Y127.985 E0.32387
G1 X126.843 Y127.604 E0.34975
G1 X127.246 Y127.269 E0.37153
G1 X127.669 Y126.889 E0.39517
G1 X128.066 Y126.503 E0.41819
G1 X128.494 Y126.053 E0.44401
G1 X128.839 Y125.663 E0.46566
G1 X129.204 Y125.22 E0.48953
G1 X129.572 Y124.734 E0.51487
G1 X129.864 Y124.315 E0.5361
G1 X130.199 Y123.792 E0.56193
G1 X130.488 Y123.302 E0.58558
G1 X130.731 Y122.85 E0.60691
G1 X131.005 Y122.294 E0.63268
G1 X131.235 Y121.773 E0.65636
G1 X131.432 Y121.284 E0.67828
G1 X131.623 Y120.75 E0.70186
G1 X131.789 Y120.221 E0.72491
G1 X131.954 Y119.622 E0.75074
G1 X132.07 Y119.112 E0.77248
G1 X132.179 Y118.553 E0.79616
G1 X132.272 Y117.952 E0.82145
G1 X132.329 Y117.441 E0.84282
G1 X132.377 Y116.822 E0.86863
G1 X132.397 Y116.298 E0.89044
G1 X132.397 Y115.73 E0.91405
G1 X132.376 Y115.176 E0.9371
G1 X132.332 Y114.598 E0.9612
G1 X132.269 Y114.033 E0.98484
G1 X132.183 Y113.473 E1.00839
G1 X132.076 Y112.915 E1.03201
G1 X131.948 Y112.362 E1.05561
G1 X131.8 Y111.815 E1.07917
G1 X131.544 Y110.997 E1.11481
G1 X131.234 Y110.225 E1.14939
G1 X130.997 Y109.693 E1.17361
G1 X130.749 Y109.182 E1.19722
G1 X130.488 Y108.697 E1.22012
G1 X130.192 Y108.196 E1.24431
G1 X129.863 Y107.684 E1.26961
G1 X129.569 Y107.262 E1.291
G1 X129.219 Y106.799 E1.31513
G1 X128.861 Y106.36 E1.33868
G1 X128.493 Y105.945 E1.36174
G1 X128.093 Y105.523 E1.38591
G1 X127.699 Y105.137 E1.40884
G1 X127.275 Y104.758 E1.43249
G1 X126.894 Y104.438 E1.45317
G1 X126.354 Y104.017 E1.48164
G1 X125.931 Y103.716 E1.50323
G1 X125.445 Y103.397 E1.52739
G1 X124.932 Y103.085 E1.55236
G1 X124.43 Y102.811 E1.57613
G1 X123.969 Y102.578 E1.59761
G1 X123.415 Y102.325 E1.62293
G1 X122.919 Y102.121 E1.64523
G1 X122.348 Y101.911 E1.67052
G1 X121.82 Y101.74 E1.6936
G1 X121.267 Y101.584 E1.71748
G1 X120.541 Y101.421 E1.74842
G1 X120.534 Y101.41 E1.74896
G1 X120.143 Y101.337 E1.7655
G1 X119.596 Y101.248 E1.78854
G1 X119.024 Y101.178 E1.8125
G1 X118.472 Y101.132 E1.83553
G1 X117.897 Y101.105 E1.85946
G1 X117.413 Y101.101 E1.87958
G1 X116.784 Y101.118 E1.90574
G1 X116.211 Y101.157 E1.92962
G1 X115.65 Y101.215 E1.95307
G1 X115.1 Y101.296 E1.97618
G1 X114.547 Y101.396 E1.99954
G1 X113.993 Y101.52 E2.02315
G1 X113.432 Y101.667 E2.04726
G1 X112.929 Y101.82 E2.06912
G1 X112.391 Y102.004 E2.09276
G1 X111.864 Y102.207 E2.11624
G1 X111.214 Y102.496 E2.14581
G1 X111.193 Y102.49 E2.14672
G1 X110.291 Y102.961 E2.18902
G1 X109.811 Y103.238 E2.21206
G1 X109.354 Y103.526 E2.23452
G1 X108.861 Y103.862 E2.25933
G1 X108.395 Y104.207 E2.28343
G1 X107.954 Y104.561 E2.30694
G1 X107.534 Y104.926 E2.33008
G1 X107.11 Y105.321 E2.35417
G1 X106.647 Y105.789 E2.38154
G1 X106.335 Y106.136 E2.40094
G1 X105.961 Y106.574 E2.42489
G1 X105.611 Y107.021 E2.44849
G1 X105.284 Y107.469 E2.47155
G1 X104.962 Y107.952 E2.49568
G1 X104.693 Y108.387 E2.51695
G1 X104.387 Y108.928 E2.54279
G1 X104.169 Y109.35 E2.56253
G1 X104.151 Y109.359 E2.56337
G1 X103.772 Y110.185 E2.60115
G1 X103.396 Y111.218 E2.64686
G1 X103.384 Y111.222 E2.64738
G1 X103.124 Y112.084 E2.68482
G1 X102.987 Y112.63 E2.70822
G1 X102.88 Y113.134 E2.72964
G1 X102.773 Y113.746 E2.75547
G1 X102.715 Y114.171 E2.7733
G1 X102.702 Y114.182 E2.77401
G1 X102.645 Y114.857 E2.80218
G1 X102.611 Y115.44 E2.82645
G1 X102.601 Y116.005 E2.84995
G1 X102.611 Y116.559 E2.87298
G1 X102.645 Y117.136 E2.89702
G1 X102.717 Y117.848 E2.92677
G1 X102.707 Y117.861 E2.92745
G1 X102.839 Y118.639 E2.96026
G1 X102.827 Y118.655 E2.96109
G1 X102.986 Y119.366 E2.99138
G1 X103.124 Y119.918 E3.01503
G1 X103.287 Y120.469 E3.03892
G1 X103.467 Y121.007 E3.06251
G1 X103.666 Y121.532 E3.08585
G1 X103.885 Y122.054 E3.10939
G1 X104.169 Y122.66 E3.13721
G1 X104.386 Y123.07 E3.1565
G1 X104.67 Y123.573 E3.18051
G1 X104.963 Y124.049 E3.20375
G1 X105.284 Y124.531 E3.22783
G1 X105.612 Y124.979 E3.25091
G1 X105.962 Y125.426 E3.27452
G1 X106.336 Y125.864 E3.29846
G1 X106.648 Y126.211 E3.31786
G1 X107.111 Y126.679 E3.34523
G1 X107.535 Y127.075 E3.36935
G1 X107.955 Y127.439 E3.39246
G1 X108.403 Y127.799 E3.41635
G1 X108.858 Y128.138 E3.43994
G1 X109.32 Y128.452 E3.46317
G1 X109.807 Y128.759 E3.4871
G1 X110.298 Y129.043 E3.51068
G1 X110.792 Y129.305 E3.53393
G1 X111.315 Y129.554 E3.55801
G1 X111.826 Y129.776 E3.58118
G1 X112.366 Y129.986 E3.60526
G1 X112.89 Y130.168 E3.62833
G1 X113.433 Y130.333 E3.65192
G1 X113.994 Y130.48 E3.67603
G1 X114.549 Y130.604 E3.69968
G1 X115.097 Y130.704 E3.72284
G1 X115.638 Y130.782 E3.74556
G1 X116.213 Y130.844 E3.7696
G1 X116.789 Y130.882 E3.7936
G1 X117.352 Y130.898 E3.81702
G1 X117.907 Y130.893 E3.84009
G1 X118.483 Y130.866 E3.86407
G1 X119.195 Y130.8 E3.8938
G0 F6000 X119.232 Y131.198
;TYPE:WALL-OUTER
G1 F1200 X119.246 Y131.21 E3.89456
G1 X120.231 Y131.053 E3.93603
G1 X120.809 Y130.936 E3.96055
G1 X121.364 Y130.802 E3.98429
G1 X121.936 Y130.641 E4.00899
G1 X122.485 Y130.462 E4.033
G1 X123.032 Y130.264 E4.05719
G1 X123.346 Y130.133 E4.07133
G1 X123.358 Y130.141 E4.07193
G1 X124.108 Y129.799 E4.1062
G1 X124.617 Y129.542 E4.12991
G1 X125.14 Y129.255 E4.15471
G1 X125.637 Y128.955 E4.17884
G1 X126.16 Y128.612 E4.20485
G1 X126.589 Y128.306 E4.22676
G1 X127.093 Y127.916 E4.25325
G1 X127.508 Y127.571 E4.27569
G1 X127.942 Y127.181 E4.29995
G1 X128.35 Y126.785 E4.32358
G1 X128.789 Y126.323 E4.35008
G1 X129.143 Y125.923 E4.37229
G1 X129.518 Y125.468 E4.3968
G1 X129.896 Y124.969 E4.42283
G1 X130.196 Y124.537 E4.44469
G1 X130.54 Y124.002 E4.47114
G1 X130.837 Y123.498 E4.49546
G1 X131.087 Y123.033 E4.51741
G1 X131.367 Y122.463 E4.54381
G1 X131.603 Y121.929 E4.56808
G1 X131.806 Y121.426 E4.59064
G1 X132.002 Y120.878 E4.61483
G1 X132.173 Y120.334 E4.63854
G1 X132.342 Y119.72 E4.66502
G1 X132.462 Y119.195 E4.68741
G1 X132.573 Y118.621 E4.71171
G1 X132.668 Y118.005 E4.73763
G1 X132.727 Y117.479 E4.75963
G1 X132.777 Y116.845 E4.78607
G1 X132.797 Y116.305 E4.80854
G1 X132.797 Y115.723 E4.83273
G1 X132.776 Y115.154 E4.85641
G1 X132.73 Y114.56 E4.88118
G1 X132.665 Y113.981 E4.9054
G1 X132.577 Y113.405 E4.92963
G1 X132.468 Y112.833 E4.95383
G1 X132.336 Y112.264 E4.97812
G1 X132.184 Y111.703 E5.00228
G1 X131.921 Y110.863 E5.03888
G1 X131.602 Y110.069 E5.07445
G1 X131.36 Y109.525 E5.09921
G1 X131.105 Y109 E5.12347
G1 X130.836 Y108.501 E5.14704
G1 X130.533 Y107.986 E5.17188
G1 X130.195 Y107.461 E5.19784
G1 X129.893 Y107.027 E5.21982
G1 X129.534 Y106.552 E5.24458
G1 X129.166 Y106.101 E5.26878
G1 X128.788 Y105.675 E5.29246
G1 X128.378 Y105.243 E5.31722
G1 X127.973 Y104.845 E5.34083
G1 X127.537 Y104.456 E5.36512
G1 X127.146 Y104.127 E5.38636
G1 X126.593 Y103.696 E5.41551
G1 X126.157 Y103.386 E5.43775
G1 X125.659 Y103.059 E5.46252
G1 X125.132 Y102.739 E5.48816
G1 X124.616 Y102.457 E5.5126
G1 X124.142 Y102.218 E5.53467
G1 X123.575 Y101.958 E5.56061
G1 X123.064 Y101.748 E5.58358
G1 X122.478 Y101.533 E5.60953
G1 X121.936 Y101.357 E5.63322
G1 X121.365 Y101.196 E5.65788
G1 X120.638 Y101.033 E5.68886
G1 X120.631 Y101.021 E5.68944
G1 X120.212 Y100.943 E5.70716
G1 X119.652 Y100.852 E5.73074
G1 X119.065 Y100.78 E5.75533
G1 X118.498 Y100.733 E5.77899
G1 X117.909 Y100.705 E5.8035
G1 X117.409 Y100.701 E5.82429
G1 X116.765 Y100.718 E5.85107
G1 X116.177 Y100.759 E5.87558
G1 X115.6 Y100.818 E5.89969
G1 X115.035 Y100.901 E5.92344
G1 X114.468 Y101.004 E5.94739
G1 X113.899 Y101.131 E5.97163
G1 X113.323 Y101.282 E5.99639
G1 X112.806 Y101.439 E6.01885
G1 X112.254 Y101.628 E6.04311
G1 X111.711 Y101.837 E6.0673
G1 X111.052 Y102.13 E6.09728
G1 X111.03 Y102.124 E6.09823
G1 X110.098 Y102.611 E6.14195
G1 X109.605 Y102.896 E6.16563
G1 X109.135 Y103.191 E6.1887
G1 X108.629 Y103.536 E6.21416
G1 X108.151 Y103.89 E6.23889
G1 X107.698 Y104.254 E6.26305
G1 X107.266 Y104.628 E6.2868
G1 X106.832 Y105.034 E6.31151
G1 X106.356 Y105.514 E6.33962
G1 X106.034 Y105.872 E6.35964
G1 X105.651 Y106.321 E6.38417
G1 X105.292 Y106.779 E6.40837
G1 X104.956 Y107.24 E6.43208
G1 X104.625 Y107.736 E6.45687
G1 X104.349 Y108.183 E6.47871
G1 X104.035 Y108.738 E6.50523
G1 X103.815 Y109.165 E6.5252
G1 X103.796 Y109.174 E6.52607
G1 X103.402 Y110.033 E6.56536
G1 X103.02 Y111.081 E6.61174
G1 X103.007 Y111.086 E6.61231
G1 X102.738 Y111.978 E6.65105
G1 X102.597 Y112.54 E6.67514
G1 X102.487 Y113.058 E6.69716
G1 X102.377 Y113.685 E6.72362
G1 X102.319 Y114.117 E6.74174
G1 X102.305 Y114.128 E6.74248
G1 X102.246 Y114.829 E6.77173
G1 X102.211 Y115.424 E6.79651
G1 X102.201 Y116.005 E6.82067
G1 X102.211 Y116.575 E6.84437
G1 X102.246 Y117.168 E6.86907
G1 X102.319 Y117.888 E6.89915
G1 X102.308 Y117.902 E6.89989
G1 X102.445 Y118.706 E6.9338
G1 X102.432 Y118.722 E6.93466
G1 X102.597 Y119.458 E6.96602
G1 X102.738 Y120.023 E6.99023
G1 X102.905 Y120.589 E7.01476
G1 X103.09 Y121.141 E7.03897
G1 X103.294 Y121.68 E7.06293
G1 X103.519 Y122.216 E7.0871
G1 X103.811 Y122.838 E7.11566
G1 X104.035 Y123.262 E7.1356
G1 X104.325 Y123.776 E7.16014
G1 X104.626 Y124.265 E7.18401
G1 X104.956 Y124.76 E7.20874
G1 X105.293 Y125.221 E7.23248
G1 X105.652 Y125.679 E7.25668
G1 X106.035 Y126.128 E7.28121
G1 X106.357 Y126.486 E7.30123
G1 X106.833 Y126.966 E7.32934
G1 X107.267 Y127.372 E7.35405
G1 X107.699 Y127.746 E7.3778
G1 X108.158 Y128.115 E7.40229
G1 X108.626 Y128.464 E7.42656
G1 X109.101 Y128.787 E7.45044
G1 X109.601 Y129.101 E7.47499
G1 X110.104 Y129.393 E7.49917
G1 X110.612 Y129.662 E7.52307
G1 X111.149 Y129.918 E7.5478
G1 X111.674 Y130.146 E7.5716
G1 X112.228 Y130.362 E7.59632
G1 X112.766 Y130.548 E7.61998
G1 X113.324 Y130.718 E7.64424
G1 X113.9 Y130.869 E7.66899
G1 X114.469 Y130.996 E7.69323
G1 X115.033 Y131.099 E7.71707
G1 X115.588 Y131.179 E7.74038
G1 X116.179 Y131.242 E7.76509
G1 X116.77 Y131.282 E7.78972
G1 X117.348 Y131.298 E7.81376
G1 X117.919 Y131.293 E7.8375
G1 X118.511 Y131.265 E7.86214
G1 X119.232 Y131.198 E7.89224
G0 F6000 X119.164 Y130.702
G0 X120.505 Y130.487
G0 X120.453 Y130.224
;TYPE:SKIN
G1 F1200 X120.086 Y130.305 E7.90787
G1 X119.173 Y130.451 E7.94631
G1 X119.149 Y130.443 E7.94736
G1 X118.465 Y130.505 E7.97591
G1 X117.89 Y130.533 E7.99985
G1 X117.36 Y130.537 E8.02188
G1 X116.813 Y130.522 E8.04463
G1 X116.24 Y130.483 E8.06851
G1 X115.676 Y130.424 E8.09209
G1 X115.155 Y130.348 E8.11398
G1 X114.628 Y130.252 E8.13625
G1 X114.086 Y130.131 E8.15934
G1 X113.526 Y129.984 E8.18341
G1 X112.996 Y129.823 E8.20644
G1 X112.497 Y129.651 E8.22838
G1 X111.958 Y129.44 E8.25244
G1 X111.469 Y129.227 E8.27462
G1 X110.948 Y128.98 E8.29859
G1 X110.48 Y128.731 E8.32063
G1 X109.989 Y128.445 E8.34425
G1 X109.523 Y128.152 E8.36714
G1 X109.061 Y127.84 E8.39032
G1 X108.624 Y127.514 E8.41298
G1 X108.18 Y127.157 E8.43667
G1 X107.776 Y126.806 E8.45892
G1 X107.359 Y126.416 E8.48266
G1 X106.916 Y125.97 E8.50879
G1 X106.606 Y125.624 E8.52811
G1 X106.238 Y125.192 E8.5517
G1 X105.896 Y124.757 E8.57471
G1 X105.582 Y124.329 E8.59678
G1 X105.262 Y123.849 E8.62076
G1 X104.978 Y123.384 E8.64341
G1 X104.487 Y122.491 E8.68578
G1 X104.21 Y121.901 E8.71288
G1 X103.998 Y121.393 E8.73577
G1 X103.809 Y120.892 E8.75803
G1 X103.63 Y120.355 E8.78156
G1 X103.469 Y119.816 E8.80495
G1 X103.336 Y119.279 E8.82795
G1 X103.184 Y118.598 E8.85696
G1 X103.192 Y118.559 E8.85861
G1 X103.067 Y117.818 E8.88986
G1 X103.074 Y117.79 E8.89106
G1 X103.005 Y117.113 E8.91935
G1 X102.971 Y116.539 E8.94325
G1 X102.962 Y116.01 E8.96525
G1 X102.971 Y115.459 E8.98816
G1 X102.99 Y115.057 E9.00489
G1 X103.058 Y114.233 E9.03927
G1 X103.074 Y114.204 E9.04064
G1 X103.127 Y113.81 E9.05717
G1 X103.233 Y113.202 E9.08283
G1 X103.336 Y112.717 E9.10345
G1 X103.469 Y112.189 E9.12608
G1 X103.726 Y111.336 E9.16312
G1 X103.741 Y111.322 E9.16397
G1 X104.104 Y110.328 E9.20797
G1 X104.472 Y109.528 E9.24458
G1 X104.497 Y109.503 E9.24605
G1 X104.702 Y109.105 E9.26466
G1 X105.002 Y108.575 E9.28998
G1 X105.261 Y108.152 E9.3106
G1 X105.582 Y107.671 E9.33465
G1 X105.895 Y107.243 E9.35669
G1 X106.237 Y106.808 E9.3797
G1 X106.605 Y106.376 E9.40329
G1 X106.915 Y106.03 E9.4226
G1 X107.358 Y105.584 E9.44874
G1 X107.775 Y105.194 E9.47248
G1 X108.179 Y104.843 E9.49473
G1 X108.61 Y104.497 E9.5177
G1 X109.075 Y104.153 E9.54175
G1 X109.547 Y103.832 E9.56548
G1 X110.361 Y103.321 E9.60544
G1 X110.384 Y103.326 E9.60642
G1 X111.332 Y102.824 E9.65102
G1 X111.37 Y102.82 E9.65261
G1 X111.997 Y102.543 E9.68111
G1 X112.521 Y102.34 E9.70447
G1 X113.036 Y102.165 E9.72708
G1 X113.524 Y102.016 E9.7483
G1 X114.085 Y101.869 E9.77241
G1 X114.626 Y101.748 E9.79545
G1 X115.153 Y101.652 E9.81773
G1 X115.687 Y101.573 E9.84017
G1 X116.236 Y101.518 E9.86311
G1 X116.808 Y101.478 E9.88695
G1 X117.421 Y101.462 E9.91244
G1 X118.261 Y101.47 E9.94736
G1 X118.274 Y101.484 E9.94816
G1 X118.982 Y101.537 E9.97768
G1 X119.544 Y101.605 E10.00121
G1 X120.451 Y101.76 E10.03947
G1 X120.473 Y101.776 E10.0406
G1 X121.17 Y101.931 E10.07028
G1 X121.722 Y102.087 E10.09413
G1 X122.223 Y102.25 E10.11604
G1 X122.782 Y102.455 E10.14079
G1 X123.265 Y102.652 E10.16248
G1 X123.817 Y102.907 E10.18776
G1 X124.258 Y103.129 E10.20828
G1 X124.745 Y103.394 E10.23133
G1 X125.256 Y103.705 E10.25621
G1 X125.722 Y104.009 E10.27934
G1 X126.137 Y104.305 E10.30053
G1 X126.667 Y104.718 E10.32846
G1 X127.034 Y105.027 E10.34841
G1 X127.452 Y105.4 E10.3717
G1 X127.831 Y105.774 E10.39384
G1 X128.23 Y106.194 E10.41792
G1 X128.581 Y106.588 E10.43986
G1 X128.931 Y107.016 E10.46285
G1 X129.28 Y107.478 E10.48692
G1 X129.559 Y107.879 E10.50723
G1 X129.882 Y108.38 E10.53201
G1 X130.177 Y108.881 E10.55619
G1 X130.546 Y109.562 E10.58839
G1 X130.536 Y109.58 E10.58924
G1 X130.905 Y110.372 E10.62557
G1 X131.209 Y111.13 E10.65952
G1 X131.452 Y111.91 E10.69349
G1 X131.597 Y112.443 E10.71645
G1 X131.723 Y112.985 E10.73959
G1 X131.826 Y113.528 E10.76257
G1 X131.91 Y114.077 E10.78566
G1 X131.972 Y114.627 E10.80867
G1 X132.017 Y115.205 E10.83277
G1 X132.037 Y115.731 E10.85466
G1 X132.037 Y116.285 E10.87769
G1 X132.018 Y116.808 E10.89945
G1 X131.971 Y117.399 E10.9241
G1 X131.915 Y117.898 E10.94497
G1 X131.824 Y118.485 E10.96967
G1 X131.719 Y119.031 E10.99278
G1 X131.606 Y119.527 E11.01393
G1 X131.442 Y120.124 E11.03967
G1 X131.284 Y120.629 E11.06167
G1 X131.097 Y121.148 E11.08461
G1 X130.904 Y121.627 E11.10608
G1 X130.677 Y122.14 E11.1294
G1 X130.411 Y122.685 E11.15461
G1 X130.178 Y123.119 E11.17509
G1 X129.895 Y123.597 E11.19819
G1 X129.562 Y124.114 E11.22376
G1 X129.18 Y124.665 E11.25163
G1 X129.165 Y124.667 E11.25226
G1 X128.98 Y124.925 E11.26546
G1 X128.568 Y125.424 E11.29236
G1 X128.231 Y125.804 E11.31348
G1 X127.804 Y126.254 E11.33927
G1 X127.427 Y126.62 E11.36111
G1 X127.014 Y126.991 E11.3842
G1 X126.622 Y127.318 E11.40542
G1 X126.13 Y127.698 E11.43126
G1 X125.737 Y127.981 E11.4514
G1 X125.237 Y128.308 E11.47624
G1 X124.767 Y128.592 E11.49907
G1 X124.259 Y128.871 E11.52316
G1 X123.783 Y129.111 E11.54533
G1 X123.068 Y129.437 E11.578
G1 X123.046 Y129.434 E11.57892
G1 X122.752 Y129.557 E11.59217
G1 X122.242 Y129.741 E11.61471
G1 X121.722 Y129.911 E11.63746
G1 X121.165 Y130.067 E11.6615
G1 X120.469 Y130.237 E11.69129
G1 X120.453 Y130.224 E11.69215
G0 F6000 X120.505 Y130.487
G0 X118.471 Y130.705
G0 X116.798 Y130.721
G0 X115.123 Y130.546
G0 X113.478 Y130.179
G0 X111.887 Y129.627
G0 X110.376 Y128.902
G0 X108.162 Y127.475
G0 X108.451 Y127.118
G1 F1200 X106.376 Y125.044 E11.81412
G0 F6000 X106.014 Y125.329
G0 X104.71 Y123.44
G0 X105.112 Y123.214
G1 F1200 X110.279 Y128.381 E12.11792
G0 F6000 X110.046 Y128.78
