;FLAVOR:Marlin
;TIME:6087
;Filament used: 3.57994m
;Layer height: 0.2
;MINX:93.728
;MINY:93.7
;MINZ:0.25
;MAXX:142.161
;MAXY:141.955
;MAXZ:17.85
;Generated with Cura_SteamEngine 5.3.0
M140 S85
M105
M190 S85
M104 S240
M105
M109 S240
M82 ;absolute extrusion mode
START_PRINT
G92 E0
G92 E0
G1 F1500 E-8
;LAYER_COUNT:89
;LAYER:0
M107
G0 F6000 X102.518 Y102.348 Z0.25
;TYPE:SKIRT
G1 F1500 E0
G1 F1200 X103.099 Y101.792 E0.03343
G1 X103.7 Y101.262 E0.06675
G1 X104.317 Y100.759 E0.09984
G1 X104.954 Y100.274 E0.13313
G1 X105.608 Y99.814 E0.16637
G1 X106.308 Y99.362 E0.20102
G1 X106.997 Y98.955 E0.23428
G1 X107.699 Y98.573 E0.26751
G1 X108.413 Y98.218 E0.30066
G1 X109.1 Y97.908 E0.332
G1 X109.885 Y97.589 E0.36723
G1 X110.643 Y97.315 E0.40074
G1 X111.43 Y97.065 E0.43507
G1 X112.171 Y96.858 E0.46705
G1 X112.946 Y96.673 E0.50018
G1 X113.729 Y96.515 E0.53339
G1 X114.524 Y96.387 E0.56687
G1 X115.379 Y96.283 E0.60268
G1 X116.143 Y96.218 E0.63455
G1 X116.943 Y96.182 E0.66785
G1 X117.743 Y96.175 E0.70111
G1 X118.544 Y96.199 E0.73443
G1 X119.369 Y96.255 E0.7688
G1 X120.135 Y96.335 E0.80082
G1 X120.927 Y96.447 E0.83408
G1 X121.714 Y96.59 E0.86734
G1 X122.495 Y96.762 E0.90058
G1 X123.271 Y96.963 E0.93391
G1 X124.035 Y97.192 E0.96707
G1 X124.792 Y97.45 E1.00032
G1 X125.543 Y97.737 E1.03375
G1 X126.304 Y98.065 E1.0682
G1 X127.028 Y98.408 E1.10151
G1 X127.725 Y98.771 E1.13418
G1 X128.431 Y99.174 E1.16798
G1 X129.11 Y99.596 E1.20121
G1 X129.774 Y100.043 E1.23449
G1 X130.412 Y100.509 E1.26734
G1 X131.037 Y101 E1.30038
G1 X131.656 Y101.528 E1.33421
G1 X132.244 Y102.069 E1.36743
G1 X132.813 Y102.631 E1.40068
G1 X133.361 Y103.217 E1.43403
G1 X133.903 Y103.843 E1.46846
G1 X134.41 Y104.471 E1.50201
G1 X134.883 Y105.113 E1.53517
G1 X135.331 Y105.768 E1.56816
G1 X135.763 Y106.447 E1.60162
G1 X136.162 Y107.136 E1.63472
G1 X136.54 Y107.846 E1.66816
G1 X136.887 Y108.563 E1.70128
G1 X137.21 Y109.298 E1.73466
G1 X137.501 Y110.038 E1.76772
G1 X137.769 Y110.797 E1.80118
G1 X138.014 Y111.589 E1.83565
G1 X138.215 Y112.332 E1.86765
G1 X138.4 Y113.142 E1.90219
G1 X138.548 Y113.927 E1.9354
G1 X138.67 Y114.72 E1.96876
G1 X138.757 Y115.51 E2.0018
G1 X138.818 Y116.311 E2.0352
G1 X138.846 Y117.107 E2.06832
G1 X138.847 Y117.912 E2.10178
G1 X138.813 Y118.738 E2.13615
G1 X138.757 Y119.502 E2.168
G1 X138.673 Y120.254 E2.19946
G1 X138.545 Y121.091 E2.23466
G1 X138.389 Y121.908 E2.26924
G1 X138.209 Y122.688 E2.30253
G1 X138.001 Y123.462 E2.33585
G1 X137.762 Y124.228 E2.36921
G1 X137.495 Y124.975 E2.40219
G1 X137.201 Y125.725 E2.43568
G1 X136.879 Y126.453 E2.46877
G1 X136.53 Y127.175 E2.50211
G1 X136.154 Y127.876 E2.53519
G1 X135.752 Y128.571 E2.56857
G1 X135.324 Y129.245 E2.60176
G1 X134.873 Y129.902 E2.63489
G1 X134.404 Y130.536 E2.66768
G1 X133.894 Y131.169 E2.70148
G1 X133.381 Y131.762 E2.73407
G1 X132.81 Y132.373 E2.76884
G1 X132.231 Y132.944 E2.80265
G1 X131.643 Y133.483 E2.83581
G1 X131.033 Y134.003 E2.86914
G1 X130.404 Y134.498 E2.90242
G1 X129.757 Y134.969 E2.93569
G1 X129.094 Y135.415 E2.96891
G1 X128.412 Y135.838 E3.00227
G1 X127.72 Y136.231 E3.03536
G1 X126.994 Y136.609 E3.06939
G1 X126.3 Y136.937 E3.1013
G1 X125.552 Y137.257 E3.13513
G1 X124.807 Y137.543 E3.16831
G1 X124.017 Y137.814 E3.20303
G1 X123.249 Y138.043 E3.23635
G1 X122.477 Y138.243 E3.2695
G1 X121.695 Y138.415 E3.30279
G1 X120.923 Y138.553 E3.3354
G1 X120.116 Y138.668 E3.36929
G1 X119.319 Y138.75 E3.4026
G1 X118.521 Y138.802 E3.43584
G1 X117.69 Y138.824 E3.47041
G1 X116.892 Y138.817 E3.50358
G1 X116.125 Y138.78 E3.53551
G1 X115.33 Y138.712 E3.56868
G1 X114.505 Y138.612 E3.60323
G1 X113.714 Y138.481 E3.63657
G1 X112.928 Y138.324 E3.66989
G1 X112.147 Y138.137 E3.70328
G1 X111.379 Y137.921 E3.73645
G1 X110.621 Y137.676 E3.76957
G1 X109.866 Y137.404 E3.80293
G1 X109.136 Y137.107 E3.8357
G1 X108.399 Y136.772 E3.86935
G1 X107.682 Y136.417 E3.90262
G1 X106.978 Y136.035 E3.93592
G1 X106.294 Y135.627 E3.96903
G1 X105.616 Y135.191 E4.00254
G1 X104.937 Y134.714 E4.03704
G1 X104.299 Y134.229 E4.07036
G1 X103.683 Y133.723 E4.1035
G1 X103.084 Y133.192 E4.13678
G1 X102.503 Y132.636 E4.17022
G1 X101.95 Y132.066 E4.20323
G1 X101.413 Y131.47 E4.23659
G1 X100.902 Y130.858 E4.26974
G1 X100.413 Y130.225 E4.30299
G1 X99.946 Y129.574 E4.3363
G1 X99.505 Y128.905 E4.36961
G1 X99.093 Y128.225 E4.40267
G1 X98.704 Y127.525 E4.43596
G1 X98.326 Y126.782 E4.47062
G1 X97.991 Y126.053 E4.50398
G1 X97.687 Y125.321 E4.53693
G1 X97.403 Y124.566 E4.57047
G1 X97.154 Y123.808 E4.60364
G1 X96.932 Y123.042 E4.63679
G1 X96.739 Y122.264 E4.67012
G1 X96.575 Y121.482 E4.70334
G1 X96.442 Y120.695 E4.73652
G1 X96.336 Y119.902 E4.76978
G1 X96.261 Y119.103 E4.80315
G1 X96.214 Y118.273 E4.83771
G1 X96.2 Y117.475 E4.87089
G1 X96.216 Y116.673 E4.90424
G1 X96.262 Y115.875 E4.93748
G1 X96.338 Y115.079 E4.97072
G1 X96.444 Y114.286 E5.00398
G1 X96.578 Y113.499 E5.03717
G1 X96.743 Y112.715 E5.07048
G1 X96.938 Y111.942 E5.10363
G1 X97.16 Y111.17 E5.13702
G1 X97.411 Y110.415 E5.1701
G1 X97.692 Y109.663 E5.20348
G1 X97.999 Y108.925 E5.23671
G1 X98.33 Y108.205 E5.26965
G1 X98.695 Y107.487 E5.30314
G1 X99.094 Y106.77 E5.33726
G1 X99.517 Y106.078 E5.37097
G1 X99.959 Y105.408 E5.40435
G1 X100.424 Y104.76 E5.4375
G1 X100.913 Y104.128 E5.47073
G1 X101.427 Y103.512 E5.50408
G1 X101.962 Y102.919 E5.53729
G1 X102.518 Y102.348 E5.57042
G0 F6000 X102.795 Y102.637
G1 F1200 X103.364 Y102.092 E5.60318
G1 X103.953 Y101.572 E5.63584
G1 X104.559 Y101.077 E5.66838
G1 X105.184 Y100.601 E5.70104
G1 X105.825 Y100.15 E5.73362
G1 X106.512 Y99.706 E5.76763
G1 X107.188 Y99.306 E5.80029
G1 X107.877 Y98.931 E5.8329
G1 X108.578 Y98.583 E5.86544
G1 X109.265 Y98.273 E5.89677
G1 X110.021 Y97.965 E5.93071
G1 X110.764 Y97.696 E5.96357
G1 X111.538 Y97.45 E5.99733
G1 X112.264 Y97.247 E6.02867
G1 X113.025 Y97.065 E6.0612
G1 X113.793 Y96.91 E6.09378
G1 X114.572 Y96.784 E6.12658
G1 X115.413 Y96.682 E6.16181
G1 X116.161 Y96.618 E6.19302
G1 X116.947 Y96.582 E6.22573
G1 X117.731 Y96.575 E6.25833
G1 X118.517 Y96.598 E6.29102
G1 X119.328 Y96.653 E6.32481
G1 X120.079 Y96.731 E6.3562
G1 X120.856 Y96.841 E6.38883
G1 X121.628 Y96.981 E6.42145
G1 X122.395 Y97.149 E6.45409
G1 X123.156 Y97.346 E6.48678
G1 X123.906 Y97.571 E6.51933
G1 X124.649 Y97.824 E6.55196
G1 X125.4 Y98.111 E6.58539
G1 X126.133 Y98.427 E6.61857
G1 X126.843 Y98.763 E6.65123
G1 X127.54 Y99.126 E6.6839
G1 X128.22 Y99.514 E6.71645
G1 X128.887 Y99.928 E6.74909
G1 X129.538 Y100.366 E6.78171
G1 X130.165 Y100.823 E6.81397
G1 X130.777 Y101.304 E6.84633
G1 X131.385 Y101.823 E6.87956
G1 X131.963 Y102.354 E6.9122
G1 X132.521 Y102.905 E6.9448
G1 X133.059 Y103.479 E6.97751
G1 X133.592 Y104.095 E7.01137
G1 X134.088 Y104.708 E7.04416
G1 X134.553 Y105.339 E7.07674
G1 X134.994 Y105.983 E7.1092
G1 X135.417 Y106.647 E7.14193
G1 X135.809 Y107.324 E7.17445
G1 X136.18 Y108.02 E7.20724
G1 X136.521 Y108.724 E7.23976
G1 X136.838 Y109.445 E7.27251
G1 X137.124 Y110.171 E7.30495
G1 X137.387 Y110.915 E7.33776
G1 X137.628 Y111.694 E7.37166
G1 X137.825 Y112.421 E7.40297
G1 X138.007 Y113.216 E7.43688
G1 X138.153 Y113.988 E7.46955
G1 X138.272 Y114.764 E7.50219
G1 X138.358 Y115.541 E7.53469
G1 X138.418 Y116.325 E7.56738
G1 X138.446 Y117.108 E7.59995
G1 X138.447 Y117.896 E7.63271
G1 X138.414 Y118.709 E7.66654
G1 X138.359 Y119.458 E7.69776
G1 X138.275 Y120.21 E7.72922
G1 X138.152 Y121.016 E7.76312
G1 X137.999 Y121.818 E7.79707
G1 X137.823 Y122.584 E7.82974
G1 X137.619 Y123.343 E7.86242
G1 X137.385 Y124.094 E7.89512
G1 X137.123 Y124.829 E7.92756
G1 X136.835 Y125.563 E7.96034
G1 X136.519 Y126.279 E7.99288
G1 X136.177 Y126.986 E8.02553
G1 X135.808 Y127.676 E8.05806
G1 X135.414 Y128.357 E8.09077
G1 X134.994 Y129.019 E8.12337
G1 X134.551 Y129.664 E8.1559
G1 X134.082 Y130.298 E8.18869
G1 X133.591 Y130.907 E8.22121
G1 X133.078 Y131.5 E8.25381
G1 X132.529 Y132.088 E8.28726
G1 X131.961 Y132.649 E8.32045
G1 X131.383 Y133.179 E8.35305
G1 X130.785 Y133.689 E8.38573
G1 X130.168 Y134.175 E8.41838
G1 X129.534 Y134.637 E8.45099
G1 X128.883 Y135.075 E8.48362
G1 X128.215 Y135.49 E8.51631
G1 X127.535 Y135.876 E8.54882
G1 X126.823 Y136.247 E8.5822
G1 X126.142 Y136.569 E8.61352
G1 X125.408 Y136.884 E8.64672
G1 X124.677 Y137.165 E8.67928
G1 X123.902 Y137.431 E8.71335
G1 X123.149 Y137.656 E8.74602
G1 X122.391 Y137.852 E8.77857
G1 X121.624 Y138.021 E8.81123
G1 X120.867 Y138.157 E8.8432
G1 X120.075 Y138.27 E8.87646
G1 X119.293 Y138.351 E8.90915
G1 X118.51 Y138.402 E8.94177
G1 X117.694 Y138.424 E8.97571
G1 X116.911 Y138.417 E9.00826
G1 X116.159 Y138.381 E9.03957
G1 X115.378 Y138.315 E9.07215
G1 X114.57 Y138.217 E9.10599
G1 X113.792 Y138.089 E9.13877
G1 X113.021 Y137.935 E9.17146
G1 X112.255 Y137.752 E9.2042
G1 X111.502 Y137.54 E9.23672
G1 X110.757 Y137.3 E9.26927
G1 X110.017 Y137.033 E9.30197
G1 X109.287 Y136.736 E9.33474
G1 X108.576 Y136.414 E9.36719
G1 X107.873 Y136.066 E9.3998
G1 X107.183 Y135.691 E9.43245
G1 X106.51 Y135.29 E9.46502
G1 X105.846 Y134.864 E9.49782
G1 X105.179 Y134.396 E9.53169
G1 X104.553 Y133.92 E9.56439
G1 X103.948 Y133.423 E9.59694
G1 X103.36 Y132.903 E9.62958
G1 X102.79 Y132.358 E9.66236
G1 X102.247 Y131.798 E9.69479
G1 X101.72 Y131.214 E9.7275
G1 X101.218 Y130.613 E9.76005
G1 X100.738 Y129.992 E9.79269
G1 X100.28 Y129.354 E9.82534
G1 X99.847 Y128.698 E9.85802
G1 X99.442 Y128.03 E9.89049
G1 X99.06 Y127.344 E9.92314
G1 X98.689 Y126.615 E9.95715
G1 X98.36 Y125.9 E9.98987
G1 X98.061 Y125.18 E10.02228
G1 X97.783 Y124.441 E10.05511
G1 X97.538 Y123.697 E10.08767
G1 X97.32 Y122.945 E10.12022
G1 X97.13 Y122.182 E10.15292
G1 X96.969 Y121.415 E10.1855
G1 X96.838 Y120.642 E10.21809
G1 X96.734 Y119.864 E10.25073
G1 X96.66 Y119.08 E10.28347
G1 X96.614 Y118.266 E10.31736
G1 X96.6 Y117.483 E10.34992
G1 X96.615 Y116.696 E10.38265
G1 X96.66 Y115.913 E10.41525
G1 X96.734 Y115.132 E10.44787
G1 X96.838 Y114.353 E10.48054
G1 X96.97 Y113.581 E10.51311
G1 X97.131 Y112.812 E10.54577
G1 X97.322 Y112.052 E10.57835
G1 X97.539 Y111.296 E10.61105
G1 X97.786 Y110.555 E10.64352
G1 X98.061 Y109.817 E10.67627
G1 X98.363 Y109.092 E10.70892
G1 X98.687 Y108.386 E10.74122
G1 X99.045 Y107.682 E10.77405
G1 X99.444 Y106.965 E10.80817
G1 X99.851 Y106.298 E10.84065
G1 X100.284 Y105.641 E10.87337
G1 X100.74 Y105.005 E10.9059
G1 X101.22 Y104.384 E10.93853
G1 X101.724 Y103.78 E10.97124
G1 X102.249 Y103.198 E11.00382
G1 X102.795 Y102.637 E11.03637
G0 F6000 X103.072 Y102.926
G1 F1200 X103.629 Y102.392 E11.06845
G1 X104.206 Y101.882 E11.10047
G1 X104.801 Y101.395 E11.13244
G1 X105.414 Y100.928 E11.16447
G1 X106.042 Y100.486 E11.1964
G1 X106.716 Y100.05 E11.22978
G1 X107.379 Y99.657 E11.26182
G1 X108.054 Y99.289 E11.29378
G1 X108.743 Y98.948 E11.32574
G1 X109.43 Y98.638 E11.35708
G1 X110.158 Y98.341 E11.38977
G1 X110.885 Y98.077 E11.42192
G1 X111.646 Y97.835 E11.45512
G1 X112.357 Y97.636 E11.48582
G1 X113.104 Y97.457 E11.51775
G1 X113.857 Y97.305 E11.54969
G1 X114.62 Y97.181 E11.58183
G1 X115.447 Y97.081 E11.61646
G1 X116.18 Y97.018 E11.64705
G1 X116.951 Y96.982 E11.67914
G1 X117.72 Y96.975 E11.71111
G1 X118.49 Y96.997 E11.74314
G1 X119.287 Y97.051 E11.77635
G1 X120.023 Y97.127 E11.80711
G1 X120.785 Y97.235 E11.83911
G1 X121.543 Y97.372 E11.87113
G1 X122.295 Y97.536 E11.90313
G1 X123.041 Y97.729 E11.93517
G1 X123.777 Y97.95 E11.96712
G1 X124.506 Y98.198 E11.99913
G1 X125.257 Y98.485 E12.03256
G1 X125.962 Y98.788 E12.06446
G1 X126.658 Y99.118 E12.09648
G1 X127.342 Y99.474 E12.12854
G1 X128.009 Y99.854 E12.16046
G1 X128.664 Y100.26 E12.1925
G1 X129.302 Y100.689 E12.22446
G1 X129.918 Y101.138 E12.25615
G1 X130.517 Y101.608 E12.28781
G1 X131.115 Y102.118 E12.32048
G1 X131.682 Y102.638 E12.35247
G1 X132.229 Y103.179 E12.38445
G1 X132.757 Y103.741 E12.41651
G1 X133.281 Y104.346 E12.44979
G1 X133.766 Y104.946 E12.48186
G1 X134.223 Y105.565 E12.51385
G1 X134.657 Y106.198 E12.54576
G1 X135.071 Y106.848 E12.5778
G1 X135.456 Y107.512 E12.60971
G1 X135.82 Y108.194 E12.64185
G1 X136.155 Y108.885 E12.67378
G1 X136.466 Y109.591 E12.70585
G1 X136.747 Y110.305 E12.73775
G1 X137.005 Y111.033 E12.76986
G1 X137.242 Y111.799 E12.8032
G1 X137.435 Y112.51 E12.83383
G1 X137.614 Y113.291 E12.86714
G1 X137.758 Y114.048 E12.89918
G1 X137.874 Y114.808 E12.93114
G1 X137.959 Y115.572 E12.9631
G1 X138.018 Y116.34 E12.99513
G1 X138.046 Y117.109 E13.02712
G1 X138.047 Y117.88 E13.05917
G1 X138.015 Y118.68 E13.09246
G1 X137.961 Y119.414 E13.12306
G1 X137.877 Y120.166 E13.15452
G1 X137.759 Y120.941 E13.18711
G1 X137.609 Y121.729 E13.22046
G1 X137.437 Y122.48 E13.25249
G1 X137.237 Y123.224 E13.28452
G1 X137.008 Y123.96 E13.31657
G1 X136.751 Y124.683 E13.34847
G1 X136.469 Y125.402 E13.38058
G1 X136.159 Y126.105 E13.41252
G1 X135.824 Y126.798 E13.44452
G1 X135.462 Y127.476 E13.47648
G1 X135.076 Y128.143 E13.50851
G1 X134.664 Y128.793 E13.54051
G1 X134.23 Y129.426 E13.57242
G1 X133.77 Y130.047 E13.60455
G1 X133.289 Y130.645 E13.63645
G1 X132.785 Y131.227 E13.66846
G1 X132.248 Y131.803 E13.7012
G1 X131.69 Y132.354 E13.73381
G1 X131.123 Y132.875 E13.76582
G1 X130.537 Y133.375 E13.79785
G1 X129.932 Y133.852 E13.82988
G1 X129.311 Y134.305 E13.86183
G1 X128.672 Y134.735 E13.89386
G1 X128.018 Y135.142 E13.92588
G1 X127.35 Y135.521 E13.95781
G1 X126.652 Y135.885 E13.99054
G1 X125.971 Y136.207 E14.02186
G1 X125.264 Y136.511 E14.05385
G1 X124.547 Y136.787 E14.0858
G1 X123.787 Y137.048 E14.1192
G1 X123.049 Y137.269 E14.15123
G1 X122.305 Y137.461 E14.18318
G1 X121.553 Y137.627 E14.2152
G1 X120.796 Y137.763 E14.24717
G1 X120.033 Y137.872 E14.27922
G1 X119.267 Y137.952 E14.31124
G1 X118.499 Y138.002 E14.34323
G1 X117.698 Y138.024 E14.37655
G1 X116.93 Y138.017 E14.40848
G1 X116.192 Y137.982 E14.4392
G1 X115.426 Y137.918 E14.47115
G1 X114.635 Y137.822 E14.50428
G1 X113.87 Y137.697 E14.53651
G1 X113.114 Y137.546 E14.56856
G1 X112.363 Y137.367 E14.60066
G1 X111.624 Y137.159 E14.63257
G1 X110.893 Y136.924 E14.6645
G1 X110.167 Y136.662 E14.69659
G1 X109.452 Y136.372 E14.72866
G1 X108.753 Y136.056 E14.76056
G1 X108.064 Y135.715 E14.79252
G1 X107.387 Y135.347 E14.82456
G1 X106.726 Y134.954 E14.85653
G1 X106.076 Y134.536 E14.88866
G1 X105.421 Y134.077 E14.92191
G1 X104.807 Y133.611 E14.95396
G1 X104.213 Y133.123 E14.98592
G1 X103.636 Y132.614 E15.01791
G1 X103.077 Y132.08 E15.05005
G1 X102.544 Y131.53 E15.08189
G1 X102.027 Y130.958 E15.11394
G1 X101.534 Y130.368 E15.14591
G1 X101.063 Y129.759 E15.17792
G1 X100.614 Y129.134 E15.20991
G1 X100.189 Y128.49 E15.24199
G1 X99.791 Y127.835 E15.27386
G1 X99.416 Y127.163 E15.30585
G1 X99.052 Y126.448 E15.33921
G1 X98.729 Y125.747 E15.3713
G1 X98.435 Y125.039 E15.40317
G1 X98.163 Y124.316 E15.43528
G1 X97.922 Y123.586 E15.46724
G1 X97.708 Y122.848 E15.49919
G1 X97.521 Y122.1 E15.53125
G1 X97.363 Y121.348 E15.56319
G1 X97.234 Y120.589 E15.5952
G1 X97.132 Y119.826 E15.62721
G1 X97.059 Y119.058 E15.65928
G1 X97.014 Y118.259 E15.69255
G1 X97 Y117.49 E15.72453
G1 X97.014 Y116.719 E15.75659
G1 X97.058 Y115.95 E15.78861
G1 X97.13 Y115.185 E15.82056
G1 X97.232 Y114.42 E15.85264
G1 X97.361 Y113.663 E15.88457
G1 X97.519 Y112.909 E15.9166
G1 X97.706 Y112.163 E15.94857
G1 X97.919 Y111.422 E15.98063
G1 X98.161 Y110.694 E16.01252
G1 X98.43 Y109.971 E16.04459
G1 X98.726 Y109.259 E16.07665
G1 X99.044 Y108.567 E16.10831
G1 X99.395 Y107.876 E16.14054
G1 X99.786 Y107.173 E16.17398
G1 X100.185 Y106.518 E16.20587
G1 X100.609 Y105.874 E16.23792
G1 X101.057 Y105.249 E16.26989
G1 X101.527 Y104.64 E16.30188
G1 X102.021 Y104.048 E16.33393
G1 X102.536 Y103.477 E16.3659
G1 X103.072 Y102.926 E16.39786
G0 F6000 X103.349 Y103.215
G1 F1200 X103.894 Y102.692 E16.42926
G1 X104.46 Y102.191 E16.46069
G1 X105.043 Y101.713 E16.49203
G1 X105.644 Y101.255 E16.52345
G1 X106.26 Y100.822 E16.55475
G1 X106.92 Y100.394 E16.58746
G1 X107.57 Y100.008 E16.61889
G1 X108.231 Y99.648 E16.65018
G1 X108.908 Y99.313 E16.68158
G1 X109.595 Y99.003 E16.71292
G1 X110.295 Y98.717 E16.74436
G1 X111.006 Y98.458 E16.77582
G1 X111.754 Y98.22 E16.80845
G1 X112.45 Y98.025 E16.8385
G1 X113.183 Y97.849 E16.86984
G1 X113.922 Y97.7 E16.90118
G1 X114.668 Y97.578 E16.93261
G1 X115.481 Y97.48 E16.96666
G1 X116.199 Y97.418 E16.99662
G1 X116.955 Y97.382 E17.02808
G1 X117.709 Y97.375 E17.05943
