;FLAVOR:Marlin
;TIME:2508
;Filament used: 0.859784m
;Layer height: 0.2
;MINX:110.273
;MINY:110.219
;MINZ:0.25
;MAXX:124.727
;MAXY:124.78
;MAXZ:145.95
;Generated with Cura_SteamEngine 5.3.0
M140 S55
M105
M190 S55
M104 S212
M105
M109 S212
M82 ;absolute extrusion mode
START_PRINT
G92 E0
G92 E0
G1 F3000 E-6.5
;LAYER_COUNT:729
;LAYER:0
M107
;MESH:tulip vasemode stem.stl
G0 X119.342 Y124.083 Z0.25
;TYPE:WALL-OUTER
G1 F3000 E0
G1 F1200 X119.098 Y124.158 E0.01061
G1 X118.747 Y124.197 E0.0253
G1 X118.244 Y124.218 E0.04623
G1 X117.687 Y124.22 E0.06938
G1 X117.106 Y124.201 E0.09355
G1 X116.601 Y124.16 E0.11462
G1 X115.571 Y124.015 E0.15786
G1 X115.245 Y123.962 E0.17159
G1 X114.982 Y123.909 E0.18275
G1 X114.385 Y123.725 E0.20872
G1 X114.092 Y123.493 E0.22426
G1 X113.838 Y123.316 E0.23713
G1 X113.492 Y123.037 E0.25561
G1 X113.046 Y122.649 E0.28018
G1 X112.471 Y122.098 E0.31329
G1 X111.981 Y121.556 E0.34367
G1 X111.572 Y121.074 E0.36995
G1 X111.269 Y120.691 E0.39026
G1 X111.096 Y120.361 E0.40575
G1 X110.972 Y119.921 E0.42475
G1 X110.87 Y119.394 E0.44707
G1 X110.779 Y118.807 E0.47177
G1 X110.716 Y118.25 E0.49507
G1 X110.679 Y117.734 E0.51658
G1 X110.669 Y117.197 E0.53891
G1 X110.689 Y116.627 E0.56262
G1 X110.722 Y116.101 E0.58453
G1 X110.756 Y115.793 E0.59742
G1 X110.81 Y115.526 E0.60874
G1 X111.063 Y115.018 E0.63234
G1 X111.314 Y114.585 E0.65314
G1 X111.533 Y114.305 E0.66792
G1 X111.705 Y113.973 E0.68347
G1 X111.947 Y113.61 E0.70161
G1 X112.499 Y112.895 E0.73916
G1 X112.967 Y112.33 E0.76966
G1 X113.375 Y111.901 E0.79428
G1 X113.741 Y111.754 E0.81067
G1 X114.015 Y111.608 E0.82358
G1 X114.92 Y111.301 E0.86331
G1 X115.117 Y111.223 E0.87212
G1 X115.654 Y111.062 E0.89543
G1 X116.806 Y110.809 E0.94447
G1 X117.251 Y110.728 E0.96327
G1 X117.697 Y110.675 E0.98194
G1 X118.1 Y110.707 E0.99875
G1 X118.774 Y110.915 E1.02808
G1 X119.311 Y111.112 E1.05186
G1 X119.647 Y111.274 E1.06737
G1 X120.379 Y111.601 E1.1007
G1 X120.552 Y111.711 E1.10922
G1 X120.959 Y111.919 E1.12822
G1 X121.51 Y112.24 E1.15473
G1 X122.004 Y112.557 E1.17914
G1 X122.355 Y112.888 E1.1992
G1 X122.684 Y113.387 E1.22405
G1 X122.854 Y113.693 E1.2386
G1 X122.987 Y113.999 E1.25247
G1 X123.228 Y114.378 E1.27114
G1 X123.526 Y115.064 E1.30224
G1 X123.673 Y115.378 E1.31665
G1 X123.905 Y115.967 E1.34297
G1 X124.06 Y116.419 E1.36284
G1 X124.126 Y116.684 E1.37419
G1 X124.17 Y116.817 E1.38002
G1 X124.177 Y117.167 E1.39457
G1 X124.128 Y117.61 E1.4131
G1 X123.98 Y118.426 E1.44758
G1 X123.859 Y118.978 E1.47107
G1 X123.667 Y119.686 E1.50157
G1 X123.453 Y120.347 E1.53046
G1 X123.193 Y121.032 E1.56092
G1 X123.054 Y121.324 E1.57436
G1 X122.818 Y121.632 E1.5905
G1 X122.253 Y122.141 E1.62211
G1 X121.811 Y122.502 E1.64584
G1 X121.561 Y122.693 E1.65892
G1 X121.032 Y123.058 E1.68564
G1 X120.75 Y123.224 E1.69924
G1 X120.45 Y123.426 E1.71428
G1 X119.703 Y123.857 E1.75014
G1 X119.342 Y124.083 E1.76784
G0 F3000 X119.047 Y123.444
G0 X115.553 Y123.304
G0 X115.5 Y123.637
;TYPE:SKIN
G1 F1200 X115.075 Y123.559 E1.78581
G1 X114.557 Y123.399 E1.80835
G1 X114.304 Y123.2 E1.82173
G1 X114.045 Y123.019 E1.83487
G1 X113.718 Y122.756 E1.85231
G1 X113.288 Y122.383 E1.87598
G1 X112.734 Y121.851 E1.90791
G1 X112.251 Y121.315 E1.93791
G1 X111.875 Y120.873 E1.96204
G1 X111.57 Y120.491 E1.98236
G1 X111.435 Y120.232 E1.9945
G1 X111.32 Y119.823 E2.01217
G1 X111.225 Y119.327 E2.03316
G1 X111.135 Y118.752 E2.05736
G1 X111.076 Y118.223 E2.07949
G1 X111.039 Y117.708 E2.10095
G1 X111.03 Y117.21 E2.12166
G1 X111.049 Y116.649 E2.145
G1 X111.081 Y116.133 E2.16649
G1 X111.131 Y115.692 E2.18495
G1 X111.376 Y115.199 E2.20783
G1 X111.613 Y114.79 E2.22749
G1 X111.841 Y114.493 E2.24305
G1 X112.012 Y114.163 E2.25851
G1 X112.235 Y113.83 E2.27517
G1 X112.785 Y113.116 E2.31264
G1 X113.23 Y112.578 E2.34167
G1 X113.534 Y112.258 E2.36002
G1 X113.901 Y112.077 E2.37703
G1 X114.165 Y111.937 E2.38945
G1 X115.057 Y111.635 E2.42861
G1 X115.238 Y111.562 E2.43672
G1 X115.742 Y111.411 E2.45859
G1 X116.799 Y111.179 E2.50358
G1 X117.298 Y111.086 E2.52469
G1 X117.706 Y111.039 E2.54176
G1 X118.028 Y111.063 E2.55519
G1 X118.667 Y111.26 E2.58299
G1 X119.071 Y111.408 E2.60088
G1 X120.204 Y111.918 E2.65253
G1 X120.369 Y112.023 E2.66066
G1 X120.778 Y112.232 E2.67976
G1 X121.328 Y112.552 E2.70621
G1 X121.783 Y112.843 E2.72867
G1 X122.074 Y113.119 E2.74534
G1 X122.381 Y113.585 E2.76854
G1 X122.527 Y113.847 E2.78101
G1 X122.675 Y114.181 E2.7962
G1 X122.91 Y114.551 E2.81442
G1 X123.194 Y115.203 E2.84399
G1 X123.448 Y115.743 E2.8688
G1 X123.71 Y116.509 E2.90246
G1 X123.771 Y116.756 E2.91304
G1 X123.81 Y116.879 E2.9184
G1 X123.816 Y117.152 E2.92975
G1 X123.77 Y117.567 E2.94711
G1 X123.628 Y118.35 E2.9802
G1 X123.512 Y118.884 E3.00292
G1 X123.323 Y119.576 E3.03274
G1 X123.117 Y120.22 E3.06085
G1 X122.867 Y120.877 E3.09008
G1 X122.742 Y121.138 E3.10211
G1 X122.554 Y121.385 E3.11501
G1 X122.024 Y121.861 E3.14463
G1 X121.587 Y122.219 E3.16812
G1 X121.356 Y122.396 E3.18022
G1 X120.829 Y122.759 E3.20682
G1 X120.579 Y122.905 E3.21886
G1 X120.267 Y123.114 E3.23447
G1 X119.517 Y123.55 E3.27054
G1 X119.127 Y123.792 E3.28962
G1 X118.669 Y123.84 E3.30877
G1 X118.23 Y123.858 E3.32703
G1 X117.695 Y123.86 E3.34928
G1 X117.119 Y123.841 E3.37324
G1 X116.645 Y123.803 E3.39301
G1 X115.51 Y123.651 E3.44062
G1 X115.5 Y123.637 E3.44133
G0 F3000 X115.553 Y123.304
G0 X111.735 Y120.05
G0 X111.602 Y120.087
G1 F1200 X114.769 Y123.254 E3.62754
G0 F3000 X115.515 Y123.435
G1 F1200 X111.431 Y119.351 E3.86766
G0 F3000 X111.328 Y118.682
G1 F1200 X116.184 Y123.538 E4.15318
G0 F3000 X116.827 Y123.615
G1 F1200 X111.263 Y118.051 E4.48032
G0 F3000 X111.234 Y117.456
G1 F1200 X117.427 Y123.649 E4.84444
G0 F3000 X118 Y123.657
G1 F1200 X111.24 Y116.897 E5.2419
G0 F3000 X111.266 Y116.357
G1 F1200 X118.552 Y123.643 E5.67029
G0 F3000 X119.066 Y123.592
G1 F1200 X111.314 Y115.84 E6.12608
G0 F3000 X111.478 Y115.438
G1 F1200 X119.416 Y123.376 E6.59281
G0 F3000 X119.773 Y123.168
G1 F1200 X111.679 Y115.073 E7.06873
G0 F3000 X111.905 Y114.733
G1 F1200 X120.131 Y122.96 E7.55242
G0 F3000 X120.471 Y122.734
G1 F1200 X112.121 Y114.384 E8.04337
G0 F3000 X112.338 Y114.035
G1 F1200 X120.821 Y122.518 E8.54213
G0 F3000 X121.157 Y122.288
G1 F1200 X112.579 Y113.71 E9.04649
G0 F3000 X112.824 Y113.39
G1 F1200 X121.48 Y122.046 E9.55543
G0 F3000 X121.792 Y121.792
G1 F1200 X113.076 Y113.076 E10.06789
G0 F3000 X113.332 Y112.766
G1 F1200 X122.094 Y121.528 E10.58307
G0 F3000 X122.392 Y121.261
G1 F1200 X113.604 Y112.473 E11.09977
G0 F3000 X113.962 Y112.265
G1 F1200 X122.622 Y120.925 E11.60894
G0 F3000 X122.786 Y120.524
G1 F1200 X114.348 Y112.085 E12.10509
G0 F3000 X114.771 Y111.942
G1 F1200 X122.94 Y120.111 E12.5854
G0 F3000 X123.078 Y119.684
G1 F1200 X115.191 Y111.797 E13.04912
G0 F3000 X115.616 Y111.657
G1 F1200 X123.205 Y119.245 E13.4953
G0 F3000 X123.325 Y118.8
G1 F1200 X116.069 Y111.543 E13.92195
G0 F3000 X116.532 Y111.441
G1 F1200 X123.426 Y118.335 E14.32729
G0 F3000 X123.513 Y117.857
G1 F1200 X117.002 Y111.345 E14.71015
G0 F3000 X117.488 Y111.266
G1 F1200 X123.59 Y117.367 E15.06889
G0 F3000 X123.577 Y116.789
M104 S207
G1 F1200 X118.075 Y111.287 E15.39239
G0 F3000 X118.92 Y111.566
G1 F1200 X123.308 Y115.954 E15.65038
G0 F3000 X123.17 Y116.007
G0 X122.735 Y114.997
G0 X122.862 Y114.943
G1 F1200 X119.936 Y112.017 E15.82242
G0 F3000 X119.88 Y112.142
G0 X121.117 Y112.819
G0 X121.186 Y112.701
G1 F1200 X122.254 Y113.769 E15.88522
G0 F3000 X121.869 Y113.98
G1 F3000 E9.38522
;MESH:NOMESH
G0 F300 X121.869 Y113.98 Z0.45
G0 F3000 X117.47 Y122.316
;TIME_ELAPSED:28.001973
;LAYER:1
M140 S50
M106 S85
;TYPE:WALL-INNER
;MESH:tulip vasemode stem.stl
G1 F3000 E15.88522
G1 F1200 X117.478 Y122.324 E15.88559
G1 X118.574 Y122.337 E15.92205
G1 X119.301 Y121.905 E15.95018
G1 X119.977 Y121.489 E15.97658
G1 X120.284 Y121.273 E15.98906
G1 X121.181 Y120.584 E16.02668
G1 X121.425 Y120.355 E16.03781
G1 X121.665 Y119.691 E16.06129
G1 X121.853 Y119.11 E16.0816
G1 X121.862 Y119.106 E16.08193
G1 X121.955 Y118.77 E16.09353
G1 X122.109 Y118.125 E16.11558
G1 X122.117 Y118.119 E16.11591
G1 X122.305 Y117.143 E16.14897
G1 X122.135 Y116.648 E16.16638
G1 X121.99 Y116.283 E16.17944
G1 X121.562 Y115.305 E16.21495
G1 X121.177 Y114.559 E16.24287
G1 X120.907 Y114.095 E16.26073
G1 X120.201 Y113.665 E16.28822
G1 X119.521 Y113.294 E16.31399
G1 X118.787 Y112.956 E16.34086
G1 X118.228 Y112.722 E16.36102
G1 X117.764 Y112.564 E16.37732
G1 X116.556 Y112.796 E16.41823
G1 X116.15 Y112.892 E16.43211
G1 X115.815 Y112.99 E16.44372
G1 X114.537 Y113.416 E16.48852
G1 X114.157 Y113.858 E16.50791
G1 X113.723 Y114.411 E16.53129
G1 X113.37 Y114.894 E16.55119
G1 X113.041 Y115.393 E16.57107
G1 X112.747 Y115.867 E16.58962
G1 X112.603 Y116.114 E16.59913
G1 X112.57 Y117.204 E16.6354
G1 X112.578 Y117.656 E16.65044
G1 X112.607 Y118.095 E16.66507
G1 X112.658 Y118.575 E16.68113
G1 X112.733 Y119.106 E16.69896
G1 X112.832 Y119.604 E16.71585
G1 X113.175 Y120.025 E16.73391
G1 X113.742 Y120.668 E16.76242
G1 X114.069 Y120.997 E16.77785
G1 X114.624 Y121.517 E16.80315
G1 X114.91 Y121.766 E16.81576
G1 X115.257 Y122.037 E16.8304
G1 X116.321 Y122.212 E16.86627
G1 X116.813 Y122.269 E16.88274
G1 X117.47 Y122.316 E16.90465
G0 F6000 X117.436 Y122.715
G1 F1200 X117.445 Y122.724 E16.90507
G1 X118.427 Y122.735 E16.93774
G1 X118.716 Y122.718 E16.94737
G1 X119.511 Y122.246 E16.97812
G1 X120.197 Y121.823 E17.00492
G1 X120.519 Y121.596 E17.01803
G1 X120.898 Y121.312 E17.03378
G1 X121.441 Y120.889 E17.05667
G1 X121.744 Y120.605 E17.07048
G1 X121.858 Y120.333 E17.08029
G1 X122.044 Y119.82 E17.09844
G1 X122.232 Y119.239 E17.11875
G1 X122.242 Y119.235 E17.11911
G1 X122.343 Y118.869 E17.13174
G1 X122.494 Y118.232 E17.15351
G1 X122.504 Y118.224 E17.15394
G1 X122.674 Y117.343 E17.18378
G1 X122.709 Y117.071 E17.1929
G1 X122.509 Y116.508 E17.21277
G1 X122.359 Y116.129 E17.22633
G1 X121.923 Y115.133 E17.26249
G1 X121.528 Y114.369 E17.2911
G1 X121.217 Y113.821 E17.31206
G1 X120.978 Y113.667 E17.32151
G1 X120.401 Y113.318 E17.34394
G1 X119.7 Y112.936 E17.37049
G1 X118.948 Y112.59 E17.39803
G1 X118.373 Y112.349 E17.41876
G1 X117.85 Y112.163 E17.43723
G1 X117.531 Y112.202 E17.44791
G1 X116.472 Y112.405 E17.48378
G1 X116.048 Y112.506 E17.49827
G1 X115.695 Y112.608 E17.5105
G1 X114.309 Y113.072 E17.55911
G1 X113.848 Y113.603 E17.5825
G1 X113.404 Y114.169 E17.60642
G1 X113.042 Y114.666 E17.62687
G1 X112.704 Y115.177 E17.64725
G1 X112.401 Y115.666 E17.66639
G1 X112.207 Y116.012 E17.67958
G1 X112.17 Y117.201 E17.71914
G1 X112.178 Y117.673 E17.73485
G1 X112.208 Y118.129 E17.75004
G1 X112.261 Y118.624 E17.7666
G1 X112.338 Y119.171 E17.78498
G1 X112.448 Y119.765 E17.80507
G1 X112.858 Y120.271 E17.82673
G1 X113.45 Y120.942 E17.85649
G1 X113.791 Y121.284 E17.87255
G1 X114.356 Y121.814 E17.89832
G1 X114.653 Y122.073 E17.91143
G1 X115.041 Y122.385 E17.92799
G1 X115.341 Y122.456 E17.93824
G1 X116.266 Y122.608 E17.96942
G1 X116.775 Y122.667 E17.98646
G1 X117.436 Y122.715 E18.0085
G0 F6000 X117.403 Y123.113
G1 F1200 X117.412 Y123.124 E18.00898
G1 X118.434 Y123.136 E18.04297
G1 X118.829 Y123.117 E18.05612
G1 X119.721 Y122.587 E18.09063
G1 X120.417 Y122.157 E18.11784
G1 X120.754 Y121.92 E18.13155
G1 X121.143 Y121.628 E18.14772
G1 X121.701 Y121.193 E18.17126
G1 X122.078 Y120.84 E18.18843
G1 X122.231 Y120.479 E18.20148
G1 X122.422 Y119.95 E18.22018
G1 X122.611 Y119.368 E18.24053
G1 X122.622 Y119.363 E18.24094
G1 X122.73 Y118.968 E18.25456
G1 X122.88 Y118.338 E18.2761
G1 X122.89 Y118.33 E18.27652
G1 X123.011 Y117.734 E18.29675
G1 X123.07 Y117.403 E18.30793
G1 X123.116 Y117.023 E18.32066
G1 X122.884 Y116.367 E18.34381
G1 X122.728 Y115.975 E18.35784
G1 X122.285 Y114.961 E18.39464
G1 X121.88 Y114.178 E18.42396
G1 X121.621 Y113.722 E18.4414
G1 X121.44 Y113.486 E18.4513
G1 X120.6 Y112.971 E18.48407
G1 X119.88 Y112.578 E18.51135
G1 X119.109 Y112.224 E18.53957
G1 X118.518 Y111.976 E18.56088
G1 X118.161 Y111.849 E18.57349
G1 X117.854 Y111.757 E18.58415
G1 X117.467 Y111.807 E18.59713
G1 X116.388 Y112.014 E18.63367
G1 X115.946 Y112.119 E18.64878
G1 X115.576 Y112.226 E18.66159
G1 X114.272 Y112.662 E18.70732
G1 X114.006 Y112.808 E18.71741
G1 X113.539 Y113.349 E18.74118
G1 X113.085 Y113.928 E18.76565
G1 X112.713 Y114.437 E18.78662
G1 X112.367 Y114.961 E18.80751
G1 X112.055 Y115.465 E18.82722
G1 X111.843 Y115.829 E18.84123
G1 X111.801 Y116.174 E18.85279
G1 X111.77 Y117.198 E18.88687
G1 X111.778 Y117.689 E18.9032
G1 X111.81 Y118.164 E18.91903
G1 X111.864 Y118.673 E18.93606
G1 X111.943 Y119.235 E18.95493
G1 X112.073 Y119.933 E18.97855
G1 X112.368 Y120.309 E18.99445
G1 X113.158 Y121.216 E19.03445
G1 X113.512 Y121.571 E19.05113
G1 X114.088 Y122.111 E19.07739
G1 X114.397 Y122.38 E19.09101
G1 X114.68 Y122.608 E19.1031
G1 X114.885 Y122.754 E19.11147
G1 X115.264 Y122.849 E19.12447
G1 X116.21 Y123.004 E19.15635
G1 X116.738 Y123.066 E19.17403
G1 X117.403 Y123.113 E19.1962
G0 F6000 X117.369 Y123.512
G1 F1200 X117.379 Y123.523 E19.1967
G1 X118.441 Y123.536 E19.23202
G1 X118.942 Y123.514 E19.2487
G1 X119.931 Y122.927 E19.28695
G1 X120.638 Y122.491 E19.31458
G1 X120.989 Y122.244 E19.32886
G1 X121.389 Y121.944 E19.34549
G1 X121.961 Y121.498 E19.36961
G1 X122.415 Y121.073 E19.3903
G1 X122.604 Y120.625 E19.40647
G1 X122.801 Y120.08 E19.42574
G1 X122.99 Y119.497 E19.44613
G1 X123.001 Y119.491 E19.44654
G1 X123.118 Y119.066 E19.4612
G1 X123.265 Y118.445 E19.48243
G1 X123.277 Y118.436 E19.48293
G1 X123.465 Y117.463 E19.51589
G1 X123.52 Y117.025 E19.53057
G1 X123.425 Y116.697 E19.54193
G1 X123.258 Y116.226 E19.55855
G1 X123.097 Y115.821 E19.57305
G1 X122.646 Y114.789 E19.61051
G1 X122.231 Y113.987 E19.64054
G1 X121.961 Y113.511 E19.65874
G1 X121.761 Y113.217 E19.67057
G1 X121.392 Y112.982 E19.68512
G1 X120.799 Y112.624 E19.70816
G1 X120.06 Y112.221 E19.73615
G1 X119.27 Y111.857 E19.76508
G1 X118.663 Y111.603 E19.78697
G1 X118.287 Y111.469 E19.80025
G1 X117.888 Y111.349 E19.8141
G1 X117.403 Y111.411 E19.83037
G1 X116.304 Y111.622 E19.86759
G1 X115.844 Y111.732 E19.88332
G1 X115.457 Y111.844 E19.89672
G1 X114.301 Y112.231 E19.93726
G1 X114.053 Y112.326 E19.9461
G1 X113.743 Y112.5 E19.95792
G1 X113.23 Y113.095 E19.98405
G1 X112.766 Y113.686 E20.00904
G1 X112.384 Y114.209 E20.03058
G1 X112.031 Y114.745 E20.05193
G1 X111.727 Y115.233 E20.07105
G1 X111.444 Y115.721 E20.08981
G1 X111.402 Y116.149 E20.10412
G1 X111.37 Y117.195 E20.13892
G1 X111.378 Y117.706 E20.15592
G1 X111.411 Y118.199 E20.17236
G1 X111.467 Y118.722 E20.18985
G1 X111.548 Y119.3 E20.20926
G1 X111.636 Y119.773 E20.22526
G1 X111.735 Y120.149 E20.2382
G1 X112.058 Y120.561 E20.25561
G1 X112.274 Y120.818 E20.26677
G1 X112.866 Y121.489 E20.29654
G1 X113.234 Y121.858 E20.31387
G1 X113.819 Y122.407 E20.34055
G1 X114.14 Y122.686 E20.3547
G1 X114.439 Y122.927 E20.36747
G1 X114.736 Y123.137 E20.37957
G1 X115.186 Y123.242 E20.39494
G1 X116.155 Y123.401 E20.4276
G1 X116.701 Y123.464 E20.44588
G1 X117.369 Y123.512 E20.46815
G0 F6000 X117.335 Y123.911
G1 F1200 X117.347 Y123.923 E20.46872
G1 X118.447 Y123.936 E20.50531
G1 X118.739 Y123.923 E20.51503
G1 X119.026 Y123.891 E20.52463
G1 X119.188 Y123.833 E20.53036
G1 X120.141 Y123.268 E20.56721
G1 X120.858 Y122.825 E20.59524
G1 X121.225 Y122.567 E20.61016
G1 X121.634 Y122.26 E20.62717
G1 X122.221 Y121.803 E20.65191
G1 X122.655 Y121.397 E20.67168
G1 X122.784 Y121.227 E20.67878
G1 X122.976 Y120.771 E20.69523
G1 X123.18 Y120.209 E20.71512
G1 X123.368 Y119.625 E20.73552
G1 X123.381 Y119.62 E20.73599
G1 X123.506 Y119.165 E20.75168
G1 X123.651 Y118.552 E20.77263
G1 X123.664 Y118.542 E20.77318
G1 X123.861 Y117.523 E20.8077
G1 X123.927 Y116.995 E20.82539
G1 X123.806 Y116.574 E20.83996
G1 X123.633 Y116.086 E20.85718
G1 X123.467 Y115.667 E20.87217
G1 X123.007 Y114.617 E20.9103
G1 X122.583 Y113.796 E20.94103
G1 X122.301 Y113.3 E20.96001
G1 X122.122 Y113.036 E20.97062
G1 X121.942 Y112.857 E20.97906
G1 X121.599 Y112.64 E20.99256
G1 X120.999 Y112.277 E21.01589
G1 X120.239 Y111.863 E21.04467
G1 X119.431 Y111.491 E21.07426
G1 X118.807 Y111.23 E21.09675
G1 X118.412 Y111.089 E21.1107
G1 X118.015 Y110.969 E21.1245
G1 X117.747 Y110.963 E21.13341
G1 X117.339 Y111.016 E21.1471
G1 X116.22 Y111.231 E21.185
