;FLAVOR:Marlin
;TIME:2870
;Filament used: 3.29363m
;Layer height: 0.2
;MINX:98.602
;MINY:98.602
;MINZ:0.25
;MAXX:136.397
;MAXY:136.398
;MAXZ:35.45
;Generated with Cura_SteamEngine 5.3.0
M140 S55
M105
M190 S55
M104 S212
M105
M109 S212
M82 ;absolute extrusion mode
START_PRINT
G92 E0
G92 E0
G1 F3000 E-6.5
;LAYER_COUNT:177
;LAYER:0
M107
;MESH:22mm-Shower-Head-Mount.stl
G0 X118.456 Y135.698 Z0.25
;TYPE:WALL-INNER
G1 F3000 E0
G1 F1800 X118.469 Y135.711 E0.00115
G1 X119.269 Y135.638 E0.05124
G1 X119.952 Y135.558 E0.09413
G1 X120.606 Y135.458 E0.13539
G1 X121.261 Y135.332 E0.17698
G1 X121.925 Y135.178 E0.21949
G1 X122.696 Y134.966 E0.26936
G1 X122.712 Y134.975 E0.2705
G1 X123.85 Y134.581 E0.34561
G1 X124.475 Y134.337 E0.38745
G1 X125.079 Y134.073 E0.42856
G1 X125.694 Y133.778 E0.47109
G1 X126.286 Y133.466 E0.51282
G1 X126.87 Y133.131 E0.55481
G1 X127.44 Y132.777 E0.59666
G1 X127.987 Y132.404 E0.63794
G1 X128.531 Y132.006 E0.67998
G1 X129.057 Y131.591 E0.72176
G1 X129.574 Y131.15 E0.76414
G1 X130.069 Y130.697 E0.80599
G1 X130.544 Y130.226 E0.8477
G1 X131.001 Y129.741 E0.88926
G1 X131.447 Y129.232 E0.93146
G1 X131.868 Y128.71 E0.97329
G1 X132.271 Y128.174 E1.01511
G1 X132.647 Y127.632 E1.05624
G1 X133.016 Y127.058 E1.0988
G1 X133.358 Y126.48 E1.14068
G1 X133.674 Y125.896 E1.18209
G1 X133.975 Y125.289 E1.22434
G1 X134.245 Y124.688 E1.26543
G1 X134.504 Y124.055 E1.30808
G1 X134.733 Y123.425 E1.34989
G1 X134.94 Y122.787 E1.39172
G1 X135.122 Y122.14 E1.43363
G1 X135.324 Y121.321 E1.48624
G1 X135.316 Y121.311 E1.48704
G1 X135.416 Y120.83 E1.51767
G1 X135.526 Y120.169 E1.55946
G1 X135.596 Y119.635 E1.59305
G1 X135.61 Y119.624 E1.59416
G1 X135.672 Y118.852 E1.64246
G1 X135.711 Y118.166 E1.68531
G1 X135.722 Y117.495 E1.72716
G1 X135.71 Y116.824 E1.76901
G1 X135.672 Y116.157 E1.81068
G1 X135.592 Y115.337 E1.86206
G1 X135.602 Y115.325 E1.86303
G1 X135.412 Y114.155 E1.93695
G1 X135.317 Y113.688 E1.96667
G1 X135.328 Y113.673 E1.96783
G1 X135.122 Y112.865 E2.01983
G1 X134.935 Y112.203 E2.06273
G1 X134.728 Y111.565 E2.10456
G1 X134.499 Y110.935 E2.14636
G1 X134.244 Y110.313 E2.18829
G1 X133.97 Y109.703 E2.22999
G1 X133.671 Y109.1 E2.27196
G1 X133.351 Y108.511 E2.31377
G1 X133.009 Y107.933 E2.35565
G1 X132.646 Y107.369 E2.39748
G1 X132.27 Y106.828 E2.43856
G1 X131.86 Y106.281 E2.48119
G1 X131.437 Y105.76 E2.52304
G1 X130.996 Y105.257 E2.56476
G1 X130.535 Y104.766 E2.60676
G1 X130.058 Y104.294 E2.64861
G1 X129.572 Y103.852 E2.68958
G1 X129.051 Y103.407 E2.73231
G1 X128.529 Y102.994 E2.77382
G1 X127.99 Y102.6 E2.81546
G1 X127.503 Y102.265 E2.85232
G1 X126.859 Y101.864 E2.89963
G1 X126.286 Y101.535 E2.94084
G1 X125.681 Y101.217 E2.98346
G1 X125.078 Y100.928 E3.02516
G1 X124.473 Y100.664 E3.06632
G1 X123.849 Y100.42 E3.10811
G1 X123.201 Y100.193 E3.15093
G1 X122.666 Y100.026 E3.18588
G1 X122.657 Y100.012 E3.18692
G1 X121.931 Y99.824 E3.23369
G1 X121.26 Y99.669 E3.27663
G1 X120.601 Y99.543 E3.31847
G1 X119.951 Y99.443 E3.35949
G1 X119.276 Y99.364 E3.40187
G1 X118.426 Y99.302 E3.45502
G1 X118.414 Y99.289 E3.45612
G1 X117.27 Y99.278 E3.52747
G1 X116.604 Y99.299 E3.56902
G1 X115.921 Y99.345 E3.61171
G1 X115.253 Y99.414 E3.65359
G1 X114.589 Y99.509 E3.69542
G1 X113.943 Y99.625 E3.73635
G1 X113.287 Y99.77 E3.77825
G1 X112.623 Y99.94 E3.821
G1 X111.981 Y100.131 E3.86277
G1 X111.359 Y100.341 E3.90371
G1 X110.72 Y100.584 E3.94634
G1 X110.112 Y100.841 E3.98751
G1 X109.491 Y101.129 E4.0302
G1 X108.907 Y101.429 E4.07114
G1 X108.31 Y101.763 E4.1138
G1 X107.735 Y102.112 E4.15575
G1 X107.175 Y102.482 E4.19761
G1 X106.639 Y102.865 E4.23869
G1 X106.099 Y103.283 E4.28127
G1 X105.584 Y103.712 E4.32307
G1 X105.088 Y104.156 E4.36459
G1 X104.6 Y104.627 E4.40688
G1 X104.136 Y105.109 E4.44861
G1 X103.689 Y105.61 E4.49048
G1 X103.264 Y106.121 E4.53193
G1 X102.852 Y106.658 E4.57414
G1 X102.469 Y107.195 E4.61527
G1 X102.092 Y107.768 E4.65805
G1 X101.874 Y108.122 E4.68397
G1 X101.538 Y108.706 E4.72599
G1 X101.224 Y109.298 E4.76778
G1 X100.935 Y109.902 E4.80954
G1 X100.664 Y110.519 E4.85156
G1 X100.343 Y111.329 E4.9059
G1 X100.351 Y111.338 E4.90665
G1 X100.197 Y111.779 E4.93578
G1 X100.03 Y112.3 E4.9699
G1 X99.825 Y113.053 E5.01857
G1 X99.671 Y113.718 E5.06114
G1 X99.544 Y114.377 E5.10299
G1 X99.441 Y115.039 E5.14477
G1 X99.364 Y115.703 E5.18646
G1 X99.302 Y116.551 E5.23948
G1 X99.289 Y116.563 E5.24059
G1 X99.276 Y117.718 E5.31262
G1 X99.296 Y118.375 E5.35361
G1 X99.34 Y119.057 E5.39623
G1 X99.408 Y119.713 E5.43736
G1 X99.501 Y120.377 E5.47917
G1 X99.619 Y121.037 E5.52099
G1 X99.763 Y121.693 E5.56287
G1 X99.93 Y122.344 E5.60478
G1 X100.118 Y122.986 E5.6465
G1 X100.332 Y123.622 E5.68835
G1 X100.57 Y124.249 E5.73017
G1 X100.831 Y124.869 E5.77212
G1 X101.119 Y125.488 E5.8147
G1 X101.418 Y126.076 E5.85584
G1 X101.744 Y126.661 E5.8976
G1 X102.093 Y127.235 E5.9395
G1 X102.468 Y127.805 E5.98204
G1 X102.851 Y128.342 E6.02318
G1 X103.269 Y128.883 E6.06581
G1 X103.69 Y129.391 E6.10696
G1 X104.136 Y129.891 E6.14874
G1 X104.602 Y130.374 E6.1906
G1 X105.094 Y130.85 E6.23329
G1 X105.584 Y131.289 E6.27432
G1 X106.101 Y131.719 E6.31625
G1 X106.64 Y132.136 E6.35875
G1 X107.176 Y132.519 E6.39984
G1 X107.737 Y132.889 E6.44175
G1 X108.315 Y133.241 E6.48395
G1 X108.901 Y133.569 E6.52583
G1 X109.492 Y133.872 E6.56725
G1 X110.113 Y134.16 E6.60994
G1 X110.721 Y134.417 E6.6511
G1 X111.362 Y134.66 E6.69385
G1 X111.982 Y134.871 E6.73469
G1 X112.624 Y135.061 E6.77645
G1 X113.287 Y135.231 E6.81913
G1 X113.947 Y135.376 E6.86127
G1 X114.591 Y135.492 E6.90208
G1 X115.254 Y135.586 E6.94384
G1 X115.923 Y135.656 E6.98579
G1 X116.605 Y135.702 E7.02842
G1 X117.273 Y135.723 E7.0701
G1 X117.934 Y135.72 E7.11132
G1 X118.456 Y135.698 E7.1439
G0 F3000 X118.48 Y136.298
;TYPE:WALL-OUTER
G1 F1800 X118.494 Y136.311 E7.14509
G1 X119.331 Y136.235 E7.1975
G1 X120.032 Y136.153 E7.24152
G1 X120.708 Y136.05 E7.28416
G1 X121.386 Y135.919 E7.32723
G1 X122.072 Y135.76 E7.37114
G1 X122.854 Y135.545 E7.42172
G1 X122.873 Y135.554 E7.42303
G1 X124.058 Y135.144 E7.50123
G1 X124.704 Y134.891 E7.54449
G1 X125.329 Y134.619 E7.587
G1 X125.964 Y134.314 E7.63093
G1 X126.576 Y133.992 E7.67406
G1 X127.178 Y133.646 E7.71736
G1 X127.767 Y133.28 E7.76061
G1 X128.333 Y132.894 E7.80333
G1 X128.894 Y132.484 E7.84666
G1 X129.438 Y132.055 E7.88987
G1 X129.971 Y131.6 E7.93357
G1 X130.483 Y131.132 E7.97683
G1 X130.974 Y130.645 E8.01996
G1 X131.445 Y130.145 E8.0628
G1 X131.906 Y129.618 E8.10646
G1 X132.342 Y129.079 E8.14969
G1 X132.757 Y128.525 E8.19286
G1 X133.146 Y127.966 E8.23533
G1 X133.527 Y127.373 E8.27929
G1 X133.88 Y126.776 E8.32254
G1 X134.207 Y126.172 E8.36537
G1 X134.517 Y125.545 E8.40899
G1 X134.797 Y124.925 E8.45142
G1 X135.064 Y124.271 E8.49547
G1 X135.301 Y123.62 E8.53868
G1 X135.514 Y122.961 E8.58187
G1 X135.702 Y122.293 E8.62514
G1 X135.912 Y121.443 E8.67975
G1 X135.904 Y121.433 E8.68055
G1 X136.006 Y120.94 E8.71194
G1 X136.12 Y120.257 E8.75512
G1 X136.191 Y119.713 E8.78934
G1 X136.206 Y119.702 E8.7905
G1 X136.271 Y118.893 E8.84111
G1 X136.311 Y118.188 E8.88515
G1 X136.322 Y117.495 E8.92837
G1 X136.31 Y116.802 E8.97159
G1 X136.27 Y116.111 E9.01476
G1 X136.189 Y115.279 E9.06689
G1 X136.2 Y115.265 E9.068
G1 X136.002 Y114.047 E9.14496
G1 X135.905 Y113.568 E9.17543
G1 X135.916 Y113.552 E9.17664
G1 X135.702 Y112.709 E9.23088
G1 X135.509 Y112.029 E9.27497
G1 X135.296 Y111.37 E9.31816
G1 X135.059 Y110.719 E9.36136
G1 X134.796 Y110.076 E9.40468
G1 X134.512 Y109.446 E9.44778
G1 X134.203 Y108.824 E9.49109
G1 X133.873 Y108.215 E9.53429
G1 X133.52 Y107.618 E9.57754
G1 X133.145 Y107.035 E9.62077
G1 X132.756 Y106.476 E9.66324
G1 X132.333 Y105.912 E9.70721
G1 X131.896 Y105.373 E9.75048
G1 X131.44 Y104.853 E9.79361
G1 X130.965 Y104.347 E9.83689
G1 X130.471 Y103.859 E9.8802
G1 X129.969 Y103.402 E9.92253
G1 X129.432 Y102.943 E9.96659
G1 X128.893 Y102.516 E10.00947
G1 X128.337 Y102.11 E10.0524
G1 X127.831 Y101.763 E10.09067
G1 X127.167 Y101.349 E10.13947
G1 X126.575 Y101.009 E10.18204
G1 X125.951 Y100.681 E10.226
G1 X125.328 Y100.382 E10.2691
G1 X124.703 Y100.11 E10.31161
G1 X124.057 Y99.857 E10.35487
G1 X123.39 Y99.623 E10.39895
G1 X122.845 Y99.453 E10.43456
G1 X122.835 Y99.438 E10.43568
G1 X122.073 Y99.241 E10.48476
G1 X121.384 Y99.082 E10.52886
G1 X120.703 Y98.951 E10.57211
G1 X120.031 Y98.848 E10.6145
G1 X119.332 Y98.766 E10.6584
G1 X118.47 Y98.704 E10.71229
G1 X118.456 Y98.689 E10.71357
G1 X117.264 Y98.678 E10.78791
G1 X116.574 Y98.699 E10.83096
G1 X115.87 Y98.747 E10.87497
G1 X115.18 Y98.818 E10.91822
G1 X114.493 Y98.917 E10.96151
G1 X113.825 Y99.037 E11.00383
G1 X113.148 Y99.186 E11.04706
G1 X112.463 Y99.362 E11.09117
G1 X111.799 Y99.559 E11.13436
G1 X111.156 Y99.776 E11.17668
G1 X110.496 Y100.027 E11.22072
G1 X109.868 Y100.293 E11.26325
G1 X109.228 Y100.59 E11.30725
G1 X108.623 Y100.9 E11.34965
G1 X108.008 Y101.245 E11.39362
G1 X107.414 Y101.605 E11.43694
G1 X106.835 Y101.988 E11.48023
G1 X106.281 Y102.383 E11.52266
G1 X105.723 Y102.815 E11.56667
G1 X105.192 Y103.258 E11.6098
G1 X104.68 Y103.716 E11.65264
G1 X104.176 Y104.203 E11.69634
G1 X103.696 Y104.701 E11.73948
G1 X103.234 Y105.218 E11.78272
G1 X102.795 Y105.747 E11.82559
G1 X102.37 Y106.301 E11.86913
G1 X101.974 Y106.856 E11.91165
G1 X101.586 Y107.445 E11.95563
G1 X101.358 Y107.814 E11.98268
G1 X101.012 Y108.416 E12.02599
G1 X100.688 Y109.028 E12.06917
G1 X100.389 Y109.652 E12.11232
G1 X100.11 Y110.288 E12.15563
G1 X99.776 Y111.131 E12.21218
G1 X99.784 Y111.141 E12.21298
G1 X99.628 Y111.589 E12.24256
G1 X99.454 Y112.13 E12.278
G1 X99.243 Y112.907 E12.32821
G1 X99.084 Y113.594 E12.37219
G1 X98.953 Y114.274 E12.41538
G1 X98.847 Y114.958 E12.45854
G1 X98.766 Y115.646 E12.50174
G1 X98.704 Y116.507 E12.55558
G1 X98.689 Y116.521 E12.55686
G1 X98.676 Y117.724 E12.63188
G1 X98.696 Y118.404 E12.67431
G1 X98.742 Y119.107 E12.71824
G1 X98.812 Y119.785 E12.76075
G1 X98.909 Y120.471 E12.80396
G1 X99.031 Y121.154 E12.84722
G1 X99.179 Y121.831 E12.89044
G1 X99.351 Y122.503 E12.9337
G1 X99.546 Y123.166 E12.9768
G1 X99.767 Y123.824 E13.02008
G1 X100.013 Y124.472 E13.06331
G1 X100.282 Y125.112 E13.1066
G1 X100.579 Y125.751 E13.15055
G1 X100.888 Y126.358 E13.19302
G1 X101.226 Y126.963 E13.23624
G1 X101.585 Y127.555 E13.27942
G1 X101.973 Y128.145 E13.32346
G1 X102.369 Y128.7 E13.36598
G1 X102.8 Y129.258 E13.40995
G1 X103.235 Y129.783 E13.45246
G1 X103.696 Y130.299 E13.49562
G1 X104.178 Y130.798 E13.53888
G1 X104.685 Y131.289 E13.5829
G1 X105.192 Y131.743 E13.62534
G1 X105.725 Y132.187 E13.6686
G1 X106.282 Y132.618 E13.71252
G1 X106.836 Y133.013 E13.75495
G1 X107.415 Y133.396 E13.79824
G1 X108.013 Y133.759 E13.84187
G1 X108.618 Y134.098 E13.88512
G1 X109.229 Y134.411 E13.92793
G1 X109.869 Y134.708 E13.97193
G1 X110.497 Y134.974 E14.01446
G1 X111.159 Y135.225 E14.05862
G1 X111.8 Y135.443 E14.10084
G1 X112.464 Y135.639 E14.14401
G1 X113.148 Y135.815 E14.18806
G1 X113.829 Y135.964 E14.23153
G1 X114.495 Y136.084 E14.27374
G1 X115.181 Y136.182 E14.31695
G1 X115.871 Y136.254 E14.36022
G1 X116.575 Y136.302 E14.40422
G1 X117.265 Y136.323 E14.44727
G1 X117.948 Y136.32 E14.48986
G1 X118.48 Y136.298 E14.52307
G0 F3000 X118.451 Y135.598
G0 X118.407 Y135.159
;TYPE:SKIN
G1 F1500 X117.914 Y135.18 E14.55384
G1 X117.284 Y135.182 E14.59313
G1 X116.638 Y135.163 E14.63344
G1 X115.964 Y135.117 E14.67557
G1 X115.315 Y135.05 E14.71625
G1 X114.67 Y134.957 E14.75689
G1 X114.062 Y134.847 E14.79543
G1 X113.418 Y134.706 E14.83654
G1 X112.762 Y134.538 E14.87877
G1 X112.14 Y134.355 E14.9192
G1 X111.54 Y134.15 E14.95874
G1 X110.824 Y133.88 E15.00647
G1 X110.33 Y133.664 E15.04009
G1 X109.723 Y133.383 E15.0818
G1 X109.151 Y133.089 E15.12191
G1 X108.594 Y132.777 E15.16172
G1 X108.021 Y132.43 E15.2035
G1 X107.488 Y132.076 E15.2434
G1 X106.967 Y131.705 E15.28329
G1 X106.433 Y131.292 E15.32539
G1 X105.934 Y130.876 E15.3659
G1 X105.458 Y130.449 E15.40578
G1 X104.987 Y129.991 E15.44675
G1 X104.532 Y129.523 E15.48746
G1 X104.096 Y129.033 E15.52836
G1 X103.695 Y128.549 E15.56756
G1 X103.282 Y128.015 E15.60966
G1 X102.918 Y127.505 E15.64873
G1 X102.546 Y126.939 E15.69097
G1 X102.209 Y126.383 E15.73152
G1 X101.891 Y125.815 E15.77211
G1 X101.608 Y125.255 E15.81124
G1 X101.323 Y124.644 E15.85329
G1 X101.069 Y124.042 E15.89403
G1 X100.839 Y123.434 E15.93457
G1 X100.631 Y122.817 E15.97518
G1 X100.451 Y122.2 E16.01526
G1 X100.288 Y121.561 E16.05639
G1 X100.148 Y120.924 E16.09706
G1 X100.034 Y120.284 E16.1376
G1 X99.942 Y119.64 E16.17817
G1 X99.88 Y119.018 E16.21715
G1 X99.835 Y118.343 E16.25934
G1 X99.817 Y117.72 E16.29821
G1 X99.829 Y116.594 E16.36843
G1 X99.843 Y116.565 E16.37044
G1 X99.9 Y115.763 E16.42058
G1 X99.977 Y115.118 E16.46109
G1 X100.076 Y114.476 E16.5016
G1 X100.199 Y113.838 E16.54212
G1 X100.352 Y113.178 E16.58437
G1 X100.545 Y112.462 E16.63062
G1 X100.709 Y111.954 E16.66391
G1 X100.851 Y111.544 E16.69097
G1 X100.847 Y111.523 E16.6923
G1 X101.16 Y110.733 E16.74529
G1 X101.423 Y110.132 E16.7862
G1 X101.704 Y109.546 E16.82673
G1 X102.007 Y108.972 E16.86721
G1 X102.334 Y108.403 E16.90814
G1 X102.545 Y108.063 E16.93309
G1 X102.916 Y107.502 E16.97503
G1 X103.287 Y106.979 E17.01502
G1 X103.682 Y106.465 E17.05545
G1 X104.103 Y105.959 E17.0965
G1 X104.529 Y105.481 E17.13643
G1 X104.979 Y105.014 E17.17687
G1 X105.462 Y104.547 E17.21877
G1 X105.934 Y104.126 E17.25821
G1 X106.432 Y103.709 E17.29872
G1 X106.967 Y103.296 E17.34087
G1 X107.487 Y102.925 E17.38071
G1 X108.019 Y102.571 E17.42056
G1 X108.579 Y102.233 E17.46135
G1 X109.168 Y101.902 E17.50348
G1 X109.722 Y101.618 E17.54231
G1 X110.335 Y101.334 E17.58444
G1 X110.917 Y101.087 E17.62387
G1 X111.549 Y100.847 E17.66603
G1 X112.138 Y100.647 E17.70482
G1 X112.761 Y100.463 E17.74533
G1 X113.418 Y100.295 E17.78762
G1 X114.057 Y100.153 E17.82844
G1 X114.668 Y100.043 E17.86716
G1 X115.314 Y99.95 E17.90786
G1 X115.962 Y99.884 E17.94848
G1 X116.637 Y99.838 E17.99067
G1 X117.279 Y99.819 E18.03073
G1 X118.379 Y99.828 E18.09933
G1 X118.411 Y99.844 E18.10156
G1 X119.231 Y99.903 E18.15283
G1 X119.885 Y99.98 E18.1939
G1 X120.506 Y100.074 E18.23306
G1 X121.141 Y100.197 E18.2734
G1 X121.799 Y100.348 E18.3155
G1 X122.501 Y100.529 E18.36071
G1 X122.525 Y100.548 E18.36262
G1 X123.14 Y100.745 E18.40289
G1 X123.665 Y100.93 E18.43761
G1 X124.273 Y101.168 E18.47833
G1 X124.848 Y101.418 E18.51743
G1 X125.433 Y101.697 E18.55785
G1 X126.03 Y102.011 E18.59991
G1 X126.576 Y102.326 E18.63922
G1 X127.2 Y102.714 E18.68505
G1 X127.674 Y103.038 E18.72085
G1 X128.201 Y103.423 E18.76155
G1 X128.703 Y103.822 E18.80154
G1 X129.219 Y104.262 E18.84383
G1 X129.68 Y104.681 E18.88268
G1 X130.144 Y105.14 E18.92338
G1 X130.592 Y105.616 E18.96415
G1 X131.02 Y106.103 E19.00458
G1 X131.429 Y106.609 E19.04516
G1 X131.831 Y107.144 E19.08689
G1 X132.193 Y107.664 E19.1264
G1 X132.546 Y108.212 E19.16705
G1 X132.88 Y108.777 E19.20799
G1 X133.44 Y109.82 E19.28181
G1 X133.433 Y109.843 E19.28331
G1 X133.745 Y110.522 E19.32991
G1 X133.993 Y111.125 E19.37057
G1 X134.216 Y111.736 E19.41113
G1 X134.415 Y112.355 E19.45168
G1 X134.6 Y113 E19.49353
G1 X134.799 Y113.789 E19.54427
G1 X134.793 Y113.821 E19.5463
G1 X134.879 Y114.245 E19.57328
G1 X135.064 Y115.39 E19.64562
G1 X135.057 Y115.414 E19.64718
G1 X135.132 Y116.192 E19.69592
G1 X135.17 Y116.84 E19.7364
G1 X135.181 Y117.488 E19.77682
G1 X135.156 Y118.626 E19.8478
G1 X135.141 Y118.64 E19.84908
G1 X135.073 Y119.563 E19.9068
G1 X135.057 Y119.591 E19.90881
G1 X134.991 Y120.083 E19.93977
G1 X134.885 Y120.724 E19.98028
G1 X134.793 Y121.175 E20.00899
G1 X134.797 Y121.197 E20.01038
G1 X134.6 Y121.995 E20.06164
G1 X134.424 Y122.623 E20.10232
G1 X134.225 Y123.243 E20.14292
G1 X134.002 Y123.855 E20.18354
G1 X133.746 Y124.481 E20.22572
G1 X133.487 Y125.052 E20.26482
G1 X133.197 Y125.642 E20.30582
G1 X132.89 Y126.209 E20.34603
G1 X132.559 Y126.769 E20.3866
G1 X132.197 Y127.331 E20.42829
G1 X131.832 Y127.857 E20.46821
G1 X131.446 Y128.373 E20.5084
G1 X131.038 Y128.878 E20.54889
G1 X130.604 Y129.374 E20.58999
G1 X130.161 Y129.845 E20.63031
G1 X129.702 Y130.3 E20.67062
G1 X129.221 Y130.74 E20.71127
G1 X128.714 Y131.173 E20.75285
G1 X128.207 Y131.573 E20.79313
G1 X127.669 Y131.966 E20.83467
