;FLAVOR:Marlin
;TIME:1373
;Filament used: 0.823049m
;Layer height: 0.2
;MINX:95.2
;MINY:98.99
;MINZ:0.25
;MAXX:139.8
;MAXY:135.8
;MAXZ:10.05
;Generated with Cura_SteamEngine 5.3.0
M140 S55
M105
M190 S55
M104 S212
M105
M109 S212
M82 ;absolute extrusion mode
START_PRINT
G92 E0
G92 E0
G1 F3000 E-6.5
;LAYER_COUNT:50
;LAYER:0
M107
G0 X98.294 Y105.75 Z0.25
;TYPE:SKIRT
G1 F3000 E0
G1 F600 X100.166 Y104.638 E0.09052
G1 X102.353 Y104.2 E0.18325
G1 X104.343 Y104.2 E0.26599
G1 X105.067 Y103.308 E0.31375
G1 X107.403 Y101.486 E0.43692
G1 X107.748 Y101.343 E0.45245
G1 X107.995 Y101.129 E0.46603
G1 X109.59 Y100.184 E0.54311
G1 X112.822 Y99.134 E0.6844
G1 X114.993 Y99.227 E0.77474
G1 X116.247 Y99.425 E0.82752
G1 X117.432 Y99.973 E0.8818
G1 X120.46 Y98.99 E1.01416
G1 X122.555 Y99.073 E1.10132
G1 X123.92 Y99.282 E1.15874
G1 X125.699 Y100.106 E1.24025
G1 X127.163 Y101.167 E1.31542
G1 X127.364 Y101.365 E1.32715
G1 X127.991 Y101.606 E1.35507
G1 X130.413 Y103.368 E1.4796
G1 X131.068 Y104.2 E1.52362
G1 X132.853 Y104.2 E1.59783
G1 X134.749 Y104.666 E1.679
G1 X136.776 Y105.719 E1.77397
G1 X138.25 Y107.294 E1.86365
G1 X139.362 Y109.166 E1.95418
G1 X139.8 Y111.353 E2.04691
G1 X139.8 Y117.853 E2.31715
G1 X139.334 Y119.749 E2.39832
G1 X138.281 Y121.776 E2.49329
G1 X136.706 Y123.25 E2.58297
G1 X134.834 Y124.362 E2.67349
G1 X132.647 Y124.8 E2.76622
G1 X128.472 Y124.8 E2.9398
G1 X128.127 Y125.213 E2.96217
G1 X127.3 Y125.718 E3.00246
G1 X127.3 Y128.853 E3.1328
G1 X126.834 Y130.749 E3.21397
G1 X125.781 Y132.776 E3.30894
G1 X124.206 Y134.25 E3.39862
G1 X122.334 Y135.362 E3.48914
G1 X120.147 Y135.8 E3.58187
G1 X114.647 Y135.8 E3.81054
G1 X112.751 Y135.334 E3.89171
G1 X110.724 Y134.281 E3.98668
G1 X109.25 Y132.706 E4.07636
G1 X108.138 Y130.834 E4.16688
G1 X107.7 Y128.647 E4.25962
G1 X107.7 Y125.712 E4.38164
G1 X107.118 Y125.346 E4.41022
G1 X106.558 Y124.8 E4.44274
G1 X102.147 Y124.8 E4.62613
G1 X100.251 Y124.334 E4.7073
G1 X98.224 Y123.281 E4.80227
G1 X96.75 Y121.706 E4.89195
G1 X95.638 Y119.834 E4.98247
G1 X95.2 Y117.647 E5.0752
G1 X95.2 Y111.147 E5.34544
G1 X95.666 Y109.251 E5.42662
G1 X96.719 Y107.224 E5.52158
G1 X98.294 Y105.75 E5.61126
G0 F3000 X98.535 Y106.072
G1 F600 X100.312 Y105.016 E5.6972
G1 X102.391 Y104.6 E5.78535
G1 X104.534 Y104.6 E5.87445
G1 X105.351 Y103.594 E5.92833
G1 X107.604 Y101.836 E6.04714
G1 X107.965 Y101.687 E6.06338
G1 X108.199 Y101.473 E6.07656
G1 X109.757 Y100.55 E6.15185
G1 X112.875 Y99.537 E6.28815
G1 X114.976 Y99.627 E6.37558
G1 X116.13 Y99.811 E6.42416
G1 X117.406 Y100.401 E6.48261
G1 X120.513 Y99.393 E6.61841
G1 X122.539 Y99.473 E6.70271
G1 X123.802 Y99.668 E6.75584
G1 X125.494 Y100.452 E6.83337
G1 X126.928 Y101.491 E6.90699
G1 X127.14 Y101.707 E6.91957
G1 X127.8 Y101.961 E6.94898
G1 X130.133 Y103.658 E7.06892
G1 X130.874 Y104.6 E7.11874
G1 X132.807 Y104.6 E7.19911
G1 X134.606 Y105.042 E7.27613
G1 X136.531 Y106.042 E7.36631
G1 X137.928 Y107.535 E7.45132
G1 X138.984 Y109.312 E7.53726
G1 X139.4 Y111.391 E7.62541
G1 X139.4 Y117.807 E7.89216
G1 X138.958 Y119.606 E7.96917
G1 X137.958 Y121.531 E8.05936
G1 X136.465 Y122.928 E8.14437
G1 X134.688 Y123.984 E8.23031
G1 X132.609 Y124.4 E8.31846
G1 X128.285 Y124.4 E8.49823
G1 X127.86 Y124.908 E8.52576
G1 X126.9 Y125.494 E8.57252
G1 X126.9 Y128.807 E8.71026
G1 X126.458 Y130.606 E8.78728
G1 X125.458 Y132.531 E8.87747
G1 X123.965 Y133.928 E8.96247
G1 X122.188 Y134.984 E9.04841
G1 X120.109 Y135.4 E9.13656
G1 X114.693 Y135.4 E9.36173
G1 X112.894 Y134.958 E9.43875
G1 X110.969 Y133.958 E9.52894
G1 X109.572 Y132.465 E9.61395
G1 X108.516 Y130.688 E9.69988
G1 X108.1 Y128.609 E9.78803
G1 X108.1 Y125.491 E9.91766
G1 X107.364 Y125.028 E9.95381
G1 X106.72 Y124.4 E9.99121
G1 X102.193 Y124.4 E10.17942
G1 X100.394 Y123.958 E10.25644
G1 X98.469 Y122.958 E10.34663
G1 X97.072 Y121.465 E10.43164
G1 X96.016 Y119.688 E10.51757
G1 X95.6 Y117.609 E10.60572
G1 X95.6 Y111.193 E10.87247
G1 X96.042 Y109.394 E10.94949
G1 X97.042 Y107.469 E11.03967
G1 X98.535 Y106.072 E11.12468
G0 F3000 X98.776 Y106.394
G1 F600 X100.458 Y105.395 E11.20602
G1 X102.43 Y105 E11.28963
G1 X104.724 Y105 E11.385
G1 X105.632 Y103.882 E11.44488
G1 X107.805 Y102.186 E11.55949
G1 X108.19 Y102.027 E11.5768
G1 X108.403 Y101.817 E11.58924
G1 X109.924 Y100.916 E11.66274
G1 X112.928 Y99.94 E11.79406
G1 X114.959 Y100.027 E11.87857
G1 X116.013 Y100.198 E11.92296
G1 X117.434 Y100.855 E11.98805
G1 X117.635 Y100.747 E11.99754
G1 X120.566 Y99.796 E12.12565
G1 X122.523 Y99.873 E12.20707
G1 X123.685 Y100.054 E12.25597
G1 X125.289 Y100.798 E12.32948
G1 X126.693 Y101.815 E12.40156
G1 X126.912 Y102.048 E12.41485
G1 X127.609 Y102.316 E12.4459
G1 X129.853 Y103.948 E12.56125
G1 X130.68 Y105 E12.61689
G1 X132.76 Y105 E12.70336
G1 X134.464 Y105.419 E12.77632
G1 X136.286 Y106.365 E12.86167
G1 X137.606 Y107.776 E12.942
G1 X138.605 Y109.458 E13.02333
G1 X139 Y111.43 E13.10695
G1 X139 Y117.76 E13.37012
G1 X138.581 Y119.464 E13.44307
G1 X137.635 Y121.286 E13.52843
G1 X136.224 Y122.606 E13.60876
G1 X134.542 Y123.605 E13.69009
G1 X132.57 Y124 E13.77371
G1 X128.098 Y124 E13.95963
G1 X127.595 Y124.602 E13.99224
G1 X126.5 Y125.27 E14.04557
G1 X126.5 Y128.76 E14.19067
G1 X126.081 Y130.464 E14.26362
G1 X125.135 Y132.286 E14.34898
G1 X123.724 Y133.606 E14.42931
G1 X122.042 Y134.605 E14.51064
G1 X120.07 Y135 E14.59425
G1 X114.74 Y135 E14.81585
G1 X113.036 Y134.581 E14.8888
G1 X111.214 Y133.635 E14.97416
G1 X109.894 Y132.224 E15.05449
G1 X108.895 Y130.542 E15.13582
G1 X108.5 Y128.57 E15.21944
G1 X108.5 Y125.269 E15.35668
G1 X107.61 Y124.71 E15.40037
G1 X106.882 Y124 E15.44265
G1 X102.24 Y124 E15.63564
G1 X100.536 Y123.581 E15.70859
G1 X98.714 Y122.635 E15.79395
G1 X97.394 Y121.224 E15.87428
G1 X96.395 Y119.542 E15.95561
G1 X96 Y117.57 E16.03923
G1 X96 Y111.24 E16.3024
G1 X96.419 Y109.536 E16.37535
G1 X97.365 Y107.714 E16.4607
G1 X98.776 Y106.394 E16.54103
G0 F3000 X99.017 Y106.716
G1 F600 X100.604 Y105.773 E16.61778
G1 X102.468 Y105.4 E16.69681
G1 X104.914 Y105.4 E16.79851
G1 X105.913 Y104.17 E16.86439
G1 X108.006 Y102.536 E16.97478
G1 X108.415 Y102.367 E16.99318
G1 X108.65 Y102.135 E17.00691
G1 X110.091 Y101.282 E17.07653
G1 X112.981 Y100.343 E17.20286
G1 X114.942 Y100.427 E17.28447
G1 X115.896 Y100.585 E17.32467
G1 X117.459 Y101.307 E17.39625
G1 X117.758 Y101.127 E17.41076
G1 X120.619 Y100.199 E17.53581
G1 X122.507 Y100.273 E17.61436
G1 X123.568 Y100.441 E17.65902
G1 X125.084 Y101.144 E17.7285
G1 X126.43 Y102.119 E17.7976
G1 X126.684 Y102.389 E17.81301
G1 X127.415 Y102.67 E17.84557
G1 X129.573 Y104.239 E17.95649
G1 X130.338 Y105.207 E18.00779
G1 X130.458 Y105.4 E18.01724
G1 X132.714 Y105.4 E18.11103
G1 X134.321 Y105.795 E18.17983
G1 X136.041 Y106.688 E18.2604
G1 X137.284 Y108.017 E18.33606
G1 X138.227 Y109.604 E18.41281
G1 X138.6 Y111.468 E18.49184
G1 X138.6 Y117.714 E18.75152
G1 X138.205 Y119.321 E18.82032
G1 X137.312 Y121.041 E18.90089
G1 X135.983 Y122.284 E18.97654
G1 X134.396 Y123.227 E19.05329
G1 X132.532 Y123.6 E19.13233
G1 X127.911 Y123.6 E19.32444
G1 X127.328 Y124.297 E19.36222
G1 X126.1 Y125.046 E19.42203
G1 X126.1 Y128.714 E19.57452
G1 X125.705 Y130.321 E19.64332
G1 X124.812 Y132.041 E19.7239
G1 X123.483 Y133.284 E19.79955
G1 X121.896 Y134.227 E19.8763
G1 X120.032 Y134.6 E19.95533
G1 X114.786 Y134.6 E20.17343
G1 X113.179 Y134.205 E20.24223
G1 X111.459 Y133.312 E20.32281
G1 X110.216 Y131.983 E20.39846
G1 X109.273 Y130.396 E20.47521
G1 X108.9 Y128.532 E20.55424
G1 X108.9 Y125.047 E20.69913
G1 X107.859 Y124.393 E20.75024
G1 X107.045 Y123.6 E20.79749
G1 X102.286 Y123.6 E20.99535
G1 X100.679 Y123.205 E21.06415
G1 X98.959 Y122.312 E21.14472
G1 X97.716 Y120.983 E21.22037
G1 X96.773 Y119.396 E21.29712
G1 X96.4 Y117.532 E21.37616
G1 X96.4 Y111.286 E21.63583
G1 X96.795 Y109.679 E21.70463
G1 X97.688 Y107.959 E21.78521
G1 X99.017 Y106.716 E21.86086
G0 F3000 X99.258 Y107.038
G1 F600 X100.75 Y106.151 E21.93302
G1 X102.506 Y105.8 E22.00747
G1 X105.104 Y105.8 E22.11549
G1 X106.194 Y104.458 E22.18737
G1 X108.207 Y102.886 E22.29355
G1 X108.64 Y102.707 E22.31303
G1 X108.897 Y102.454 E22.32803
G1 X110.258 Y101.648 E22.39379
G1 X113.034 Y100.746 E22.51514
G1 X114.876 Y100.822 E22.59179
G1 X115.779 Y100.972 E22.62984
G1 X117.213 Y101.634 E22.69551
G1 X117.435 Y101.789 E22.70677
G1 X117.923 Y101.494 E22.73047
G1 X120.675 Y100.602 E22.85075
G1 X122.491 Y100.673 E22.92631
G1 X123.451 Y100.828 E22.96674
G1 X124.879 Y101.49 E23.03217
G1 X126.167 Y102.423 E23.0983
G1 X126.455 Y102.729 E23.11577
G1 X127.22 Y103.023 E23.14984
G1 X129.294 Y104.531 E23.25645
G1 X129.998 Y105.418 E23.30353
G1 X130.235 Y105.8 E23.32222
G1 X132.668 Y105.8 E23.42337
G1 X134.178 Y106.171 E23.48802
G1 X135.796 Y107.011 E23.56381
G1 X136.962 Y108.258 E23.63479
G1 X137.849 Y109.75 E23.70695
G1 X138.2 Y111.506 E23.7814
G1 X138.2 Y117.668 E24.03759
G1 X137.829 Y119.178 E24.10224
G1 X136.989 Y120.796 E24.17803
G1 X135.742 Y121.962 E24.24901
G1 X134.25 Y122.849 E24.32117
G1 X132.494 Y123.2 E24.39562
G1 X127.724 Y123.2 E24.59393
G1 X127.063 Y123.99 E24.63676
G1 X125.7 Y124.821 E24.70313
G1 X125.7 Y128.668 E24.86307
G1 X125.329 Y130.178 E24.92771
G1 X124.489 Y131.796 E25.00351
G1 X123.242 Y132.962 E25.07448
G1 X121.75 Y133.849 E25.14665
G1 X119.994 Y134.2 E25.2211
G1 X114.832 Y134.2 E25.43571
G1 X113.322 Y133.829 E25.50036
G1 X111.704 Y132.989 E25.57615
G1 X110.538 Y131.742 E25.64713
G1 X109.651 Y130.25 E25.71929
G1 X109.3 Y128.494 E25.79374
G1 X109.3 Y124.826 E25.94624
G1 X108.105 Y124.075 E26.00492
G1 X107.207 Y123.2 E26.05705
G1 X102.332 Y123.2 E26.25972
G1 X100.822 Y122.829 E26.32437
G1 X99.204 Y121.989 E26.40016
G1 X98.038 Y120.742 E26.47114
G1 X97.151 Y119.25 E26.54331
G1 X96.8 Y117.494 E26.61776
G1 X96.8 Y111.332 E26.87394
G1 X97.171 Y109.822 E26.93859
G1 X98.011 Y108.204 E27.01438
G1 X99.258 Y107.038 E27.08536
G0 F3000 X99.499 Y107.36
G1 F600 X100.896 Y106.529 E27.15294
G1 X102.544 Y106.2 E27.22281
G1 X105.335 Y106.2 E27.33884
G1 X105.415 Y106.052 E27.34584
G1 X106.478 Y104.743 E27.41594
G1 X108.411 Y103.234 E27.5179
G1 X108.874 Y103.042 E27.53873
G1 X109.101 Y102.798 E27.55259
G1 X110.425 Y102.014 E27.61656
G1 X113.088 Y101.149 E27.73297
G1 X114.811 Y101.217 E27.80466
G1 X115.661 Y101.358 E27.84048
G1 X117.045 Y101.997 E27.90386
G1 X117.412 Y102.27 E27.92288
G1 X118.088 Y101.861 E27.95572
G1 X120.731 Y101.005 E28.07123
G1 X122.475 Y101.073 E28.14379
G1 X123.334 Y101.215 E28.17999
G1 X124.674 Y101.836 E28.24139
G1 X125.904 Y102.727 E28.30453
G1 X126.226 Y103.069 E28.32406
G1 X127.025 Y103.376 E28.35965
G1 X129.015 Y104.823 E28.46194
G1 X129.658 Y105.629 E28.50481
G1 X130.013 Y106.2 E28.53276
G1 X132.621 Y106.2 E28.64119
G1 X134.036 Y106.548 E28.70177
G1 X135.551 Y107.334 E28.77273
G1 X136.64 Y108.499 E28.83903
G1 X137.471 Y109.896 E28.90661
G1 X137.8 Y111.544 E28.97648
G1 X137.8 Y117.621 E29.22913
G1 X137.452 Y119.036 E29.28972
G1 X136.666 Y120.551 E29.36067
G1 X135.501 Y121.64 E29.42697
G1 X134.104 Y122.471 E29.49455
G1 X132.456 Y122.8 E29.56442
G1 X127.537 Y122.8 E29.76893
G1 X126.8 Y123.682 E29.81672
G1 X125.498 Y124.476 E29.88012
G1 X125.3 Y124.559 E29.88904
G1 X125.3 Y128.621 E30.05792
G1 X124.952 Y130.036 E30.1185
G1 X124.166 Y131.551 E30.18946
G1 X123.001 Y132.64 E30.25576
G1 X121.604 Y133.471 E30.32334
G1 X119.956 Y133.8 E30.39321
G1 X114.879 Y133.8 E30.60429
G1 X113.464 Y133.452 E30.66487
G1 X111.949 Y132.666 E30.73583
G1 X110.86 Y131.501 E30.80213
G1 X110.029 Y130.104 E30.86971
G1 X109.7 Y128.456 E30.93958
G1 X109.7 Y124.563 E31.10143
G1 X109.489 Y124.475 E31.11093
G1 X108.357 Y123.761 E31.16658
G1 X107.52 Y122.952 E31.21497
G1 X107.41 Y122.8 E31.22277
G1 X102.379 Y122.8 E31.43194
G1 X100.964 Y122.452 E31.49252
G1 X99.449 Y121.666 E31.56348
G1 X98.36 Y120.501 E31.62978
G1 X97.529 Y119.104 E31.69736
G1 X97.2 Y117.456 E31.76723
G1 X97.2 Y111.379 E32.01988
G1 X97.548 Y109.964 E32.08046
G1 X98.334 Y108.449 E32.15142
G1 X99.499 Y107.36 E32.21772
G0 F3000 X99.738 Y107.684
G1 F600 X101.044 Y106.907 E32.2809
G1 X102.582 Y106.6 E32.34611
G1 X105.6 Y106.6 E32.47158
G1 X105.725 Y106.304 E32.48494
G1 X106.759 Y105.031 E32.55312
G1 X108.612 Y103.584 E32.65087
G1 X109.107 Y103.379 E32.67314
G1 X109.354 Y103.113 E32.68823
G1 X110.593 Y102.379 E32.74811
G1 X113.141 Y101.552 E32.85948
G1 X114.746 Y101.612 E32.92625
G1 X115.543 Y101.744 E32.95984
G1 X116.839 Y102.342 E33.01918
G1 X117.389 Y102.751 E33.04768
G1 X118.253 Y102.228 E33.08967
G1 X120.787 Y101.408 E33.2004
G1 X122.41 Y101.468 E33.26792
G1 X123.216 Y101.601 E33.30188
G1 X124.469 Y102.182 E33.3593
G1 X125.641 Y103.031 E33.41947
G1 X125.997 Y103.409 E33.44106
G1 X126.833 Y103.73 E33.47829
G1 X128.735 Y105.114 E33.57609
G1 X129.318 Y105.84 E33.6148
G1 X129.79 Y106.6 E33.65199
G1 X132.575 Y106.6 E33.76778
G1 X133.893 Y106.924 E33.82421
G1 X135.306 Y107.657 E33.89039
G1 X136.316 Y108.738 E33.95189
G1 X137.093 Y110.044 E34.01507
G1 X137.4 Y111.582 E34.08028
G1 X137.4 Y117.575 E34.32944
G1 X137.076 Y118.893 E34.38586
G1 X136.343 Y120.306 E34.45204
G1 X135.262 Y121.316 E34.51355
G1 X133.956 Y122.093 E34.57673
G1 X132.418 Y122.4 E34.64193
G1 X127.35 Y122.4 E34.85264
G1 X126.535 Y123.375 E34.90547
G1 X125.29 Y124.134 E34.96609
G1 X124.9 Y124.283 E34.98345
G1 X124.9 Y128.575 E35.16189
G1 X124.576 Y129.893 E35.21832
G1 X123.843 Y131.306 E35.2845
G1 X122.762 Y132.316 E35.346
G1 X121.456 Y133.093 E35.40918
G1 X119.918 Y133.4 E35.47439
G1 X114.925 Y133.4 E35.68197
G1 X113.607 Y133.076 E35.7384
G1 X112.194 Y132.343 E35.80458
G1 X111.184 Y131.262 E35.86609
G1 X110.407 Y129.956 E35.92927
G1 X110.1 Y128.418 E35.99447
G1 X110.1 Y124.285 E36.1663
G1 X109.702 Y124.137 E36.18395
G1 X108.608 Y123.447 E36.23773
G1 X107.798 Y122.664 E36.28457
G1 X107.628 Y122.4 E36.29762
G1 X102.425 Y122.4 E36.51394
G1 X101.107 Y122.076 E36.57036
G1 X99.694 Y121.343 E36.63654
G1 X98.684 Y120.262 E36.69805
G1 X97.907 Y118.956 E36.76123
G1 X97.6 Y117.418 E36.82644
G1 X97.6 Y111.425 E37.0756
G1 X97.924 Y110.107 E37.13202
G1 X98.657 Y108.694 E37.1982
G1 X99.738 Y107.684 E37.25971
G0 F3000 X99.977 Y108.008
G1 F600 X101.192 Y107.285 E37.31849
G1 X102.62 Y107 E37.37903
G1 X105.892 Y107 E37.51506
G1 X106.035 Y106.556 E37.53446
G1 X107.04 Y105.319 E37.60072
G1 X108.816 Y103.932 E37.69441
G1 X109.356 Y103.708 E37.71871
G1 X109.558 Y103.457 E37.73211
G1 X110.761 Y102.745 E37.79023
G1 X113.195 Y101.955 E37.89662
G1 X114.681 Y102.007 E37.95843
G1 X115.426 Y102.13 E37.98983
G1 X116.633 Y102.687 E38.04509
G1 X117.366 Y103.233 E38.08309
G1 X118.418 Y102.595 E38.13425
G1 X120.843 Y101.811 E38.2402
G1 X122.345 Y101.863 E38.30269
G1 X123.098 Y101.987 E38.33441
G1 X124.264 Y102.528 E38.38786
G1 X125.378 Y103.335 E38.44505
G1 X125.768 Y103.749 E38.46869
G1 X126.641 Y104.084 E38.50757
G1 X128.456 Y105.405 E38.6009
G1 X128.978 Y106.051 E38.63543
G1 X129.568 Y107 E38.68189
G1 X132.529 Y107 E38.80499
G1 X133.75 Y107.3 E38.85726
G1 X135.061 Y107.98 E38.91866
G1 X135.992 Y108.977 E38.97538
G1 X136.715 Y110.192 E39.03416
G1 X137 Y111.62 E39.0947
G1 X137 Y117.529 E39.34036
G1 X136.7 Y118.75 E39.39264
G1 X136.02 Y120.061 E39.45404
G1 X135.023 Y120.992 E39.51075
G1 X133.808 Y121.715 E39.56953
G1 X132.38 Y122 E39.63007
G1 X127.163 Y122 E39.84697
G1 X126.27 Y123.068 E39.90485
G1 X125.112 Y123.774 E39.96123
G1 X124.56 Y123.984 E39.98579
G1 X124.5 Y124.049 E39.98947
G1 X124.5 Y128.529 E40.17572
G1 X124.2 Y129.75 E40.228
G1 X123.52 Y131.061 E40.2894
G1 X122.523 Y131.992 E40.34611
G1 X121.308 Y132.715 E40.40489
G1 X119.88 Y133 E40.46543
G1 X114.971 Y133 E40.66952
G1 X113.75 Y132.7 E40.7218
G1 X112.439 Y132.02 E40.7832
G1 X111.508 Y131.023 E40.83991
G1 X110.785 Y129.808 E40.89869
G1 X110.5 Y128.38 E40.95923
G1 X110.5 Y124.076 E41.13817
G1 X110.464 Y123.994 E41.14189
G1 X109.877 Y123.775 E41.16794
G1 X108.859 Y123.133 E41.21798
G1 X108.076 Y122.376 E41.26326
G1 X107.86 Y122 E41.28129
G1 X102.471 Y122 E41.50533
G1 X101.25 Y121.7 E41.55761
G1 X99.939 Y121.02 E41.61901
G1 X99.008 Y120.023 E41.67572
G1 X98.285 Y118.808 E41.7345
G1 X98 Y117.38 E41.79504
G1 X98 Y111.471 E42.04071
G1 X98.3 Y110.25 E42.09298
G1 X98.98 Y108.939 E42.15438
G1 X99.977 Y108.008 E42.2111
G0 F3000 X100.216 Y108.332
G1 F600 X101.34 Y107.663 E42.26548
