;FLAVOR:Marlin
;TIME:642
;Filament used: 0.327608m
;Layer height: 0.2
;MINX:102.348
;MINY:104.602
;MINZ:0.25
;MAXX:132.652
;MAXY:130.399
;MAXZ:2.65
;Generated with Cura_SteamEngine 5.3.0
M140 S85
M105
M190 S85
M104 S240
M105
M109 S240
M82 ;absolute extrusion mode
START_PRINT
G92 E0
G92 E0
G1 F1500 E-8
;LAYER_COUNT:13
;LAYER:0
M107
G0 F6000 X103.871 Y106.131 Z0.25
;TYPE:SKIRT
G1 F1500 E0
G1 F1200 X104.995 Y105.307 E0.05794
G1 X106.246 Y104.74 E0.11505
G1 X107.285 Y104.602 E0.15862
G1 X127.715 Y104.602 E1.008
G1 X128.755 Y104.74 E1.05162
G1 X129.991 Y105.3 E1.10803
G1 X131.129 Y106.129 E1.16657
G1 X132.048 Y107.4 E1.23178
G1 X132.533 Y108.686 E1.28892
G1 X132.649 Y109.566 E1.32582
G1 X132.652 Y125.414 E1.98471
G1 X132.507 Y126.516 E2.03092
G1 X131.941 Y127.762 E2.08781
G1 X131.129 Y128.869 E2.14489
G1 X130.005 Y129.693 E2.20283
G1 X128.754 Y130.26 E2.25994
G1 X127.715 Y130.398 E2.30351
G1 X107.28 Y130.399 E3.1531
G1 X106.244 Y130.262 E3.19655
G1 X104.996 Y129.687 E3.25368
G1 X103.868 Y128.866 E3.31168
G1 X102.954 Y127.604 E3.37646
G1 X102.468 Y126.314 E3.43377
G1 X102.351 Y125.434 E3.47068
G1 X102.348 Y109.586 E4.12957
G1 X102.493 Y108.484 E4.17578
G1 X103.059 Y107.238 E4.23267
G1 X103.871 Y106.131 E4.28975
G0 F6000 X104.159 Y106.416
G1 F1200 X105.2 Y105.653 E4.34341
G1 X106.355 Y105.129 E4.39614
G1 X107.337 Y104.999 E4.43732
G1 X127.663 Y104.999 E5.28238
G1 X128.646 Y105.129 E5.32361
G1 X129.79 Y105.648 E5.37583
G1 X130.842 Y106.414 E5.42994
G1 X131.693 Y107.591 E5.49032
G1 X132.141 Y108.781 E5.54319
G1 X132.252 Y109.619 E5.57833
G1 X132.255 Y125.362 E6.23285
G1 X132.118 Y126.406 E6.27662
G1 X131.595 Y127.556 E6.32915
G1 X130.841 Y128.584 E6.38215
G1 X129.8 Y129.347 E6.43581
G1 X128.645 Y129.871 E6.48854
G1 X127.663 Y130.001 E6.52972
G1 X107.333 Y130.002 E7.37495
G1 X106.353 Y129.872 E7.41605
G1 X105.201 Y129.342 E7.46877
G1 X104.155 Y128.58 E7.52257
G1 X103.308 Y127.411 E7.58259
G1 X102.859 Y126.219 E7.63555
G1 X102.748 Y125.381 E7.67069
G1 X102.745 Y109.638 E8.32521
G1 X102.882 Y108.594 E8.36898
G1 X103.405 Y107.444 E8.42151
G1 X104.159 Y106.416 E8.47451
G0 F6000 X104.447 Y106.701
G1 F1200 X105.405 Y105.999 E8.52389
G1 X106.463 Y105.519 E8.57219
G1 X107.39 Y105.396 E8.61107
G1 X127.61 Y105.396 E9.45172
G1 X128.538 Y105.519 E9.49064
G1 X129.589 Y105.996 E9.53862
G1 X130.555 Y106.699 E9.58829
G1 X131.338 Y107.782 E9.64386
G1 X131.75 Y108.876 E9.69246
G1 X131.855 Y109.671 E9.7258
G1 X131.858 Y125.31 E10.37599
G1 X131.729 Y126.296 E10.41733
G1 X131.249 Y127.35 E10.46548
G1 X130.553 Y128.299 E10.51441
G1 X129.595 Y129.001 E10.56379
G1 X128.537 Y129.481 E10.61209
G1 X127.61 Y129.604 E10.65097
G1 X107.385 Y129.605 E11.49183
G1 X106.463 Y129.483 E11.53049
G1 X105.406 Y128.997 E11.57886
G1 X104.442 Y128.294 E11.62846
G1 X103.662 Y127.218 E11.68372
G1 X103.25 Y126.124 E11.73232
G1 X103.145 Y125.329 E11.76566
G1 X103.142 Y109.69 E12.41585
G1 X103.271 Y108.704 E12.45719
G1 X103.751 Y107.65 E12.50534
G1 X104.447 Y106.701 E12.55427
G0 F6000 X104.735 Y106.986
G1 F1200 X105.61 Y106.345 E12.59937
G1 X106.572 Y105.908 E12.6433
G1 X107.442 Y105.793 E12.67978
G1 X127.558 Y105.793 E13.51611
G1 X128.428 Y105.908 E13.55259
G1 X129.389 Y106.345 E13.59648
G1 X130.266 Y106.983 E13.64157
G1 X130.984 Y107.975 E13.69248
G1 X131.359 Y108.971 E13.73673
G1 X131.458 Y109.723 E13.76827
G1 X131.461 Y125.258 E14.41414
G1 X131.34 Y126.186 E14.45304
G1 X130.903 Y127.144 E14.49682
G1 X130.265 Y128.014 E14.54168
G1 X129.39 Y128.655 E14.58677
G1 X128.428 Y129.092 E14.6307
G1 X127.558 Y129.207 E14.66718
G1 X107.437 Y129.208 E15.50372
G1 X106.573 Y129.094 E15.53995
G1 X105.609 Y128.65 E15.58408
G1 X104.73 Y128.01 E15.62928
G1 X104.016 Y127.025 E15.67986
G1 X103.641 Y126.029 E15.72411
G1 X103.542 Y125.277 E15.75564
G1 X103.539 Y109.742 E16.40151
G1 X103.66 Y108.814 E16.44042
G1 X104.097 Y107.856 E16.4842
G1 X104.735 Y106.986 E16.52905
G0 F6000 X105.023 Y107.271
G1 F1200 X105.813 Y106.692 E16.56977
G1 X106.682 Y106.297 E16.60946
G1 X107.494 Y106.19 E16.64351
G1 X127.506 Y106.19 E17.47551
G1 X128.318 Y106.297 E17.50956
G1 X129.187 Y106.692 E17.54925
G1 X129.979 Y107.269 E17.58999
G1 X130.63 Y108.168 E17.63613
G1 X130.968 Y109.066 E17.67602
G1 X131.061 Y109.775 E17.70575
G1 X131.064 Y125.206 E18.3473
G1 X130.951 Y126.076 E18.38377
G1 X130.557 Y126.938 E18.42318
G1 X129.977 Y127.729 E18.46396
G1 X129.187 Y128.308 E18.50468
G1 X128.318 Y128.703 E18.54437
G1 X127.506 Y128.81 E18.57842
G1 X107.49 Y128.811 E19.41058
G1 X106.682 Y128.704 E19.44447
G1 X105.811 Y128.303 E19.48434
G1 X105.018 Y127.726 E19.52511
G1 X104.37 Y126.832 E19.57101
G1 X104.032 Y125.934 E19.61091
G1 X103.939 Y125.225 E19.64063
G1 X103.936 Y109.794 E20.28218
G1 X104.049 Y108.924 E20.31866
G1 X104.443 Y108.062 E20.35806
G1 X105.023 Y107.271 E20.39884
G0 F6000 X105.309 Y107.557
G1 F1200 X106.016 Y107.039 E20.43528
G1 X106.792 Y106.686 E20.47072
G1 X107.546 Y106.587 E20.50234
G1 X127.454 Y106.587 E21.33002
G1 X128.208 Y106.686 E21.36163
G1 X128.984 Y107.039 E21.39708
G1 X129.692 Y107.555 E21.4335
G1 X130.276 Y108.361 E21.47488
G1 X130.577 Y109.161 E21.51042
G1 X130.664 Y109.827 E21.53834
G1 X130.667 Y125.155 E22.17561
G1 X130.562 Y125.965 E22.20956
G1 X130.21 Y126.735 E22.24476
G1 X129.691 Y127.443 E22.28126
G1 X128.984 Y127.961 E22.3177
G1 X128.208 Y128.314 E22.35314
G1 X127.454 Y128.413 E22.38476
G1 X107.542 Y128.414 E23.2126
G1 X106.792 Y128.315 E23.24406
G1 X106.016 Y127.958 E23.27957
G1 X105.305 Y127.44 E23.31614
G1 X104.724 Y126.639 E23.35728
G1 X104.423 Y125.839 E23.39282
G1 X104.336 Y125.173 E23.42074
G1 X104.333 Y109.845 E24.05801
G1 X104.438 Y109.035 E24.09196
G1 X104.79 Y108.265 E24.12716
G1 X105.309 Y107.557 E24.16366
G0 F6000 X105.595 Y107.843
G1 F1200 X106.219 Y107.386 E24.19582
G1 X106.902 Y107.075 E24.22702
G1 X107.598 Y106.984 E24.2562
G1 X127.402 Y106.984 E25.07955
G1 X128.098 Y107.075 E25.10874
G1 X128.781 Y107.386 E25.13994
G1 X129.405 Y107.841 E25.17205
G1 X129.922 Y108.554 E25.20866
G1 X130.186 Y109.256 E25.23984
G1 X130.267 Y109.879 E25.26596
G1 X130.27 Y125.104 E25.89894
G1 X130.173 Y125.854 E25.93038
G1 X129.863 Y126.532 E25.96138
G1 X129.405 Y127.157 E25.99359
G1 X128.781 Y127.614 E26.02575
G1 X128.098 Y127.925 E26.05695
G1 X127.402 Y128.016 E26.08613
G1 X107.595 Y128.017 E26.90961
G1 X106.901 Y127.925 E26.93872
G1 X106.218 Y127.611 E26.96997
G1 X105.593 Y127.156 E27.00211
G1 X105.078 Y126.446 E27.03858
G1 X104.814 Y125.744 E27.06976
G1 X104.733 Y125.121 E27.09588
G1 X104.73 Y109.896 E27.72886
G1 X104.827 Y109.146 E27.7603
G1 X105.137 Y108.468 E27.7913
G1 X105.595 Y107.843 E27.82351
G0 F6000 X105.881 Y108.129
G1 F1200 X106.422 Y107.733 E27.85139
G1 X107.012 Y107.464 E27.87834
G1 X107.65 Y107.381 E27.90509
G1 X127.35 Y107.381 E28.72412
G1 X127.988 Y107.464 E28.75087
G1 X128.578 Y107.733 E28.77783
G1 X129.118 Y108.127 E28.80562
G1 X129.568 Y108.747 E28.83747
G1 X129.796 Y109.353 E28.86439
G1 X129.867 Y109.879 E28.88646
G1 X129.87 Y125.104 E29.51944
G1 X129.785 Y125.741 E29.54616
G1 X129.516 Y126.329 E29.57304
G1 X129.119 Y126.871 E29.60097
G1 X128.578 Y127.267 E29.62885
G1 X127.988 Y127.536 E29.65581
G1 X127.35 Y127.619 E29.68255
G1 X107.647 Y127.62 E30.50171
G1 X107.011 Y127.536 E30.52838
G1 X106.42 Y127.264 E30.55543
G1 X105.881 Y126.872 E30.58314
G1 X105.432 Y126.253 E30.61493
G1 X105.204 Y125.647 E30.64185
G1 X105.133 Y125.121 E30.66392
G1 X105.13 Y109.896 E31.2969
G1 X105.215 Y109.259 E31.32362
G1 X105.484 Y108.671 E31.3505
G1 X105.881 Y108.129 E31.37843
G0 F6000 X106.167 Y108.415
G1 F1200 X106.625 Y108.08 E31.40202
G1 X107.123 Y107.853 E31.42478
G1 X107.701 Y107.778 E31.44901
G1 X127.299 Y107.778 E32.2638
G1 X127.877 Y107.853 E32.28803
G1 X128.375 Y108.08 E32.31078
G1 X128.831 Y108.413 E32.33426
G1 X129.214 Y108.94 E32.36134
G1 X129.406 Y109.45 E32.384
G1 X129.467 Y109.879 E32.40202
G1 X129.473 Y125.051 E33.03279
G1 X129.396 Y125.63 E33.05708
G1 X129.169 Y126.126 E33.07976
G1 X128.833 Y126.585 E33.10341
G1 X128.375 Y126.92 E33.127
G1 X127.877 Y127.147 E33.14975
G1 X127.299 Y127.222 E33.17398
G1 X107.7 Y127.223 E33.98881
G1 X107.12 Y127.146 E34.01314
G1 X106.626 Y126.919 E34.03574
G1 X106.168 Y126.586 E34.05929
G1 X105.786 Y126.06 E34.08631
G1 X105.594 Y125.55 E34.10897
G1 X105.533 Y125.121 E34.12698
G1 X105.527 Y109.949 E34.75776
G1 X105.604 Y109.37 E34.78205
G1 X105.831 Y108.874 E34.80472
G1 X106.167 Y108.415 E34.82837
G0 F6000 X106.453 Y108.701
G1 F1200 X106.828 Y108.427 E34.84768
G1 X107.234 Y108.242 E34.86623
G1 X107.752 Y108.175 E34.88795
G1 X127.248 Y108.175 E35.6985
G1 X127.766 Y108.242 E35.72021
G1 X128.172 Y108.427 E35.73876
G1 X128.546 Y108.7 E35.75801
G1 X128.859 Y109.13 E35.78012
G1 X129.017 Y109.55 E35.79878
G1 X129.067 Y109.879 E35.81262
G1 X129.076 Y124.998 E36.44119
G1 X129.007 Y125.518 E36.463
G1 X128.821 Y125.924 E36.48157
G1 X128.547 Y126.299 E36.50088
G1 X128.172 Y126.573 E36.52018
G1 X127.766 Y126.758 E36.53873
G1 X127.248 Y126.825 E36.56045
G1 X107.752 Y126.826 E37.371
G1 X107.23 Y126.757 E37.39289
G1 X106.828 Y126.572 E37.41129
G1 X106.454 Y126.3 E37.43051
G1 X106.141 Y125.87 E37.45263
G1 X105.983 Y125.45 E37.47128
G1 X105.933 Y125.121 E37.48512
G1 X105.924 Y110.002 E38.11369
G1 X105.993 Y109.482 E38.1355
G1 X106.179 Y109.076 E38.15407
G1 X106.453 Y108.701 E38.17338
G0 F6000 X106.74 Y108.986
G1 F1200 X107.027 Y108.777 E38.18814
G1 X107.348 Y108.63 E38.20282
G1 X107.752 Y108.575 E38.21977
G1 X127.248 Y108.575 E39.03032
G1 X127.652 Y108.63 E39.04727
G1 X127.973 Y108.777 E39.06195
G1 X128.26 Y108.986 E39.07671
G1 X128.504 Y109.321 E39.09394
G1 X128.627 Y109.648 E39.10846
G1 X128.671 Y109.939 E39.1207
G1 X128.676 Y124.998 E39.74678
G1 X128.619 Y125.404 E39.76382
G1 X128.473 Y125.722 E39.77837
G1 X128.26 Y126.014 E39.7934
G1 X127.973 Y126.223 E39.80816
G1 X127.652 Y126.37 E39.82284
G1 X127.248 Y126.425 E39.83979
G1 X107.752 Y126.426 E40.65034
G1 X107.345 Y126.369 E40.66742
G1 X107.027 Y126.223 E40.68197
G1 X106.74 Y126.014 E40.69673
G1 X106.496 Y125.679 E40.71396
G1 X106.373 Y125.352 E40.72849
G1 X106.329 Y125.061 E40.74072
G1 X106.324 Y110.002 E41.3668
G1 X106.381 Y109.596 E41.38385
G1 X106.527 Y109.278 E41.3984
G1 X106.74 Y108.986 E41.41342
G0 F6000 X107.024 Y109.274
G1 F1200 X107.262 Y109.101 E41.42566
G1 X107.458 Y109.019 E41.43449
G1 X107.752 Y108.975 E41.44685
G1 X127.248 Y108.975 E42.2574
G1 X127.542 Y109.019 E42.26976
G1 X127.738 Y109.101 E42.27859
G1 X127.976 Y109.274 E42.29082
G1 X128.15 Y109.513 E42.30311
G1 X128.231 Y109.708 E42.31189
G1 X128.275 Y109.999 E42.32413
G1 X128.276 Y124.998 E42.94772
G1 X128.231 Y125.292 E42.96008
G1 X128.15 Y125.487 E42.96886
G1 X127.976 Y125.726 E42.98115
G1 X127.738 Y125.899 E42.99338
G1 X127.542 Y125.981 E43.00222
G1 X127.248 Y126.025 E43.01458
G1 X107.752 Y126.026 E43.82512
G1 X107.458 Y125.981 E43.83749
G1 X107.262 Y125.899 E43.84632
G1 X107.024 Y125.726 E43.85856
G1 X106.85 Y125.487 E43.87085
G1 X106.769 Y125.292 E43.87963
G1 X106.725 Y125.001 E43.89186
G1 X106.724 Y110.002 E44.51545
G1 X106.769 Y109.708 E44.52781
G1 X106.85 Y109.513 E44.53659
G1 X107.024 Y109.274 E44.54888
G1 F1500 E36.54888
;MESH:F??hrungsbuchse.stl
G0 F6000 X111.303 Y114.568
G0 X117.466 Y124.175
;TYPE:WALL-INNER
G1 F1500 E44.54888
G1 F1200 X116.788 Y124.137 E44.57711
G1 X116.048 Y124.016 E44.60829
G1 X115.264 Y123.79 E44.64221
G1 X114.636 Y123.53 E44.67047
G1 X113.915 Y123.132 E44.70471
G1 X113.365 Y122.74 E44.73279
G1 X112.804 Y122.244 E44.76392
G1 X112.302 Y121.687 E44.7951
G1 X111.832 Y121.027 E44.82878
G1 X111.47 Y120.364 E44.86019
G1 X111.21 Y119.736 E44.88845
G1 X111 Y119.017 E44.91959
G1 X110.865 Y118.222 E44.95311
G1 X110.827 Y117.476 E44.98417
G1 X110.864 Y116.781 E45.0131
G1 X110.985 Y116.048 E45.04399
G1 X111.21 Y115.264 E45.0779
G1 X111.47 Y114.636 E45.10616
G1 X111.832 Y113.973 E45.13757
G1 X112.26 Y113.365 E45.16848
G1 X112.804 Y112.756 E45.20243
G1 X113.365 Y112.26 E45.23356
G1 X113.915 Y111.868 E45.26164
G1 X114.636 Y111.47 E45.29588
G1 X115.264 Y111.21 E45.32414
G1 X116.048 Y110.984 E45.35806
G1 X116.788 Y110.863 E45.38923
G1 X117.534 Y110.825 E45.42029
G1 X118.212 Y110.863 E45.44852
G1 X118.952 Y110.984 E45.4797
G1 X119.736 Y111.21 E45.51362
G1 X120.364 Y111.47 E45.54188
G1 X121.085 Y111.868 E45.57612
G1 X121.635 Y112.26 E45.6042
G1 X122.244 Y112.804 E45.63815
G1 X122.74 Y113.365 E45.66928
G1 X123.168 Y113.973 E45.70019
G1 X123.53 Y114.636 E45.7316
G1 X123.812 Y115.328 E45.76266
G1 X124.015 Y116.049 E45.7938
G1 X124.127 Y116.712 E45.82176
G1 X124.174 Y117.491 E45.85421
G1 X124.128 Y118.288 E45.8874
G1 X124.015 Y118.955 E45.91552
G1 X123.79 Y119.736 E45.94931
G1 X123.53 Y120.364 E45.97757
G1 X123.168 Y121.027 E46.00898
G1 X122.74 Y121.635 E46.03989
G1 X122.196 Y122.244 E46.07384
G1 X121.635 Y122.74 E46.10497
G1 X121.085 Y123.132 E46.13305
G1 X120.364 Y123.53 E46.16729
G1 X119.736 Y123.79 E46.19555
G1 X118.952 Y124.016 E46.22947
G1 X118.212 Y124.137 E46.26065
G1 X117.466 Y124.175 E46.2917
G1 F1500 E38.2917
G0 F6000 X117.454 Y124.274
G0 X120.433 Y123.697
G0 X120.433 Y125.025
G0 X127.289 Y125.225
G1 F1500 E46.2917
G1 F1200 X127.404 Y125.155 E46.2973
G1 X127.476 Y125.032 E46.30322
G1 X127.476 Y109.963 E46.92972
G1 X127.405 Y109.845 E46.93545
G1 X127.285 Y109.775 E46.94122
G1 X107.712 Y109.775 E47.75497
G1 X107.595 Y109.845 E47.76064
G1 X107.524 Y109.968 E47.76654
G1 X107.525 Y125.037 E48.39304
G1 X107.595 Y125.154 E48.39871
G1 X107.718 Y125.226 E48.40464
G1 X127.289 Y125.225 E49.2183
G0 F6000 X127.375 Y125.625
;TYPE:WALL-OUTER
G1 F1200 X127.69 Y125.44 E49.23349
G1 X127.876 Y125.119 E49.24891
G1 X127.875 Y109.875 E49.88269
G1 X127.69 Y109.56 E49.89787
G1 X127.373 Y109.375 E49.91313
G1 X107.625 Y109.375 E50.73416
G1 X107.31 Y109.56 E50.74935
G1 X107.124 Y109.881 E50.76477
G1 X107.125 Y124.98 E51.39252
G1 X107.211 Y125.312 E51.40677
G1 X107.44 Y125.54 E51.42021
G1 X107.757 Y125.626 E51.43386
G1 X127.375 Y125.625 E52.24949
G1 F1500 E44.24949
G0 F6000 X127.106 Y125.125
G0 X117.454 Y125.026
G0 X117.455 Y124.355
G0 X117.488 Y123.775
G1 F1500 E52.24949
G1 F1200 X116.788 Y123.735 E52.27864
G1 X116.093 Y123.616 E52.30795
G1 X115.438 Y123.428 E52.33628
G1 X114.789 Y123.16 E52.36548
G1 X114.147 Y122.806 E52.39596
G1 X113.579 Y122.4 E52.42498
G1 X113.054 Y121.93 E52.45428
G1 X112.6 Y121.421 E52.48263
G1 X112.182 Y120.833 E52.51263
G1 X111.84 Y120.211 E52.54214
G1 X111.572 Y119.562 E52.57133
G1 X111.379 Y118.885 E52.6006
G1 X111.267 Y118.222 E52.62855
G1 X111.227 Y117.497 E52.65874
G1 X111.266 Y116.779 E52.68864
G1 X111.384 Y116.093 E52.71758
G1 X111.572 Y115.438 E52.74591
G1 X111.84 Y114.789 E52.7751
G1 X112.182 Y114.167 E52.80461
G1 X112.6 Y113.579 E52.8346
G1 X113.07 Y113.054 E52.8639
G1 X113.579 Y112.6 E52.89226
G1 X114.147 Y112.194 E52.92128
G1 X114.789 Y111.84 E52.95176
G1 X115.438 Y111.572 E52.98096
G1 X116.115 Y111.379 E53.01022
G1 X116.788 Y111.265 E53.0386
G1 X117.512 Y111.225 E53.06875
G1 X118.212 Y111.265 E53.0979
G1 X118.907 Y111.384 E53.12721
G1 X119.562 Y111.572 E53.15555
G1 X120.211 Y111.84 E53.18474
G1 X120.853 Y112.194 E53.21522
G1 X121.421 Y112.6 E53.24425
G1 X121.946 Y113.07 E53.27354
G1 X122.4 Y113.579 E53.3019
G1 X122.818 Y114.167 E53.33189
G1 X123.16 Y114.789 E53.3614
G1 X123.428 Y115.438 E53.39059
G1 X123.621 Y116.115 E53.41986
G1 X123.733 Y116.778 E53.44782
G1 X123.774 Y117.491 E53.47751
G1 X123.734 Y118.221 E53.5079
G1 X123.621 Y118.886 E53.53595
G1 X123.428 Y119.562 E53.56518
G1 X123.16 Y120.211 E53.59437
G1 X122.818 Y120.833 E53.62388
G1 X122.4 Y121.421 E53.65387
G1 X121.93 Y121.946 E53.68317
G1 X121.421 Y122.4 E53.71153
G1 X120.853 Y122.806 E53.74055
G1 X120.211 Y123.16 E53.77103
G1 X119.562 Y123.428 E53.80023
G1 X118.885 Y123.621 E53.82949
G1 X118.212 Y123.735 E53.85787
G1 X117.488 Y123.775 E53.88802
G1 F1500 E45.88802
G0 F6000 X117.454 Y124.274
G0 X114.567 Y123.697
G0 X114.567 Y125.026
G0 X107.886 Y124.865
;TYPE:SKIN
G1 F1500 E53.88802
G1 F1200 X107.885 Y110.136 E54.50038
G1 X115.132 Y110.135 E54.80167
G1 F1126.8 X115.905 Y110.162 E54.83592
G1 F1145.6 X116.717 Y110.129 E54.87131
G1 F1280 X117.536 Y110.117 E54.90324
G1 F1283.4 X118.236 Y110.127 E54.93045
