;FLAVOR:Marlin
;TIME:1604
;Filament used: 1.88718m
;Layer height: 0.2
;MINX:98.701
;MINY:106.8
;MINZ:0.25
;MAXX:136.4
;MAXY:128.2
;MAXZ:18.05
;Generated with Cura_SteamEngine 5.3.0
M140 S55
M105
M190 S55
M104 S212
M105
M109 S212
M82 ;absolute extrusion mode
START_PRINT
G92 E0
G92 E0
G1 F3000 E-6.5
;LAYER_COUNT:90
;LAYER:0
M107
;MESH:22mm-Spacer.stl
G0 X102.447 Y127.425 Z0.25
;TYPE:WALL-INNER
G1 F3000 E0
G1 F1800 X132.654 Y127.424 E1.88379
G1 X133.028 Y126.832 E1.92746
G1 X133.321 Y126.328 E1.96382
G1 X133.601 Y125.808 E2.00065
G1 X133.833 Y125.342 E2.03311
G1 X134.074 Y124.825 E2.06868
G1 X134.476 Y123.858 E2.13399
G1 X134.692 Y123.23 E2.17541
G1 X134.862 Y122.695 E2.21042
G1 X135.078 Y121.908 E2.26131
G1 X135.21 Y121.343 E2.29749
G1 X135.323 Y120.784 E2.33306
G1 X135.398 Y120.337 E2.36133
G1 X135.412 Y120.325 E2.36248
G1 X135.497 Y119.659 E2.40435
G1 X135.554 Y119.098 E2.43951
G1 X135.596 Y118.516 E2.4759
G1 X135.62 Y117.945 E2.51154
G1 X135.624 Y117.377 E2.54696
G1 X135.612 Y116.804 E2.58271
G1 X135.59 Y116.392 E2.60844
G1 X135.602 Y116.379 E2.60954
G1 X135.533 Y115.675 E2.65365
G1 X135.464 Y115.096 E2.69002
G1 X135.38 Y114.53 E2.7257
G1 X135.279 Y113.972 E2.76106
G1 X135.157 Y113.413 E2.79675
G1 X135.02 Y112.858 E2.8324
G1 X134.863 Y112.308 E2.86807
G1 X134.66 Y111.662 E2.91029
G1 X134.481 Y111.172 E2.94283
G1 X134.294 Y110.693 E2.97489
G1 X134.074 Y110.172 E3.01016
G1 X133.831 Y109.65 E3.04607
G1 X133.577 Y109.142 E3.08149
G1 X133.303 Y108.636 E3.11738
G1 X133.008 Y108.131 E3.15385
G1 X132.656 Y107.575 E3.19489
G1 X102.447 Y107.575 E5.0788
G1 X102.083 Y108.151 E5.1213
G1 X101.677 Y108.858 E5.17214
G1 X101.413 Y109.361 E5.20757
G1 X101.164 Y109.873 E5.24307
G1 X100.923 Y110.42 E5.28035
G1 X100.909 Y110.425 E5.28127
G1 X100.616 Y111.184 E5.33201
G1 X100.439 Y111.688 E5.36533
G1 X100.425 Y111.696 E5.36633
G1 X100.251 Y112.267 E5.40356
G1 X100.023 Y113.093 E5.45699
G1 X99.891 Y113.657 E5.49312
G1 X99.778 Y114.216 E5.52868
G1 X99.703 Y114.662 E5.55689
G1 X99.689 Y114.673 E5.558
G1 X99.605 Y115.341 E5.59998
G1 X99.547 Y115.903 E5.63522
G1 X99.505 Y116.484 E5.67155
G1 X99.481 Y117.055 E5.70719
G1 X99.477 Y117.623 E5.74261
G1 X99.489 Y118.186 E5.77773
G1 X99.512 Y118.609 E5.80415
G1 X99.5 Y118.621 E5.8052
G1 X99.568 Y119.321 E5.84906
G1 X99.635 Y119.895 E5.8851
G1 X99.718 Y120.457 E5.92053
G1 X99.821 Y121.018 E5.9561
G1 X99.941 Y121.577 E5.99176
G1 X100.079 Y122.132 E6.02742
G1 X100.238 Y122.692 E6.06373
G1 X100.408 Y123.228 E6.09879
G1 X100.596 Y123.765 E6.13427
G1 X100.802 Y124.297 E6.16985
G1 X101.026 Y124.823 E6.20551
G1 X101.289 Y125.386 E6.24426
G1 X101.546 Y125.9 E6.2801
G1 X101.812 Y126.389 E6.31481
G1 X102.09 Y126.864 E6.34913
G1 X102.447 Y127.425 E6.3906
G0 F3000 X102.128 Y128.025
;TYPE:WALL-OUTER
G1 F1800 X132.974 Y128.024 E8.31424
G1 X133.227 Y127.647 E8.34256
G1 X133.533 Y127.158 E8.37853
G1 X133.829 Y126.649 E8.41525
G1 X134.138 Y126.076 E8.45585
G1 X134.374 Y125.602 E8.48887
G1 X134.623 Y125.067 E8.52567
G1 X135.038 Y124.071 E8.59296
G1 X135.262 Y123.418 E8.63601
G1 X135.438 Y122.865 E8.6722
G1 X135.66 Y122.056 E8.72452
G1 X135.796 Y121.471 E8.76198
G1 X135.913 Y120.893 E8.79875
G1 X135.988 Y120.445 E8.82708
G1 X136.003 Y120.432 E8.82832
G1 X136.093 Y119.727 E8.87264
G1 X136.152 Y119.15 E8.90881
G1 X136.195 Y118.55 E8.94633
G1 X136.22 Y117.96 E8.98315
G1 X136.224 Y117.373 E9.01976
G1 X136.212 Y116.782 E9.05662
G1 X136.19 Y116.364 E9.08273
G1 X136.202 Y116.351 E9.08383
G1 X136.119 Y115.518 E9.13604
G1 X136.059 Y115.017 E9.1675
G1 X135.972 Y114.432 E9.20439
G1 X135.867 Y113.854 E9.24102
G1 X135.741 Y113.277 E9.27785
G1 X135.6 Y112.704 E9.31465
G1 X135.438 Y112.136 E9.35149
G1 X135.228 Y111.47 E9.39504
G1 X135.065 Y111.019 E9.42494
G1 X134.85 Y110.467 E9.46189
G1 X134.622 Y109.928 E9.49838
G1 X134.371 Y109.389 E9.53546
G1 X134.109 Y108.865 E9.572
G1 X133.826 Y108.342 E9.60908
G1 X133.517 Y107.813 E9.64729
G1 X133.211 Y107.326 E9.68316
G1 X132.974 Y106.975 E9.70957
G1 X102.127 Y106.975 E11.63327
G1 X101.876 Y107.351 E11.66147
G1 X101.553 Y107.869 E11.69954
G1 X101.151 Y108.569 E11.74988
G1 X100.877 Y109.091 E11.78664
G1 X100.62 Y109.621 E11.82337
G1 X100.379 Y110.166 E11.86054
G1 X100.364 Y110.172 E11.86154
G1 X100.053 Y110.977 E11.91536
G1 X99.877 Y111.479 E11.94854
G1 X99.861 Y111.488 E11.94968
G1 X99.675 Y112.1 E11.98957
G1 X99.441 Y112.945 E12.04425
G1 X99.305 Y113.529 E12.08165
G1 X99.188 Y114.107 E12.11842
G1 X99.113 Y114.555 E12.14675
G1 X99.097 Y114.567 E12.148
G1 X99.009 Y115.273 E12.19237
G1 X98.949 Y115.851 E12.22861
G1 X98.906 Y116.45 E12.26606
G1 X98.881 Y117.04 E12.30288
G1 X98.877 Y117.627 E12.33949
G1 X98.889 Y118.209 E12.37579
G1 X98.912 Y118.636 E12.40246
G1 X98.9 Y118.649 E12.40357
G1 X98.972 Y119.385 E12.44968
G1 X99.04 Y119.973 E12.4866
G1 X99.126 Y120.555 E12.52329
G1 X99.233 Y121.135 E12.56007
G1 X99.357 Y121.713 E12.59693
G1 X99.499 Y122.286 E12.63375
G1 X99.663 Y122.864 E12.67122
G1 X99.839 Y123.418 E12.70747
G1 X100.033 Y123.973 E12.74413
G1 X100.246 Y124.523 E12.78091
G1 X100.478 Y125.067 E12.8178
G1 X100.752 Y125.654 E12.85819
G1 X101.018 Y126.185 E12.89523
G1 X101.273 Y126.655 E12.92858
G1 X101.567 Y127.159 E12.96497
G1 X101.888 Y127.671 E13.00265
G1 X102.128 Y128.025 E13.02932
G0 F3000 X102.492 Y127.338
G0 X102.743 Y126.885
;TYPE:SKIN
G1 F1500 X102.547 Y126.574 E13.05225
G1 X102.29 Y126.132 E13.08413
G1 X102.037 Y125.671 E13.11693
G1 X101.83 Y125.267 E13.14524
G1 X101.418 Y124.406 E13.20476
G1 X101.428 Y124.39 E13.20594
G1 X101.274 Y124.022 E13.23082
G1 X101.101 Y123.572 E13.26088
G1 X100.92 Y123.053 E13.29516
G1 X100.758 Y122.54 E13.32871
G1 X100.6 Y121.987 E13.36458
G1 X100.467 Y121.449 E13.39914
G1 X100.35 Y120.907 E13.43372
G1 X100.25 Y120.363 E13.46821
G1 X100.17 Y119.82 E13.50244
G1 X100.038 Y118.589 E13.57965
G1 X100.049 Y118.558 E13.5817
G1 X100.029 Y118.161 E13.60649
G1 X100.018 Y117.622 E13.64011
G1 X100.021 Y117.076 E13.67416
G1 X100.046 Y116.521 E13.70881
G1 X100.086 Y115.945 E13.74481
G1 X100.142 Y115.407 E13.77855
G1 X100.224 Y114.761 E13.81916
G1 X100.238 Y114.737 E13.82089
G1 X100.308 Y114.322 E13.84713
G1 X100.419 Y113.779 E13.8817
G1 X100.549 Y113.22 E13.91749
G1 X100.794 Y112.337 E13.97464
G1 X100.935 Y111.882 E14.00434
G1 X100.951 Y111.862 E14.00594
G1 X101.126 Y111.367 E14.03868
G1 X101.404 Y110.645 E14.08693
G1 X101.422 Y110.628 E14.08847
G1 X101.655 Y110.105 E14.12418
G1 X101.898 Y109.6 E14.15913
G1 X102.148 Y109.123 E14.19271
G1 X102.548 Y108.427 E14.24278
G1 X102.742 Y108.115 E14.26569
G1 X132.361 Y108.115 E16.11281
G1 X132.541 Y108.403 E16.13399
G1 X132.86 Y108.947 E16.17332
G1 X133.08 Y109.36 E16.2025
G1 X133.323 Y109.844 E16.23627
G1 X133.582 Y110.398 E16.27441
G1 X133.791 Y110.891 E16.30781
G1 X134.152 Y111.847 E16.37153
G1 X134.41 Y112.645 E16.42384
G1 X134.4 Y112.66 E16.42496
G1 X134.5 Y113.004 E16.4473
G1 X134.644 Y113.601 E16.4856
G1 X134.751 Y114.086 E16.51657
G1 X134.866 Y114.738 E16.55786
G1 X134.986 Y115.646 E16.61498
G1 X135.062 Y116.414 E16.66311
G1 X135.052 Y116.44 E16.66484
G1 X135.072 Y116.819 E16.68851
G1 X135.082 Y117.246 E16.71515
G1 X135.08 Y117.924 E16.75743
G1 X135.055 Y118.479 E16.79208
G1 X135.015 Y119.055 E16.82808
G1 X134.96 Y119.593 E16.86181
G1 X134.877 Y120.233 E16.90206
G1 X134.862 Y120.26 E16.90398
G1 X134.792 Y120.68 E16.93054
G1 X134.617 Y121.56 E16.98649
G1 X134.604 Y121.568 E16.98744
G1 X134.346 Y122.536 E17.04992
G1 X134.18 Y123.056 E17.08396
G1 X133.967 Y123.675 E17.12478
G1 X133.556 Y124.68 E17.19249
G1 X133.54 Y124.688 E17.19361
G1 X133.347 Y125.103 E17.22215
G1 X133.119 Y125.562 E17.25411
G1 X132.849 Y126.062 E17.28955
G1 X132.556 Y126.566 E17.32591
G1 X132.359 Y126.884 E17.34924
G1 X102.743 Y126.885 E19.19617
G0 F3000 X103.673 Y126.584
G1 F1500 X101.986 Y124.896 E19.345
G0 F3000 X101.369 Y123.431
G1 F1500 X104.522 Y126.584 E19.62308
G0 F3000 X105.37 Y126.584
G1 F1500 X100.967 Y122.18 E20.01144
G0 F3000 X100.687 Y121.052
G1 F1500 X106.219 Y126.584 E20.49933
G0 F3000 X107.067 Y126.584
G1 F1500 X100.502 Y120.018 E21.07837
G0 F3000 X100.389 Y119.056
G1 F1500 X107.916 Y126.584 E21.74225
G0 F3000 X108.765 Y126.584
G1 F1500 X100.327 Y118.146 E22.48643
G0 F3000 X100.319 Y117.289
G1 F1500 X109.613 Y126.584 E23.30616
G0 F3000 X110.462 Y126.584
G1 F1500 X100.35 Y116.472 E24.19798
G0 F3000 X100.414 Y115.687
G1 F1500 X111.31 Y126.584 E25.15898
G0 F3000 X112.159 Y126.584
G1 F1500 X100.504 Y114.929 E26.18689
G0 F3000 X100.636 Y114.212
G1 F1500 X113.007 Y126.584 E27.27798
G0 F3000 X113.856 Y126.584
G1 F1500 X100.787 Y113.515 E28.43059
G0 F3000 X100.963 Y112.842
G1 F1500 X114.704 Y126.584 E29.64252
G0 F3000 X115.553 Y126.584
G1 F1500 X101.155 Y112.186 E30.91234
G0 F3000 X101.375 Y111.558
G1 F1500 X116.401 Y126.584 E32.23754
G0 F3000 X117.25 Y126.584
G1 F1500 X101.609 Y110.943 E33.61699
G0 F3000 X101.87 Y110.356
G1 F1500 X118.098 Y126.584 E35.04821
G0 F3000 X118.947 Y126.584
G1 F1500 X102.142 Y109.779 E36.53031
G0 F3000 X102.435 Y109.223
G1 F1500 X119.795 Y126.584 E38.06141
G0 F3000 X120.644 Y126.584
G1 F1500 X102.744 Y108.684 E39.64008
G0 F3000 X103.323 Y108.414
G1 F1500 X121.492 Y126.584 E41.24253
G0 F3000 X122.341 Y126.584
G1 F1500 X104.171 Y108.414 E42.84502
G0 F3000 X105.02 Y108.414
G1 F1500 X123.19 Y126.584 E44.44751
G0 F3000 X124.038 Y126.584
G1 F1500 X105.868 Y108.414 E46.05
G0 F3000 X106.717 Y108.414
G1 F1500 X124.887 Y126.584 E47.65249
G0 F3000 X125.735 Y126.584
G1 F1500 X107.565 Y108.414 E49.25498
G0 F3000 X108.414 Y108.414
G1 F1500 X126.584 Y126.584 E50.85747
G0 F3000 X127.432 Y126.584
G1 F1500 X109.262 Y108.414 E52.45996
G0 F3000 X110.111 Y108.414
G1 F1500 X128.281 Y126.584 E54.06245
G0 F3000 X129.129 Y126.584
G1 F1500 X110.959 Y108.414 E55.66494
G0 F3000 X111.808 Y108.414
G1 F1500 X129.978 Y126.584 E57.26742
G0 F3000 X130.826 Y126.584
G1 F1500 X112.656 Y108.414 E58.86991
G0 F3000 X113.505 Y108.414
G1 F1500 X131.675 Y126.584 E60.4724
G0 F3000 X132.315 Y126.375
G1 F1500 X114.354 Y108.414 E62.05646
G0 F3000 X115.202 Y108.414
G1 F1500 X132.627 Y125.839 E63.59325
G0 F3000 X132.921 Y125.285
G1 F1500 X116.051 Y108.414 E65.08113
G0 F3000 X116.899 Y108.414
G1 F1500 X133.197 Y124.712 E66.51852
G0 F3000 X133.458 Y124.124
G1 F1500 X117.748 Y108.415 E67.904
G0 F3000 X118.597 Y108.415
G1 F1500 X133.703 Y123.52 E69.23622
G0 F3000 X133.918 Y122.887
G1 F1500 X119.445 Y108.415 E70.51261
G0 F3000 X120.294 Y108.415
G1 F1500 X134.114 Y122.235 E71.73146
G0 F3000 X134.293 Y121.565
G1 F1500 X121.142 Y108.415 E72.89126
G0 F3000 X121.991 Y108.415
G1 F1500 X134.447 Y120.871 E73.9898
G0 F3000 X134.583 Y120.158
G1 F1500 X122.84 Y108.415 E75.02547
G0 F3000 X123.688 Y108.415
G1 F1500 X134.677 Y119.404 E75.99464
G0 F3000 X134.743 Y118.621
G1 F1500 X124.537 Y108.415 E76.89475
G0 F3000 X125.385 Y108.415
G1 F1500 X134.78 Y117.809 E77.72329
G0 F3000 X134.774 Y116.955
G1 F1500 X126.234 Y108.415 E78.47647
G0 F3000 X127.082 Y108.415
G1 F1500 X134.725 Y116.058 E79.15053
G0 F3000 X134.614 Y115.097
G1 F1500 X127.931 Y108.415 E79.73989
G0 F3000 X128.779 Y108.415
G1 F1500 X134.441 Y114.076 E80.2392
G0 F3000 X134.174 Y112.961
M104 S210
G1 F1500 X129.628 Y108.415 E80.64014
G0 F3000 X130.476 Y108.415
G1 F1500 X133.783 Y111.721 E80.93175
G0 F3000 X133.199 Y110.289
G1 F1500 X131.325 Y108.415 E81.09703
G1 F3000 E74.59703
;MESH:NOMESH
G0 F300 X131.325 Y108.415 Z0.45
G0 F3000 X102.492 Y127.338
G0 X102.351 Y127.599
;TIME_ELAPSED:62.695716
;LAYER:1
M140 S50
M106 S85
;TYPE:WALL-INNER
;MESH:22mm-Spacer.stl
G1 F3000 E81.09703
G1 F2100 X132.749 Y127.599 E82.61359
G1 X133.121 Y127.015 E82.64813
G1 X133.411 Y126.53 E82.67633
G1 X133.684 Y126.03 E82.70475
G1 X133.942 Y125.521 E82.73322
G1 X134.295 Y124.758 E82.77516
G1 X134.309 Y124.754 E82.77589
G1 X134.626 Y123.943 E82.81933
G1 X134.82 Y123.403 E82.84795
G1 X134.995 Y122.861 E82.87637
G1 X135.21 Y122.098 E82.91592
G1 X135.222 Y122.091 E82.91661
G1 X135.423 Y121.195 E82.96242
G1 X135.53 Y120.632 E82.99101
G1 X135.619 Y120.066 E83.0196
G1 X135.69 Y119.498 E83.04816
G1 X135.743 Y118.939 E83.07617
G1 X135.779 Y118.356 E83.10531
G1 X135.798 Y117.783 E83.13392
G1 X135.798 Y117.21 E83.1625
G1 X135.779 Y116.639 E83.19101
G1 X135.743 Y116.068 E83.21955
G1 X135.69 Y115.509 E83.24756
G1 X135.617 Y114.931 E83.27663
G1 X135.528 Y114.364 E83.30526
G1 X135.421 Y113.802 E83.33381
G1 X135.296 Y113.244 E83.36233
G1 X135.199 Y112.868 E83.38171
G1 X135.209 Y112.852 E83.38265
G1 X135.018 Y112.216 E83.41578
G1 X134.818 Y111.593 E83.44842
G1 X134.624 Y111.056 E83.47691
G1 X134.416 Y110.531 E83.50508
G1 X134.27 Y110.189 E83.52363
G1 X134.278 Y110.176 E83.52439
G1 X133.93 Y109.456 E83.56429
G1 X133.661 Y108.929 E83.59381
G1 X133.407 Y108.466 E83.62016
G1 X133.111 Y107.969 E83.64902
G1 X132.749 Y107.401 E83.68262
G1 X102.341 Y107.401 E85.19968
G1 X101.69 Y108.47 E85.26213
G1 X101.417 Y108.97 E85.29055
G1 X101.159 Y109.479 E85.31902
G1 X100.806 Y110.242 E85.36096
G1 X100.793 Y110.246 E85.36164
G1 X100.476 Y111.056 E85.40503
G1 X100.285 Y111.592 E85.43342
G1 X100.107 Y112.14 E85.46217
G1 X99.892 Y112.902 E85.50167
G1 X99.879 Y112.909 E85.50241
G1 X99.679 Y113.805 E85.54821
G1 X99.571 Y114.368 E85.57681
G1 X99.482 Y114.934 E85.60539
G1 X99.411 Y115.502 E85.63395
G1 X99.358 Y116.061 E85.66196
G1 X99.322 Y116.644 E85.69111
G1 X99.304 Y117.217 E85.71971
G1 X99.303 Y117.79 E85.74829
G1 X99.322 Y118.35 E85.77625
G1 X99.358 Y118.933 E85.80539
G1 X99.411 Y119.492 E85.8334
G1 X99.482 Y120.06 E85.86196
G1 X99.571 Y120.626 E85.89055
G1 X99.703 Y121.301 E85.92486
G1 X99.803 Y121.747 E85.94766
G1 X99.902 Y122.132 E85.9675
G1 X99.891 Y122.147 E85.96842
G1 X100.082 Y122.782 E86.00151
G1 X100.281 Y123.397 E86.03376
G1 X100.507 Y124.024 E86.06701
G1 X100.831 Y124.811 E86.10947
G1 X100.823 Y124.824 E86.11023
G1 X101.169 Y125.541 E86.14995
G1 X101.436 Y126.063 E86.1792
G1 X101.706 Y126.554 E86.20715
G1 X101.995 Y127.041 E86.23541
G1 X102.351 Y127.599 E86.26843
G0 F6000 X102.034 Y128.199
;TYPE:WALL-OUTER
G1 F2100 X133.067 Y128.199 E87.81667
G1 X133.319 Y127.827 E87.83909
G1 X133.626 Y127.341 E87.86777
G1 X133.932 Y126.828 E87.89757
G1 X134.215 Y126.31 E87.92702
G1 X134.482 Y125.783 E87.95649
G1 X134.837 Y125.014 E87.99875
G1 X134.853 Y125.01 E87.99957
G1 X135.188 Y124.153 E88.04548
G1 X135.388 Y123.597 E88.07496
G1 X135.569 Y123.035 E88.10441
G1 X135.788 Y122.261 E88.14454
G1 X135.801 Y122.254 E88.14528
G1 X136.011 Y121.316 E88.19324
G1 X136.121 Y120.735 E88.22274
G1 X136.213 Y120.15 E88.25228
G1 X136.286 Y119.564 E88.28174
G1 X136.341 Y118.986 E88.31071
G1 X136.379 Y118.384 E88.3408
G1 X136.398 Y117.793 E88.3703
G1 X136.398 Y117.2 E88.39989
G1 X136.379 Y116.611 E88.42929
G1 X136.341 Y116.02 E88.45883
G1 X136.286 Y115.443 E88.48775
G1 X136.211 Y114.847 E88.51772
G1 X136.119 Y114.261 E88.54731
G1 X136.009 Y113.68 E88.57682
G1 X135.88 Y113.104 E88.60626
G1 X135.783 Y112.731 E88.62549
G1 X135.795 Y112.714 E88.62653
G1 X135.571 Y111.974 E88.6651
G1 X135.386 Y111.399 E88.69524
G1 X135.186 Y110.844 E88.72467
G1 X134.971 Y110.302 E88.75376
G1 X134.829 Y109.971 E88.77173
G1 X134.838 Y109.955 E88.77265
G1 X134.465 Y109.184 E88.81538
G1 X134.213 Y108.689 E88.84309
G1 X133.928 Y108.168 E88.87272
G1 X133.619 Y107.649 E88.90285
G1 X133.303 Y107.15 E88.93232
G1 X133.067 Y106.801 E88.95334
G1 X102.036 Y106.801 E90.50148
G1 X101.875 Y107.034 E90.51561
G1 X101.862 Y107.035 E90.51626
G1 X101.469 Y107.67 E90.55352
G1 X101.169 Y108.172 E90.58269
G1 X100.886 Y108.69 E90.61214
G1 X100.619 Y109.217 E90.64162
G1 X100.264 Y109.986 E90.68387
G1 X100.249 Y109.991 E90.68466
G1 X99.914 Y110.846 E90.73047
G1 X99.717 Y111.398 E90.75971
G1 X99.533 Y111.966 E90.7895
G1 X99.314 Y112.739 E90.82958
G1 X99.3 Y112.747 E90.83039
G1 X99.091 Y113.684 E90.87829
G1 X98.98 Y114.265 E90.9078
G1 X98.888 Y114.85 E90.93734
G1 X98.815 Y115.436 E90.9668
G1 X98.76 Y116.014 E90.99577
G1 X98.722 Y116.616 E91.02586
G1 X98.704 Y117.207 E91.05536
G1 X98.703 Y117.8 E91.08495
G1 X98.722 Y118.378 E91.1138
G1 X98.76 Y118.98 E91.14389
G1 X98.815 Y119.558 E91.17286
G1 X98.888 Y120.144 E91.20232
G1 X98.98 Y120.729 E91.23186
G1 X99.091 Y121.31 E91.26138
G1 X99.219 Y121.887 E91.29086
