;FLAVOR:Marlin
;TIME:518
;Filament used: 0.264483m
;Layer height: 0.2
;MINX:101.792
;MINY:104.292
;MINZ:0.25
;MAXX:133.208
;MAXY:130.708
;MAXZ:3.05
;Generated with Cura_SteamEngine 5.3.0
M140 S95
M105
M190 S95
M104 S249
M105
M109 S249
M82 ;absolute extrusion mode
START_PRINT
G92 E0
G92 E0
G1 F1500 E-5
;LAYER_COUNT:15
;LAYER:0
M107
G0 F6000 X102.582 Y112.793 Z0.25
;TYPE:SKIRT
G1 F1500 E0
G1 F1200 X102.898 Y112.628 E0.01482
G1 X103.338 Y112.51 E0.03376
G1 X105.12 Y112.506 E0.10785
G1 X105.131 Y112.212 E0.12008
G1 X105.222 Y111.837 E0.13612
G1 X105.303 Y111.676 E0.14362
G1 X105.631 Y111.279 E0.16503
G1 X105.978 Y111.064 E0.182
G1 X114.831 Y107.619 E0.57695
G1 X115.507 Y107.618 E0.60505
G1 X115.511 Y105.831 E0.67935
G1 X115.63 Y105.393 E0.69822
G1 X115.791 Y105.082 E0.71278
G1 X116.162 Y104.709 E0.73465
G1 X116.519 Y104.472 E0.75246
G1 X117.1 Y104.292 E0.77775
G1 X117.9 Y104.292 E0.81101
G1 X118.406 Y104.449 E0.83304
G1 X118.778 Y104.654 E0.8507
G1 X119.207 Y105.082 E0.87589
G1 X119.372 Y105.398 E0.89071
G1 X119.49 Y105.838 E0.90965
G1 X119.494 Y107.619 E0.9837
G1 X120.167 Y107.62 E1.01168
G1 X129.025 Y111.064 E1.40681
G1 X129.418 Y111.318 E1.42626
G1 X129.55 Y111.458 E1.43426
G1 X129.806 Y111.912 E1.45593
G1 X129.874 Y112.281 E1.47153
G1 X129.881 Y112.507 E1.48093
G1 X131.669 Y112.511 E1.55527
G1 X132.107 Y112.63 E1.57414
G1 X132.418 Y112.791 E1.5887
G1 X132.791 Y113.162 E1.61057
G1 X133.028 Y113.519 E1.62838
G1 X133.208 Y114.1 E1.65367
G1 X133.208 Y114.9 E1.68693
G1 X133.051 Y115.406 E1.70896
G1 X132.846 Y115.778 E1.72662
G1 X132.418 Y116.207 E1.75181
G1 X132.102 Y116.372 E1.76663
G1 X131.662 Y116.49 E1.78557
G1 X129.88 Y116.494 E1.85966
G1 X129.88 Y116.906 E1.87679
G1 X129.729 Y117.426 E1.8993
G1 X129.534 Y117.707 E1.91352
G1 X120.743 Y126.989 E2.44503
G1 X120.45 Y127.21 E2.46029
G1 X119.901 Y127.381 E2.48419
G1 X119.493 Y127.381 E2.50115
G1 X119.489 Y129.169 E2.57549
G1 X119.37 Y129.607 E2.59436
G1 X119.209 Y129.918 E2.60892
G1 X118.838 Y130.291 E2.63079
G1 X118.481 Y130.528 E2.64861
G1 X117.9 Y130.708 E2.6739
G1 X117.1 Y130.708 E2.70716
G1 X116.594 Y130.551 E2.72918
G1 X116.222 Y130.346 E2.74684
G1 X115.793 Y129.918 E2.77204
G1 X115.628 Y129.602 E2.78686
G1 X115.51 Y129.162 E2.8058
G1 X115.506 Y127.38 E2.87988
G1 X115.1 Y127.38 E2.89676
G1 X114.551 Y127.209 E2.92067
G1 X114.258 Y126.988 E2.93593
G1 X105.465 Y117.708 E3.46743
G1 X105.27 Y117.427 E3.48165
G1 X105.119 Y116.907 E3.50416
G1 X105.119 Y116.493 E3.52138
G1 X103.331 Y116.489 E3.59571
G1 X102.893 Y116.37 E3.61458
G1 X102.582 Y116.209 E3.62914
G1 X102.209 Y115.838 E3.65101
G1 X101.972 Y115.481 E3.66883
G1 X101.792 Y114.9 E3.69412
G1 X101.792 Y114.1 E3.72738
G1 X101.949 Y113.594 E3.7494
G1 X102.154 Y113.222 E3.76706
G1 X102.582 Y112.793 E3.79226
G0 F6000 X102.822 Y113.118
G1 F1200 X103.002 Y113.014 E3.8009
G1 X103.39 Y112.91 E3.8176
G1 X105.519 Y112.905 E3.90611
G1 X105.52 Y112.306 E3.93102
G1 X105.611 Y111.931 E3.94706
G1 X105.897 Y111.585 E3.96572
G1 X106.157 Y111.424 E3.97844
G1 X114.907 Y108.019 E4.36879
G1 X115.906 Y108.018 E4.41033
G1 X115.911 Y105.885 E4.49901
G1 X116.016 Y105.498 E4.51568
G1 X116.118 Y105.321 E4.52417
G1 X116.416 Y105.021 E4.54175
G1 X116.694 Y104.837 E4.55561
G1 X117.161 Y104.692 E4.57594
G1 X117.839 Y104.692 E4.60413
G1 X118.251 Y104.82 E4.62207
G1 X118.536 Y104.977 E4.6356
G1 X118.882 Y105.322 E4.65591
G1 X118.986 Y105.502 E4.66455
G1 X119.09 Y105.89 E4.68125
G1 X119.095 Y108.019 E4.76977
G1 X120.091 Y108.02 E4.81118
G1 X128.843 Y111.423 E5.20158
G1 X129.201 Y111.654 E5.21929
G1 X129.425 Y112.052 E5.23828
G1 X129.481 Y112.354 E5.25105
G1 X129.482 Y112.906 E5.274
G1 X131.615 Y112.911 E5.36268
G1 X132.002 Y113.016 E5.37935
G1 X132.179 Y113.118 E5.38784
G1 X132.479 Y113.416 E5.40542
G1 X132.663 Y113.694 E5.41928
G1 X132.808 Y114.161 E5.43961
G1 X132.808 Y114.839 E5.4678
G1 X132.68 Y115.251 E5.48574
G1 X132.523 Y115.536 E5.49927
G1 X132.178 Y115.882 E5.51958
G1 X131.998 Y115.986 E5.52822
G1 X131.61 Y116.09 E5.54492
G1 X129.481 Y116.095 E5.63344
G1 X129.48 Y116.849 E5.66479
G1 X129.363 Y117.251 E5.68219
G1 X129.205 Y117.479 E5.69373
G1 X120.502 Y126.669 E6.21994
G1 X120.263 Y126.849 E6.23238
G1 X119.84 Y126.981 E6.2508
G1 X119.094 Y126.982 E6.28182
G1 X119.089 Y129.115 E6.3705
G1 X118.984 Y129.502 E6.38717
G1 X118.882 Y129.679 E6.39566
G1 X118.584 Y129.979 E6.41324
G1 X118.306 Y130.163 E6.4271
G1 X117.839 Y130.308 E6.44743
G1 X117.161 Y130.308 E6.47562
G1 X116.749 Y130.18 E6.49356
G1 X116.464 Y130.023 E6.50708
G1 X116.118 Y129.678 E6.5274
G1 X116.014 Y129.498 E6.53604
G1 X115.91 Y129.11 E6.55274
G1 X115.905 Y126.981 E6.64126
G1 X115.161 Y126.98 E6.67219
G1 X114.738 Y126.848 E6.69061
G1 X114.499 Y126.668 E6.70305
G1 X105.794 Y117.48 E7.22926
G1 X105.636 Y117.252 E7.24079
G1 X105.519 Y116.85 E7.2582
G1 X105.518 Y116.094 E7.28963
G1 X103.385 Y116.089 E7.37831
G1 X102.998 Y115.984 E7.39498
G1 X102.821 Y115.882 E7.40348
G1 X102.521 Y115.584 E7.42106
G1 X102.337 Y115.306 E7.43492
G1 X102.192 Y114.839 E7.45525
G1 X102.192 Y114.161 E7.48343
G1 X102.32 Y113.749 E7.50137
G1 X102.477 Y113.464 E7.5149
G1 X102.822 Y113.118 E7.53521
G0 F6000 X103.105 Y113.4
G1 F1200 X103.441 Y113.31 E7.54968
G1 X105.919 Y113.304 E7.6527
G1 X105.92 Y112.355 E7.69215
G1 X105.979 Y112.112 E7.70255
G1 X106.117 Y111.919 E7.71241
G1 X106.302 Y111.797 E7.72163
G1 X114.983 Y108.419 E8.1089
G1 X116.305 Y108.417 E8.16387
G1 X116.311 Y105.939 E8.26689
G1 X116.402 Y105.603 E8.28136
G1 X116.7 Y105.303 E8.29894
G1 X116.865 Y105.203 E8.30696
G1 X117.222 Y105.092 E8.32251
G1 X117.778 Y105.092 E8.34562
G1 X118.132 Y105.202 E8.36103
G1 X118.295 Y105.301 E8.36896
G1 X118.6 Y105.605 E8.38687
G1 X118.69 Y105.941 E8.40133
G1 X118.696 Y108.418 E8.50431
G1 X120.015 Y108.42 E8.55915
G1 X128.698 Y111.796 E8.94647
G1 X128.903 Y111.938 E8.95684
G1 X129.034 Y112.137 E8.96674
G1 X129.081 Y112.354 E8.97597
G1 X129.082 Y113.305 E9.01551
G1 X131.561 Y113.311 E9.11858
G1 X131.897 Y113.402 E9.13305
G1 X132.197 Y113.7 E9.15063
G1 X132.297 Y113.865 E9.15865
G1 X132.408 Y114.222 E9.1742
G1 X132.408 Y114.778 E9.19731
G1 X132.298 Y115.132 E9.21272
G1 X132.199 Y115.295 E9.22065
G1 X131.895 Y115.6 E9.23856
G1 X131.559 Y115.69 E9.25302
G1 X129.081 Y115.696 E9.35604
G1 X129.08 Y116.792 E9.40161
G1 X128.997 Y117.077 E9.41395
G1 X128.915 Y117.204 E9.42023
G1 X120.212 Y126.394 E9.94645
G1 X120.079 Y126.487 E9.9532
G1 X119.778 Y126.581 E9.96631
G1 X118.695 Y126.582 E10.01133
G1 X118.689 Y129.061 E10.1144
G1 X118.598 Y129.397 E10.12887
G1 X118.3 Y129.697 E10.14645
G1 X118.135 Y129.797 E10.15447
G1 X117.778 Y129.908 E10.17001
G1 X117.222 Y129.908 E10.19313
G1 X116.868 Y129.798 E10.20854
G1 X116.705 Y129.699 E10.21647
G1 X116.4 Y129.395 E10.23437
G1 X116.31 Y129.059 E10.24884
G1 X116.304 Y126.581 E10.35186
G1 X115.223 Y126.58 E10.3968
G1 X114.922 Y126.486 E10.40991
G1 X114.789 Y126.393 E10.41666
G1 X106.084 Y117.205 E10.94287
G1 X106.002 Y117.078 E10.94916
G1 X105.919 Y116.793 E10.9615
G1 X105.918 Y115.695 E11.00715
G1 X103.439 Y115.689 E11.11021
G1 X103.103 Y115.598 E11.12468
G1 X102.803 Y115.3 E11.14226
G1 X102.703 Y115.135 E11.15029
G1 X102.592 Y114.778 E11.16583
G1 X102.592 Y114.222 E11.18894
G1 X102.702 Y113.868 E11.20436
G1 X102.801 Y113.705 E11.21228
G1 X103.105 Y113.4 E11.23019
G0 F6000 X103.313 Y113.757
G1 F1200 X103.442 Y113.71 E11.2359
G1 X106.318 Y113.703 E11.35547
G1 X106.32 Y112.356 E11.41147
G1 X106.359 Y112.237 E11.41668
G1 X106.447 Y112.17 E11.42127
G1 X115.059 Y108.819 E11.80547
G1 X116.704 Y108.817 E11.87386
G1 X116.711 Y105.94 E11.99347
G1 X116.758 Y105.813 E11.9991
G1 X116.984 Y105.585 E12.01245
G1 X117.283 Y105.492 E12.02547
G1 X117.717 Y105.492 E12.04351
G1 X118.013 Y105.584 E12.0564
G1 X118.243 Y105.813 E12.06989
G1 X118.29 Y105.942 E12.0756
G1 X118.297 Y108.818 E12.19517
G1 X119.939 Y108.82 E12.26344
G1 X128.553 Y112.169 E12.64768
G1 X128.65 Y112.248 E12.65288
G1 X128.681 Y112.355 E12.65751
G1 X128.683 Y113.704 E12.7136
G1 X131.56 Y113.711 E12.83321
G1 X131.687 Y113.758 E12.83884
G1 X131.915 Y113.984 E12.85219
G1 X132.008 Y114.283 E12.8652
G1 X132.008 Y114.717 E12.88325
G1 X131.916 Y115.013 E12.89614
G1 X131.687 Y115.243 E12.90963
G1 X131.558 Y115.29 E12.91534
G1 X128.682 Y115.297 E13.03491
G1 X128.68 Y116.791 E13.09702
G1 X128.625 Y116.929 E13.1032
G1 X119.922 Y126.119 E13.62941
G1 X119.777 Y126.181 E13.63597
G1 X118.296 Y126.183 E13.69754
G1 X118.289 Y129.06 E13.81715
G1 X118.242 Y129.187 E13.82278
G1 X118.016 Y129.415 E13.83613
G1 X117.717 Y129.508 E13.84915
G1 X117.283 Y129.508 E13.86719
G1 X116.987 Y129.416 E13.88008
G1 X116.757 Y129.187 E13.89357
G1 X116.71 Y129.058 E13.89928
G1 X116.703 Y126.182 E14.01885
G1 X115.224 Y126.18 E14.08034
G1 X115.079 Y126.118 E14.0869
G1 X106.374 Y116.93 E14.61311
G1 X106.319 Y116.792 E14.61929
G1 X106.317 Y115.296 E14.68148
G1 X103.44 Y115.289 E14.80109
G1 X103.313 Y115.242 E14.80672
G1 X103.085 Y115.016 E14.82007
G1 X102.992 Y114.717 E14.83309
G1 X102.992 Y114.283 E14.85113
G1 X103.084 Y113.987 E14.86402
G1 X103.313 Y113.757 E14.87751
;MESH:cap_support_frame.STL
G0 F6000 X103.782 Y114.5
;TYPE:WALL-INNER
G1 F1233.9 X106.569 Y114.5 E14.9902
G0 F6000 X107.252 Y114.122
G0 X107.288 Y112.882
G0 X115.242 Y109.78
G0 X117.33 Y109.445
G0 X117.5 Y109.069
G1 F1233.9 X117.5 Y106.282 E15.10288
G0 F6000 X117.67 Y109.446
G0 X119.82 Y109.459
G0 X127.713 Y112.881
G0 X128.056 Y114.33
G0 X128.482 Y114.5
G1 F1246.8 X131.218 Y114.5 E15.21236
G1 F1500 E10.21236
G0 F6000 X128.054 Y114.67
G0 X128.043 Y116.619
G0 X123.293 Y121.681
G0 X119.432 Y125.181
G0 X118.508 Y123.949
G0 X117.498 Y123.996
G1 F1500 E15.21236
G1 F1200 X116.824 Y123.888 E15.24074
G1 X116.597 Y123.802 E15.25084
G1 X116.131 Y123.504 E15.27383
G1 X109.752 Y116.772 E15.65941
G1 X109.534 Y116.381 E15.67802
G1 X109.415 Y116.045 E15.69284
G1 X109.352 Y115.691 E15.70779
G1 X109.357 Y115.296 E15.72421
G1 X109.406 Y114.993 E15.73698
G1 X109.518 Y114.656 E15.75174
G1 X109.768 Y114.19 E15.77373
G1 X110.155 Y113.831 E15.79567
G1 X110.593 Y113.544 E15.81744
G1 X111.115 Y113.407 E15.83988
G1 X111.417 Y113.382 E15.85248
G1 X123.584 Y113.382 E16.35832
G1 X123.904 Y113.413 E16.37169
G1 X124.404 Y113.544 E16.39318
G1 X124.841 Y113.827 E16.41482
G1 X125.233 Y114.191 E16.43707
G1 X125.484 Y114.662 E16.45925
G1 X125.598 Y115.005 E16.47428
G1 X125.651 Y115.391 E16.49048
G1 X125.646 Y115.699 E16.50329
G1 X125.584 Y116.048 E16.51802
G1 X125.413 Y116.536 E16.53952
G1 X125.1 Y116.925 E16.56028
G1 X118.871 Y123.503 E16.93692
G1 X118.409 Y123.798 E16.95971
G1 X118.183 Y123.884 E16.96976
G1 X117.498 Y123.996 E16.99862
G1 F1500 E11.99862
G0 F6000 X117.146 Y124.042
G0 X117.499 Y124.179
G0 X117.154 Y125.251
G0 X117.5 Y125.982
G1 F1500 E16.99862
G1 F1246.8 X117.5 Y128.718 E17.1081
G0 F6000 X117.5 Y125.982
G1 F1212.1 X117.678 Y125.551 E17.1273
G1 F1200 X117.834 Y125.442 E17.13521
G1 X118.02 Y125.383 E17.14332
G1 X119.518 Y125.381 E17.2056
G1 X127.88 Y116.552 E17.71117
G1 X127.886 Y115.018 E17.77495
G1 X127.986 Y114.756 E17.78661
G1 F1215.2 X128.482 Y114.5 E17.80952
G1 X127.986 Y114.243 E17.83246
G1 F1200 X127.883 Y113.936 E17.84592
G1 X127.881 Y112.766 E17.89456
G1 X119.788 Y109.621 E18.25554
G1 X118.095 Y109.618 E18.32593
G1 X117.832 Y109.558 E18.33715
G1 X117.677 Y109.448 E18.34505
G1 F1206 X117.5 Y109.069 E18.36235
G1 X117.323 Y109.448 E18.37966
G1 F1200 X117.167 Y109.557 E18.38757
G1 X116.984 Y109.617 E18.39557
G1 X115.211 Y109.619 E18.46929
G1 X107.12 Y112.767 E18.83024
G1 X107.118 Y113.937 E18.87888
G1 X107.014 Y114.243 E18.89232
G1 F1206 X106.569 Y114.5 E18.91357
G1 X107.014 Y114.757 E18.93483
G1 F1200 X107.113 Y115.018 E18.94644
G1 X107.119 Y116.553 E19.01026
G1 X115.483 Y125.379 E19.51579
G1 X116.976 Y125.381 E19.57786
G1 X117.167 Y125.442 E19.5862
G1 X117.323 Y125.55 E19.59409
G1 F1212.1 X117.5 Y125.982 E19.6133
G1 F1500 E14.6133
G0 F6000 X117.347 Y125.597
G0 X116.645 Y125.2
G0 X116.828 Y124.072
G0 X116.847 Y123.487
;TYPE:WALL-OUTER
G1 F1500 E19.6133
G1 F1200 X116.399 Y123.202 E19.63538
G1 X110.079 Y116.536 E20.01728
G1 X109.893 Y116.196 E20.03339
G1 X109.808 Y115.956 E20.04397
G1 X109.753 Y115.642 E20.05723
G1 X109.753 Y115.358 E20.06904
G1 X109.8 Y115.076 E20.08092
G1 X109.894 Y114.802 E20.09296
G1 X110.09 Y114.436 E20.11023
G1 X110.39 Y114.158 E20.12723
G1 X110.778 Y113.907 E20.14644
G1 X111.197 Y113.802 E20.1644
G1 X111.45 Y113.781 E20.17496
G1 X123.55 Y113.78 E20.67802
G1 X123.826 Y113.805 E20.68954
G1 X124.222 Y113.907 E20.70654
G1 X124.61 Y114.158 E20.72575
G1 X124.91 Y114.436 E20.74275
G1 X125.106 Y114.802 E20.76002
G1 X125.208 Y115.109 E20.77347
G1 X125.25 Y115.39 E20.78528
G1 X125.244 Y115.675 E20.79713
G1 X125.192 Y115.956 E20.80901
G1 X125.055 Y116.344 E20.82612
G1 X124.78 Y116.683 E20.84427
G1 X118.607 Y123.197 E21.21737
G1 X118.159 Y123.484 E21.23949
G1 X117.501 Y123.589 E21.2672
G1 X116.847 Y123.487 E21.29472
G1 F1500 E16.29472
G0 F6000 X116.648 Y123.925
G0 X117.499 Y124.179
G0 X117.747 Y125.262
G0 X117.832 Y129.055
G1 F1500 E21.29472
G1 F1200 X117.889 Y128.986 E21.29844
G1 X117.896 Y125.982 E21.42333
G1 X117.956 Y125.839 E21.42978
G1 X118.063 Y125.785 E21.43476
G1 X119.69 Y125.781 E21.5024
G1 X128.28 Y116.712 E22.02173
G1 X128.283 Y115.07 E22.09
G1 X128.316 Y114.982 E22.09391
G1 X128.482 Y114.895 E22.1017
G1 X131.484 Y114.889 E22.22651
G1 X131.556 Y114.828 E22.23043
G1 X131.608 Y114.683 E22.23684
G1 X131.608 Y114.317 E22.25205
G1 X131.555 Y114.168 E22.25863
G1 X131.486 Y114.111 E22.26235
G1 X128.482 Y114.105 E22.38724
G1 X128.317 Y114.017 E22.39501
G1 X128.287 Y113.949 E22.3981
G1 X128.281 Y112.492 E22.45868
G1 X119.863 Y109.221 E22.83415
G1 X118.048 Y109.213 E22.90961
G1 X117.956 Y109.162 E22.91399
G1 X117.896 Y109.036 E22.91979
G1 X117.89 Y106.015 E23.04539
G1 X117.829 Y105.943 E23.04931
G1 X117.683 Y105.892 E23.05574
G1 X117.317 Y105.892 E23.07096
G1 X117.168 Y105.945 E23.07753
G1 X117.111 Y106.014 E23.08125
G1 X117.104 Y109.035 E23.20685
G1 X117.044 Y109.161 E23.21265
G1 X116.939 Y109.215 E23.21756
G1 X115.136 Y109.219 E23.29252
G1 X106.72 Y112.493 E23.66796
G1 X106.718 Y113.915 E23.72708
G1 X106.684 Y114.017 E23.73155
G1 X106.536 Y114.104 E23.73869
G1 X103.515 Y114.11 E23.86429
G1 X103.443 Y114.171 E23.86821
G1 X103.392 Y114.317 E23.87464
G1 X103.393 Y114.683 E23.88986
G1 X103.445 Y114.832 E23.89642
G1 X103.514 Y114.889 E23.90014
G1 X106.535 Y114.896 E24.02574
G1 X106.683 Y114.983 E24.03288
G1 X106.718 Y115.056 E24.03624
G1 X106.719 Y116.713 E24.10513
G1 X115.311 Y125.779 E24.62443
G1 X116.936 Y125.783 E24.69199
G1 X117.044 Y125.838 E24.69703
G1 X117.104 Y125.982 E24.70352
G1 X117.111 Y128.984 E24.82832
G1 X117.172 Y129.056 E24.83225
G1 X117.317 Y129.108 E24.83865
G1 X117.683 Y129.107 E24.85387
G1 X117.832 Y129.055 E24.86043
G1 F1500 E19.86043
G0 F6000 X117.608 Y128.837
G0 X117.67 Y125.555
G0 X118.045 Y125.541
G0 X118.094 Y125.183
G0 X117.921 Y124.129
G0 X118.254 Y124.335
;TYPE:SKIN
G1 F1500 E24.86043
G1 F852.6 X118.302 Y124.291 E24.86424
G1 F1030 X119.094 Y123.79 E24.90963
G1 F1200 X125.335 Y117.203 E25.28689
G1 X125.732 Y116.712 E25.31314
G1 X125.94 Y116.116 E25.33938
G1 X126.004 Y115.751 E25.35479
G1 X126.013 Y115.349 E25.37151
G1 X125.943 Y114.898 E25.39048
G1 X125.815 Y114.515 E25.40727
G1 X125.6 Y114.111 E25.4263
G1 X125.422 Y113.876 E25.43855
G1 X125.084 Y113.558 E25.45785
G1 X124.529 Y113.2 E25.48531
G1 X123.985 Y113.062 E25.50864
G1 X123.622 Y113.023 E25.52382
G1 X111.387 Y113.023 E26.03249
G1 X111.067 Y113.051 E26.04585
G1 X110.454 Y113.211 E26.07218
G1 X109.949 Y113.531 E26.09704
G1 X109.598 Y113.855 E26.1169
G1 X109.42 Y114.08 E26.12883
G1 X109.185 Y114.516 E26.14942
G1 X109.052 Y114.921 E26.16714
G1 X108.992 Y115.301 E26.18314
G1 X108.996 Y115.75 E26.2018
G1 X109.061 Y116.12 E26.21742
G1 X109.196 Y116.508 E26.2345
G1 X109.463 Y116.993 E26.25752
G1 X115.905 Y123.788 E26.6468
G1 F1032.3 X116.709 Y124.295 E26.69274
G1 F857.1 X116.757 Y124.339 E26.69653
G1 F830.4 X117.131 Y124.385 E26.71917
G1 F823.3 X117.5 Y124.459 E26.74197
G1 F817.7 X117.959 Y124.373 E26.77046
G1 F823.3 X118.254 Y124.335 E26.78849
G0 F6000 X118.19 Y123.985
G0 X117.093 Y124.114
G0 X117.001 Y125.181
