;FLAVOR:Marlin
;TIME:7290
;Filament used: 7.65325m
;Layer height: 0.2
;MINX:42.705
;MINY:42.703
;MINZ:0.25
;MAXX:192.295
;MAXY:192.297
;MAXZ:8.05
;Generated with Cura_SteamEngine 5.3.0
M140 S55
M105
M190 S55
M104 S212
M105
M109 S212
M82 ;absolute extrusion mode
START_PRINT
G92 E0
G92 E0
G1 F5100 E-0.6
;LAYER_COUNT:40
;LAYER:0
M107
;MESH:Platform_down_22mm_bearing.stl
G0 F3000 X106.39 Y113.499 Z0.25
;TYPE:WALL-INNER
G1 F5100 E0
G1 F1800 X45.155 Y113.5 E2.54586
G1 X44.787 Y113.422 E2.5615
G1 X44.387 Y113.113 E2.58251
G1 F1686.2 X44.141 Y112.597 E2.60788
G1 F1592.9 X44.359 Y110.064 E2.72732
G1 F1603.6 X44.676 Y107.418 E2.85169
G1 F1607.1 X45.059 Y104.951 E2.96794
G1 F1610.7 X45.529 Y102.486 E3.08452
G1 F1614.3 X46.087 Y100.031 E3.20123
G1 F1610.7 X46.721 Y97.615 E3.31728
G1 F1596.5 X47.308 Y95.636 E3.41404
G1 X47.442 Y95.212 E3.43489
G1 F1610.7 X48.242 Y92.837 E3.55132
G1 F1614.3 X49.123 Y90.486 E3.66771
G1 X50.07 Y88.203 E3.78228
G1 F1618 X51.113 Y85.911 E3.89875
G1 X52.241 Y83.643 E4.01591
G1 F1614.3 X53.433 Y81.438 E4.13211
G1 X54.701 Y79.271 E4.24849
G1 X56.041 Y77.153 E4.36468
G1 F1618 X57.453 Y75.079 E4.48072
G1 X58.936 Y73.057 E4.5967
G1 F1621.6 X60.492 Y71.077 E4.71292
G1 X62.101 Y69.169 E4.8281
G1 X63.764 Y67.323 E4.94276
G1 F1603.6 X64.865 Y66.176 E5.01696
G1 X65.524 Y65.502 E5.06095
G1 F1607.1 X66.619 Y64.437 E5.13207
G1 X67.329 Y63.758 E5.17782
G1 F1621.6 X69.193 Y62.079 E5.29359
G1 F1603.6 X70.336 Y61.109 E5.36355
G1 X71.12 Y60.456 E5.41117
G1 X72.217 Y59.588 E5.47645
G1 X73.082 Y58.916 E5.52757
G1 F1621.6 X75.062 Y57.465 E5.64085
G1 X77.155 Y56.038 E5.75776
G1 X79.299 Y54.683 E5.8748
G1 F1603.6 X80.386 Y54.041 E5.93372
G1 X81.475 Y53.41 E5.99245
G1 X82.546 Y52.825 E6.0494
G1 X83.671 Y52.224 E6.10893
G1 F1621.6 X85.927 Y51.104 E6.22516
G1 F1603.6 X86.969 Y50.623 E6.27872
G1 X88.199 Y50.07 E6.34166
G1 F1600 X89.224 Y49.639 E6.39367
G1 X90.516 Y49.11 E6.45896
G1 F1618 X92.845 Y48.235 E6.57404
G1 X95.252 Y47.426 E6.69149
G1 F1621.6 X97.656 Y46.706 E6.8073
G1 X100.07 Y46.074 E6.92245
G1 X102.527 Y45.517 E7.03872
G1 F1618 X104.963 Y45.052 E7.15342
G1 F1614.3 X107.457 Y44.667 E7.27041
G1 F1618 X109.961 Y44.365 E7.38706
G1 X112.427 Y44.153 E7.50154
G1 F1706.2 X113.003 Y44.305 E7.52767
G1 F1800 X113.412 Y44.747 E7.55271
G1 X113.505 Y45.173 E7.57083
G1 X113.503 Y106.385 E10.11573
G1 F1739.1 X113.282 Y106.961 E10.14228
G1 F1629 X112.962 Y107.237 E10.16169
G1 F1600 X112.505 Y107.458 E10.18544
G1 X112.092 Y107.67 E10.20715
G1 F1596.5 X111.61 Y107.954 E10.23337
G1 F1600 X111.331 Y108.129 E10.24878
G1 F1589.4 X110.666 Y108.597 E10.28707
G1 F1596.5 X109.897 Y109.251 E10.33439
G1 F1600 X109.246 Y109.902 E10.37745
G1 X108.652 Y110.604 E10.42046
G1 F1592.9 X108.122 Y111.344 E10.46322
G1 F1600 X107.959 Y111.604 E10.47757
G1 F1596.5 X107.667 Y112.1 E10.50455
G1 F1600 X107.462 Y112.499 E10.52554
G1 F1585.9 X107.183 Y113.074 E10.55569
G1 F1670.5 X106.941 Y113.286 E10.57011
G1 F1800 X106.39 Y113.499 E10.59467
G0 F3000 X106.693 Y112.972
G1 F1800 X106.362 Y113.099 E10.60941
G1 X45.164 Y113.1 E13.15372
G1 X44.943 Y113.053 E13.16312
G1 X44.703 Y112.868 E13.17571
G1 X44.57 Y112.546 E13.1902
G1 X44.792 Y109.991 E13.29682
G1 X45.095 Y107.483 E13.40185
G1 X45.475 Y105.03 E13.50505
G1 X45.942 Y102.58 E13.60875
G1 X46.497 Y100.138 E13.71286
G1 X47.127 Y97.736 E13.8161
G1 X47.843 Y95.347 E13.91979
G1 X48.639 Y92.986 E14.02338
G1 X49.514 Y90.648 E14.12717
G1 X50.469 Y88.347 E14.23074
G1 X51.491 Y86.099 E14.33341
G1 X52.613 Y83.844 E14.43812
G1 X53.798 Y81.652 E14.54172
G1 X55.064 Y79.489 E14.64592
G1 X56.39 Y77.391 E14.7491
G1 X57.8 Y75.321 E14.85323
G1 X59.268 Y73.318 E14.95648
G1 X60.815 Y71.349 E15.06059
G1 X62.415 Y69.452 E15.16376
G1 X64.077 Y67.606 E15.26703
G1 X65.817 Y65.806 E15.37111
G1 X67.612 Y64.072 E15.47488
G1 X69.465 Y62.402 E15.57859
G1 X71.381 Y60.788 E15.68274
G1 X73.331 Y59.256 E15.78584
G1 X75.312 Y57.806 E15.8879
G1 X77.381 Y56.395 E15.99202
G1 X79.512 Y55.047 E16.09686
G1 X81.657 Y53.791 E16.2002
G1 X83.859 Y52.602 E16.30424
G1 X86.102 Y51.488 E16.40836
G1 X88.361 Y50.46 E16.51155
G1 X90.664 Y49.506 E16.61519
G1 X93 Y48.63 E16.71891
G1 X95.373 Y47.831 E16.82301
G1 X97.763 Y47.115 E16.92674
G1 X100.163 Y46.486 E17.02989
G1 X102.606 Y45.932 E17.13403
G1 X105.052 Y45.466 E17.23756
G1 X107.508 Y45.087 E17.34087
G1 X109.997 Y44.785 E17.44511
G1 X112.459 Y44.574 E17.54785
G1 X112.804 Y44.652 E17.56255
G1 X113.049 Y44.917 E17.57756
G1 X113.105 Y45.173 E17.58845
G1 X113.104 Y106.358 E20.13223
G1 X112.978 Y106.688 E20.14691
G1 X112.772 Y106.854 E20.15791
G1 X111.894 Y107.291 E20.19869
G1 X111.104 Y107.767 E20.23703
G1 X110.341 Y108.316 E20.27611
G1 X109.596 Y108.95 E20.31678
G1 X108.939 Y109.607 E20.35541
G1 X108.322 Y110.335 E20.39509
G1 X107.77 Y111.101 E20.43434
G1 X107.297 Y111.886 E20.47245
G1 X106.823 Y112.834 E20.51651
G1 X106.693 Y112.972 E20.52439
G0 F3000 X107.012 Y113.131
G0 X106.933 Y116.669
G0 X107.045 Y121.344
G1 F1800 X106.77 Y120.518 E20.56059
G1 X106.534 Y119.489 E20.60448
G1 X106.399 Y118.468 E20.6473
G1 X106.354 Y117.5 E20.68758
G1 X106.399 Y116.532 E20.72787
G1 X106.534 Y115.511 E20.77069
G1 X106.77 Y114.482 E20.81458
G1 X107.045 Y113.656 E20.85078
G1 X106.417 Y113.898 E20.87876
G1 X45.146 Y113.9 E23.42611
G1 X44.631 Y113.79 E23.448
G1 X44.071 Y113.358 E23.47741
G1 X44.035 Y113.271 E23.48132
G1 X43.95 Y115.013 E23.55383
G1 X43.906 Y117.56 E23.65974
G1 X43.947 Y119.948 E23.75904
G1 X44.036 Y121.74 E23.83363
G1 X44.07 Y121.643 E23.8379
G1 X44.631 Y121.21 E23.86737
G1 X45.145 Y121.1 E23.88922
G1 X106.417 Y121.102 E26.43661
G1 X107.045 Y121.344 E26.4646
G1 F5100 E25.8646
G0 F3000 X112.017 Y127.503
G0 X113.338 Y128.166
G0 X118.142 Y191.496
G1 F5100 E26.4646
G1 F1800 X120.589 Y191.435 E26.56636
G1 X121.959 Y191.357 E26.62341
G1 F1702.1 X122.624 Y191.292 E26.65279
G1 F1596.5 X123.051 Y191.271 E26.67283
G1 F1589.4 X125.722 Y191.013 E26.79917
G1 F1585.9 X125.849 Y191.007 E26.80517
G1 F1582.4 X128.037 Y190.72 E26.90954
G1 F1589.4 X130.486 Y190.326 E27.02633
G1 F1592.9 X132.926 Y189.849 E27.14313
G1 F1600 X135.162 Y189.334 E27.25045
G1 F1592.9 X135.28 Y189.313 E27.25608
G1 F1589.4 X137.876 Y188.611 E27.3827
G1 F1585.9 X138.004 Y188.584 E27.38887
G1 F1582.4 X140.133 Y187.928 E27.49423
G1 F1592.9 X142.489 Y187.127 E27.61113
G1 F1596.5 X144.809 Y186.251 E27.72738
G1 F1600 X147.097 Y185.296 E27.84334
G1 F1603.6 X149.308 Y184.288 E27.95674
G1 F1600 X151.454 Y183.228 E28.06869
G1 X153.795 Y181.962 E28.19317
G1 X155.997 Y180.674 E28.31249
G1 X158.017 Y179.394 E28.42434
G1 X160.008 Y178.042 E28.5369
G1 F1592.9 X160.102 Y177.985 E28.54207
G1 X162.081 Y176.535 E28.65733
G1 F1596.5 X164.048 Y174.996 E28.7744
G1 X165.946 Y173.406 E28.89046
G1 X167.805 Y171.74 E29.00748
G1 F1600 X169.599 Y170.019 E29.12376
G1 F1596.5 X171.333 Y168.24 E29.24021
G1 F1592.9 X172.969 Y166.445 E29.35431
G1 X174.593 Y164.541 E29.47188
G1 X176.143 Y162.596 E29.58872
G1 X177.644 Y160.57 E29.70718
G1 X179.059 Y158.524 E29.82405
G1 X180.403 Y156.433 E29.94082
G1 X181.674 Y154.299 E30.05751
G1 F1589.4 X182.877 Y152.121 E30.17466
G1 X184.001 Y149.908 E30.29153
G1 F1596.5 X185.135 Y147.451 E30.41838
G1 F1600 X185.189 Y147.349 E30.42378
G1 F1589.4 X186.011 Y145.406 E30.52311
G1 F1603.6 X186.314 Y144.638 E30.56164
G1 X186.924 Y143.049 E30.64107
G1 F1585.9 X187.743 Y140.704 E30.75828
G1 X188.472 Y138.368 E30.87376
G1 X189.133 Y135.974 E30.99095
G1 F1578.9 X189.796 Y133.211 E31.12562
G1 X190.217 Y131.087 E31.22825
G1 F1607.1 X190.393 Y130.085 E31.27562
G1 X190.628 Y128.671 E31.34237
G1 X190.777 Y127.62 E31.3918
G1 F1603.6 X190.966 Y126.171 E31.45999
G1 X191.08 Y125.105 E31.51002
G1 F1607.1 X191.215 Y123.708 E31.57538
G1 X191.296 Y122.599 E31.62715
G1 F1710.2 X191.361 Y121.946 E31.65587
G1 F1800 X191.408 Y121.251 E31.68483
G1 X191.494 Y118.775 E31.78783
G1 X191.493 Y116.204 E31.89472
G1 X191.41 Y113.758 E31.99647
G1 X191.363 Y113.066 E32.02531
G1 F1690.1 X191.306 Y112.617 E32.04535
G1 F1589.4 X191.215 Y111.285 E32.10821
G1 F1582.4 X190.967 Y108.822 E32.22528
G1 F1600 X190.774 Y107.356 E32.29444
G1 F1603.6 X190.631 Y106.349 E32.34191
G1 F1607.1 X190.389 Y104.886 E32.41095
G1 X190.216 Y103.899 E32.45761
G1 F1592.9 X189.758 Y101.653 E32.5653
G1 F1582.4 X189.739 Y101.528 E32.57128
G1 F1578.9 X189.141 Y99.055 E32.69187
G1 F1603.6 X188.713 Y97.483 E32.7679
G1 X188.481 Y96.662 E32.80772
G1 F1585.9 X187.737 Y94.278 E32.92556
G1 X186.918 Y91.932 E33.04282
G1 F1600 X186.296 Y90.313 E33.12394
G1 F1603.6 X186.02 Y89.616 E33.15892
G1 X185.329 Y87.983 E33.24167
G1 X185.044 Y87.33 E33.27492
G1 F1589.4 X183.993 Y85.077 E33.39198
G1 F1607.1 X183.175 Y83.456 E33.47653
G1 X182.867 Y82.863 E33.50764
G1 F1585.9 X181.667 Y80.686 E33.62494
G1 F1589.4 X180.394 Y78.55 E33.74202
G1 X179.049 Y76.46 E33.85904
G1 F1592.9 X177.635 Y74.416 E33.97581
G1 X176.154 Y72.419 E34.09261
G1 F1589.4 X174.609 Y70.475 E34.20953
G1 X172.995 Y68.584 E34.32658
G1 F1592.9 X171.321 Y66.747 E34.44334
G1 F1600 X169.586 Y64.968 E34.55957
G1 X167.792 Y63.247 E34.67585
G1 F1596.5 X165.941 Y61.589 E34.79233
G1 F1592.9 X164.043 Y60 E34.90862
G1 F1596.5 X162.078 Y58.464 E35.02554
G1 F1600 X159.983 Y56.941 E35.14668
G1 F1592.9 X159.881 Y56.86 E35.1528
G1 X158.015 Y55.604 E35.25847
G1 F1600 X155.977 Y54.314 E35.37129
G1 X153.752 Y53.014 E35.49182
G1 X151.493 Y51.793 E35.61192
G1 F1603.6 X151.396 Y51.751 E35.61685
G1 F1607.1 X149.309 Y50.713 E35.72539
G1 F1603.6 X147.126 Y49.717 E35.83737
G1 F1600 X144.796 Y48.744 E35.95547
G1 F1596.5 X142.483 Y47.871 E36.07136
G1 X140.166 Y47.083 E36.18608
G1 X137.849 Y46.38 E36.29958
G1 F1589.4 X137.746 Y46.343 E36.30473
G1 F1592.9 X135.133 Y45.659 E36.43163
G1 X135.02 Y45.622 E36.43721
G1 X132.921 Y45.151 E36.53828
G1 F1600 X130.515 Y44.68 E36.65295
G1 F1596.5 X128.033 Y44.281 E36.77079
G1 F1592.9 X125.694 Y43.984 E36.88155
G1 F1585.9 X125.584 Y43.964 E36.88683
G1 F1589.4 X122.944 Y43.729 E37.01162
G1 F1592.9 X122.824 Y43.711 E37.01732
G1 F1568.6 X122.366 Y43.688 E37.0392
G1 F1666.7 X121.959 Y43.635 E37.05763
G1 F1800 X120.594 Y43.566 E37.11445
G1 X118.123 Y43.503 E37.21722
G1 X115.648 Y43.524 E37.32012
G1 X113.157 Y43.63 E37.42378
G1 F1706.2 X112.382 Y43.712 E37.45796
G1 F1603.6 X110.671 Y43.845 E37.53805
G1 X109.875 Y43.927 E37.57539
G1 F1600 X108.201 Y44.116 E37.65419
G1 F1585.9 X105.74 Y44.469 E37.77151
G1 F1600 X104.886 Y44.614 E37.81202
G1 X103.294 Y44.904 E37.88771
G1 F1585.9 X100.875 Y45.421 E38.00443
G1 F1582.4 X98.461 Y46.021 E38.12207
G1 X96.061 Y46.704 E38.24008
G1 F1600 X95.08 Y47.014 E38.2882
G1 X93.694 Y47.465 E38.35637
G1 X92.68 Y47.823 E38.40666
G1 X91.356 Y48.303 E38.47253
G1 F1582.4 X89.046 Y49.22 E38.59007
G1 F1600 X88.002 Y49.67 E38.64324
G1 F1603.6 X86.779 Y50.212 E38.70567
G1 X85.719 Y50.711 E38.76035
G1 F1600 X84.525 Y51.287 E38.82235
G1 X83.451 Y51.838 E38.87881
G1 F1603.6 X82.328 Y52.428 E38.93801
G1 X81.241 Y53.031 E38.99602
G1 F1600 X80.153 Y53.651 E39.05459
G1 X79.053 Y54.312 E39.11462
G1 F1603.6 X78.031 Y54.942 E39.17065
G1 F1585.9 X75.959 Y56.298 E39.2875
G1 F1600 X74.806 Y57.101 E39.35321
G1 X73.918 Y57.733 E39.40419
G1 X72.801 Y58.57 E39.46948
G1 X71.934 Y59.232 E39.5205
G1 X70.828 Y60.12 E39.58684
G1 X70.042 Y60.765 E39.63439
G1 X68.891 Y61.752 E39.70531
G1 X68.125 Y62.425 E39.753
G1 F1603.6 X67.016 Y63.442 E39.82322
G1 X66.303 Y64.113 E39.86892
G1 X65.202 Y65.196 E39.94099
G1 X64.537 Y65.864 E39.98498
G1 X63.455 Y67.002 E40.05826
G1 X62.833 Y67.672 E40.10092
G1 F1600 X61.759 Y68.883 E40.17663
G1 X61.191 Y69.536 E40.21711
G1 F1585.9 X59.618 Y71.449 E40.33398
G1 F1603.6 X58.577 Y72.794 E40.41335
G1 F1600 X58.096 Y73.428 E40.45057
G1 F1603.6 X57.074 Y74.845 E40.53211
G1 X56.65 Y75.446 E40.56643
G1 F1589.4 X55.269 Y77.517 E40.68364
G1 F1600 X54.322 Y79.037 E40.7674
G1 X53.983 Y79.595 E40.79794
G1 F1589.4 X52.745 Y81.75 E40.91495
G1 X51.581 Y83.945 E41.03193
G1 F1592.9 X50.479 Y86.204 E41.15002
G1 F1596.5 X49.462 Y88.485 E41.26709
G1 F1592.9 X48.524 Y90.787 E41.38387
G1 X47.679 Y93.082 E41.49876
G1 F1596.5 X46.921 Y95.374 E41.61193
G1 F1589.4 X46.88 Y95.479 E41.61723
G1 F1592.9 X46.287 Y97.499 E41.71614
G1 F1600 X45.567 Y100.27 E41.85005
G1 F1596.5 X45.036 Y102.66 E41.96481
G1 F1600 X44.572 Y105.139 E42.08277
G1 X44.198 Y107.598 E42.19911
G1 X43.911 Y110.026 E42.31346
G1 F1603.6 X43.711 Y112.373 E42.42339
G1 F1585.9 X43.696 Y112.643 E42.43615
G1 F1674.4 X43.632 Y113.351 E42.46792
G1 F1800 X43.548 Y115.019 E42.53736
G1 X43.506 Y117.567 E42.6433
G1 X43.549 Y120.006 E42.74472
G1 X43.631 Y121.65 E42.81316
G1 F1694.1 X43.907 Y124.942 E42.95909
G1 F1596.5 X44.199 Y127.41 E43.07558
G1 X44.572 Y129.868 E43.19212
G1 F1600 X45.03 Y132.309 E43.30829
G1 F1596.5 X45.569 Y134.737 E43.42487
G1 F1592.9 X46.191 Y137.153 E43.54208
G1 F1596.5 X46.931 Y139.656 E43.66443
G1 F1592.9 X46.959 Y139.781 E43.67045
G1 F1585.9 X47.666 Y141.884 E43.77514
G1 F1589.4 X48.527 Y144.22 E43.89236
G1 X49.449 Y146.487 E44.00759
G1 X50.482 Y148.803 E44.12699
G1 X51.567 Y151.027 E44.2435
G1 X52.729 Y153.221 E44.3604
G1 F1585.9 X53.966 Y155.378 E44.47773
G1 X55.274 Y157.489 E44.59492
G1 X56.654 Y159.56 E44.71235
G1 X58.1 Y161.578 E44.8295
G1 X59.622 Y163.557 E44.94731
G1 X61.195 Y165.47 E45.06418
G1 X62.813 Y167.304 E45.17959
G1 F1603.6 X63.454 Y167.997 E45.22364
G1 X64.516 Y169.114 E45.29557
G1 X65.201 Y169.803 E45.34091
G1 X66.28 Y170.865 E45.41156
G1 F1600 X67.015 Y171.557 E45.45878
G1 X68.131 Y172.58 E45.52959
G1 F1585.9 X70.017 Y174.216 E45.6474
G1 F1600 X70.827 Y174.879 E45.69636
G1 X71.941 Y175.772 E45.76314
G1 F1603.6 X72.815 Y176.44 E45.81448
G1 F1600 X73.893 Y177.248 E45.87749
G1 X74.853 Y177.931 E45.93259
G1 X75.933 Y178.685 E45.9942
G1 X76.93 Y179.346 E46.05015
G1 F1603.6 X78.004 Y180.041 E46.10985
G1 X79.053 Y180.687 E46.16734
G1 F1600 X80.16 Y181.353 E46.22777
G1 X81.241 Y181.968 E46.28594
G1 F1603.6 X82.336 Y182.575 E46.34437
G1 X83.451 Y183.162 E46.40317
G1 X84.532 Y183.714 E46.45982
G1 F1600 X85.718 Y184.289 E46.52146
G1 X86.785 Y184.79 E46.5766
G1 X88.001 Y185.329 E46.63881
G1 X89.054 Y185.783 E46.69244
G1 X90.332 Y186.296 E46.75685
G1 F1596.5 X91.363 Y186.699 E46.80874
G1 X92.695 Y187.184 E46.87519
G1 X93.701 Y187.537 E46.92517
G1 F1600 X95.119 Y187.998 E46.99491
G1 F1603.6 X96.068 Y188.297 E47.04134
G1 F1600 X97.506 Y188.713 E47.11136
G1 X98.468 Y188.981 E47.15807
G1 X99.967 Y189.358 E47.23036
G1 X100.847 Y189.571 E47.27271
G1 X102.411 Y189.913 E47.34759
G1 X103.309 Y190.097 E47.39046
G1 X104.882 Y190.385 E47.46526
G1 X105.747 Y190.531 E47.50629
G1 X107.372 Y190.772 E47.58312
G1 X108.168 Y190.879 E47.62069
G1 X109.888 Y191.075 E47.70166
G1 F1603.6 X110.678 Y191.156 E47.73872
G1 F1585.9 X112.61 Y191.303 E47.83015
G1 F1686.2 X113.156 Y191.369 E47.85456
G1 F1800 X115.609 Y191.475 E47.95664
G1 X118.142 Y191.496 E48.06195
G0 F3000 X118.152 Y191.896
G1 F1800 X120.623 Y191.834 E48.16472
G1 X123.027 Y191.696 E48.26483
G1 X123.033 Y191.703 E48.26521
G1 X125.836 Y191.434 E48.38228
G1 X125.844 Y191.441 E48.38272
G1 X128.105 Y191.141 E48.47755
G1 X130.567 Y190.745 E48.58122
G1 X133.001 Y190.268 E48.68434
G1 X135.326 Y189.736 E48.7835
G1 X135.333 Y189.743 E48.78391
G1 X138.054 Y189.003 E48.90115
G1 X138.07 Y189.012 E48.90191
G1 X140.27 Y188.331 E48.99766
G1 X142.64 Y187.526 E49.10172
G1 X144.973 Y186.644 E49.20542
G1 X147.273 Y185.683 E49.30905
G1 X149.485 Y184.674 E49.41013
G1 X151.61 Y183.627 E49.50862
G1 X154.009 Y182.329 E49.62202
G1 X156.225 Y181.033 E49.72875
G1 X158.255 Y179.746 E49.82868
G1 X160.3 Y178.361 E49.93137
G1 X160.309 Y178.363 E49.93175
G1 X162.342 Y176.87 E50.03661
G1 X164.322 Y175.323 E50.14108
G1 X166.23 Y173.723 E50.24461
G1 X168.099 Y172.047 E50.34898
G1 X169.903 Y170.316 E50.45292
G1 X171.648 Y168.528 E50.55679
G1 X173.297 Y166.716 E50.65865
G1 X174.926 Y164.807 E50.76299
G1 X176.485 Y162.85 E50.86701
G1 X177.995 Y160.813 E50.97243
G1 X179.418 Y158.754 E51.07649
G1 X180.769 Y156.652 E51.18037
G1 X182.043 Y154.515 E51.28381
G1 X183.257 Y152.314 E51.38831
G1 X184.389 Y150.087 E51.49218
G1 X185.551 Y147.57 E51.60743
G1 X185.559 Y147.569 E51.60777
G1 X186.409 Y145.561 E51.69842
G1 X187.327 Y143.19 E51.80413
G1 X188.151 Y140.832 E51.90798
