;FLAVOR:Marlin
;TIME:4941
;Filament used: 5.92127m
;Layer height: 0.2
;MINX:94.801
;MINY:94.801
;MINZ:0.25
;MAXX:140.199
;MAXY:140.199
;MAXZ:46.05
;Generated with Cura_SteamEngine 5.3.0
M140 S55
M105
M190 S55
M104 S212
M105
M109 S212
M82 ;absolute extrusion mode
START_PRINT
G92 E0
G92 E0
G1 F3000 E-6.5
;LAYER_COUNT:230
;LAYER:0
M107
;MESH:22mm-Base-Mount.stl
G0 X118.764 Y136.579 Z0.25
;TYPE:WALL-INNER
G1 F3000 E0
G1 F1800 X120.245 Y136.487 E0.09254
G1 X121.67 Y136.287 E0.18228
G1 X123.115 Y135.972 E0.27451
G1 X124.566 Y135.535 E0.36901
G1 X124.869 Y135.426 E0.38909
G1 X125.123 Y135.321 E0.40623
G1 X125.953 Y135.001 E0.46171
G1 X126.614 Y134.702 E0.50695
G1 X127.036 Y134.497 E0.53621
G1 X127.893 Y133.934 E0.60015
G1 X128.431 Y133.547 E0.64148
G1 X128.974 Y133.128 E0.68425
G1 X129.483 Y132.705 E0.72553
G1 X129.997 Y132.247 E0.76846
G1 X130.484 Y131.781 E0.8105
G1 X130.955 Y131.298 E0.85257
G1 X131.402 Y130.806 E0.89402
G1 X131.845 Y130.282 E0.93681
G1 X132.262 Y129.753 E0.97882
G1 X132.659 Y129.213 E1.02062
G1 X133.037 Y128.657 E1.06255
G1 X133.401 Y128.076 E1.1053
G1 X133.694 Y127.58 E1.14123
G1 X134.058 Y126.899 E1.18938
G1 X134.348 Y126.306 E1.23055
G1 X134.603 Y125.735 E1.26955
G1 X134.837 Y125.165 E1.30797
G1 X135.015 Y124.688 E1.33972
G1 X135.031 Y124.678 E1.3409
G1 X135.243 Y124.023 E1.38384
G1 X135.479 Y123.228 E1.43555
G1 X135.673 Y122.44 E1.48616
G1 X135.757 Y122.054 E1.5108
G1 X135.902 Y121.251 E1.56168
G1 X135.971 Y120.761 E1.59254
G1 X136.05 Y120.051 E1.63709
G1 X136.092 Y119.474 E1.67317
G1 X136.106 Y119.462 E1.67432
G1 X136.13 Y118.432 E1.73857
G1 X136.113 Y117.391 E1.8035
G1 X136.014 Y116.262 E1.87418
G1 X136.023 Y116.251 E1.87507
G1 X135.868 Y115.212 E1.94058
G1 X135.716 Y114.425 E1.99056
G1 X135.49 Y113.505 E2.04964
G1 X135.498 Y113.489 E2.05076
G1 X135.18 Y112.47 E2.11733
G1 X134.906 Y111.701 E2.16824
G1 X134.764 Y111.344 E2.1922
G1 X134.499 Y110.727 E2.23408
G1 X134.224 Y110.147 E2.27411
G1 X133.918 Y109.554 E2.31572
G1 X133.595 Y108.984 E2.35658
G1 X133.252 Y108.424 E2.39753
G1 X132.892 Y107.879 E2.43826
G1 X132.516 Y107.358 E2.47833
G1 X132.108 Y106.829 E2.52
G1 X131.699 Y106.335 E2.55999
G1 X131.469 Y106.044 E2.58312
G1 X130.983 Y105.477 E2.62969
G1 X130.502 Y104.959 E2.67378
G1 X130.018 Y104.476 E2.71642
G1 X129.626 Y104.11 E2.74986
G1 X128.955 Y103.533 E2.80505
G1 X128.396 Y103.093 E2.84942
G1 X127.795 Y102.657 E2.89572
G1 X127.142 Y102.225 E2.94455
G1 X126.433 Y101.805 E2.99594
G1 X126.426 Y101.792 E2.99686
G1 X125.883 Y101.5 E3.03531
G1 X125.241 Y101.18 E3.08005
G1 X124.507 Y100.851 E3.13021
G1 X123.647 Y100.507 E3.18797
G1 X123.637 Y100.514 E3.18873
G1 X123.148 Y100.342 E3.22106
G1 X122.466 Y100.133 E3.26554
G1 X121.693 Y99.929 E3.3154
G1 X120.771 Y99.742 E3.37407
G1 X120.764 Y99.73 E3.37493
G1 X120.276 Y99.65 E3.40577
G1 X119.679 Y99.57 E3.44334
G1 X119.667 Y99.555 E3.44454
G1 X118.773 Y99.481 E3.50048
G1 X118.033 Y99.443 E3.54669
G1 X117.318 Y99.437 E3.59128
G1 X116.599 Y99.459 E3.63614
G1 X115.866 Y99.511 E3.68197
G1 X115.073 Y99.6 E3.73173
G1 X114.371 Y99.709 E3.77603
G1 X113.65 Y99.852 E3.82187
G1 X112.88 Y100.038 E3.87127
G1 X112.189 Y100.234 E3.91607
G1 X111.699 Y100.397 E3.94827
G1 X111.688 Y100.389 E3.94912
G1 X110.83 Y100.712 E4.00629
G1 X110.086 Y101.028 E4.0567
G1 X109.425 Y101.341 E4.10231
G1 X108.789 Y101.676 E4.14714
G1 X108.164 Y102.034 E4.19206
G1 X107.477 Y102.47 E4.2428
G1 X106.905 Y102.869 E4.28629
G1 X106.238 Y103.376 E4.33854
G1 X105.696 Y103.825 E4.38243
G1 X105.155 Y104.312 E4.42783
G1 X104.65 Y104.804 E4.4718
G1 X104.159 Y105.322 E4.51631
G1 X103.606 Y105.955 E4.56872
G1 X103.165 Y106.507 E4.61278
G1 X102.744 Y107.08 E4.65713
G1 X102.348 Y107.666 E4.70123
G1 X101.903 Y108.386 E4.75402
G1 X101.562 Y108.999 E4.79776
G1 X101.241 Y109.629 E4.84186
G1 X100.954 Y110.253 E4.88469
G1 X100.622 Y111.062 E4.93923
G1 X100.385 Y111.718 E4.98272
G1 X100.174 Y112.385 E5.02635
G1 X99.991 Y113.056 E5.06972
G1 X99.795 Y113.914 E5.12461
G1 X99.67 Y114.593 E5.16767
G1 X99.572 Y115.271 E5.21039
G1 X99.486 Y116.161 E5.26615
G1 X99.447 Y116.857 E5.30962
G1 X99.436 Y117.535 E5.35191
G1 X99.45 Y118.19 E5.39277
G1 X99.513 Y119.163 E5.45357
G1 X99.584 Y119.812 E5.49429
G1 X99.679 Y120.462 E5.53525
G1 X99.797 Y121.093 E5.57529
G1 X99.934 Y121.71 E5.6147
G1 X100.033 Y122.1 E5.63979
G1 X100.208 Y122.724 E5.68021
G1 X100.388 Y123.291 E5.71731
G1 X100.814 Y124.475 E5.79578
G1 X100.981 Y124.898 E5.82414
G1 X101.491 Y126.041 E5.9022
G1 X101.79 Y126.629 E5.94333
G1 X102.138 Y127.261 E5.98833
G1 X102.499 Y127.871 E6.03253
G1 X102.874 Y128.458 E6.07597
G1 X103.699 Y129.593 E6.16347
G1 X104.613 Y130.665 E6.25133
G1 X105.606 Y131.656 E6.33882
G1 X106.696 Y132.58 E6.42793
G1 X107.829 Y133.396 E6.515
G1 X109.056 Y134.147 E6.60472
G1 X109.695 Y134.487 E6.64986
G1 X110.323 Y134.795 E6.69348
G1 X110.991 Y135.091 E6.73904
G1 X111.651 Y135.353 E6.78333
G1 X113.015 Y135.811 E6.87306
G1 X114.599 Y136.204 E6.97483
G1 X115.923 Y136.426 E7.05856
G1 X117.303 Y136.556 E7.145
G1 X118.764 Y136.579 E7.23612
G0 F3000 X118.778 Y137.179
;TYPE:WALL-OUTER
G1 F1800 X120.305 Y137.085 E7.33153
G1 X121.776 Y136.878 E7.42417
G1 X123.266 Y136.553 E7.51927
G1 X124.754 Y136.105 E7.61618
G1 X125.085 Y135.986 E7.63812
G1 X125.339 Y135.881 E7.65526
G1 X126.185 Y135.555 E7.7118
G1 X126.868 Y135.246 E7.75855
G1 X127.333 Y135.02 E7.79079
G1 X128.233 Y134.428 E7.85797
G1 X128.789 Y134.028 E7.90069
G1 X129.349 Y133.596 E7.94479
G1 X129.875 Y133.16 E7.9874
G1 X130.404 Y132.688 E8.03161
G1 X130.906 Y132.207 E8.07497
G1 X131.392 Y131.709 E8.11837
G1 X131.853 Y131.202 E8.1611
G1 X132.31 Y130.662 E8.20522
G1 X132.74 Y130.117 E8.24851
G1 X133.149 Y129.559 E8.29165
G1 X133.539 Y128.985 E8.33493
G1 X133.913 Y128.388 E8.37886
G1 X134.217 Y127.874 E8.41611
G1 X134.592 Y127.173 E8.46568
G1 X134.892 Y126.56 E8.50825
G1 X135.155 Y125.971 E8.54847
G1 X135.396 Y125.383 E8.5881
G1 X135.577 Y124.898 E8.62039
G1 X135.594 Y124.887 E8.62165
G1 X135.816 Y124.201 E8.66661
G1 X136.058 Y123.386 E8.71963
G1 X136.258 Y122.575 E8.77172
G1 X136.345 Y122.17 E8.79756
G1 X136.494 Y121.347 E8.84972
G1 X136.567 Y120.836 E8.88191
G1 X136.648 Y120.106 E8.92771
G1 X136.69 Y119.518 E8.96447
G1 X136.705 Y119.504 E8.96575
G1 X136.73 Y118.434 E9.0325
G1 X136.713 Y117.36 E9.09949
G1 X136.612 Y116.21 E9.17148
G1 X136.622 Y116.197 E9.1725
G1 X136.46 Y115.111 E9.24098
G1 X136.302 Y114.296 E9.29275
G1 X136.072 Y113.361 E9.3528
G1 X136.081 Y113.345 E9.35394
G1 X135.749 Y112.28 E9.42351
G1 X135.468 Y111.489 E9.47586
G1 X135.318 Y111.114 E9.50105
G1 X135.046 Y110.48 E9.54407
G1 X134.762 Y109.881 E9.58541
G1 X134.446 Y109.268 E9.62842
G1 X134.112 Y108.68 E9.67059
G1 X133.758 Y108.102 E9.71286
G1 X133.386 Y107.538 E9.755
G1 X132.997 Y106.999 E9.79645
G1 X132.576 Y106.454 E9.8394
G1 X132.17 Y105.963 E9.87913
G1 X131.933 Y105.663 E9.90297
G1 X131.431 Y105.077 E9.95109
G1 X130.934 Y104.543 E9.99658
G1 X130.435 Y104.044 E10.04059
G1 X130.026 Y103.663 E10.07545
G1 X129.337 Y103.069 E10.13218
G1 X128.758 Y102.614 E10.17811
G1 X128.137 Y102.164 E10.22593
G1 X127.461 Y101.717 E10.27647
G1 X126.739 Y101.289 E10.32882
G1 X126.731 Y101.275 E10.32982
G1 X126.159 Y100.967 E10.37034
G1 X125.497 Y100.638 E10.41644
G1 X124.741 Y100.299 E10.46811
G1 X123.847 Y99.94 E10.52819
G1 X123.836 Y99.948 E10.52903
G1 X123.335 Y99.772 E10.56215
G1 X122.63 Y99.556 E10.60813
G1 X121.829 Y99.345 E10.65979
G1 X120.899 Y99.156 E10.71897
G1 X120.892 Y99.143 E10.71989
G1 X120.365 Y99.056 E10.7532
G1 X119.759 Y98.975 E10.79133
G1 X119.746 Y98.959 E10.79262
G1 X118.813 Y98.882 E10.851
G1 X118.051 Y98.843 E10.89858
G1 X117.312 Y98.837 E10.94467
G1 X116.569 Y98.859 E10.99102
G1 X115.811 Y98.913 E11.03842
G1 X114.993 Y99.005 E11.08975
G1 X114.267 Y99.118 E11.13557
G1 X113.521 Y99.266 E11.183
G1 X112.728 Y99.458 E11.23388
G1 X112.013 Y99.66 E11.28022
G1 X111.51 Y99.827 E11.31327
G1 X111.498 Y99.819 E11.31417
G1 X110.607 Y100.155 E11.37355
G1 X109.84 Y100.48 E11.4255
G1 X109.157 Y100.804 E11.47265
G1 X108.5 Y101.15 E11.51895
G1 X107.854 Y101.52 E11.56538
G1 X107.145 Y101.97 E11.61775
G1 X106.551 Y102.384 E11.6629
G1 X105.865 Y102.906 E11.71666
G1 X105.304 Y103.371 E11.7621
G1 X104.745 Y103.874 E11.809
G1 X104.222 Y104.383 E11.85451
G1 X103.715 Y104.918 E11.90047
G1 X103.146 Y105.57 E11.95444
G1 X102.689 Y106.142 E12.0001
G1 X102.254 Y106.734 E12.04591
G1 X101.844 Y107.34 E12.09154
G1 X101.385 Y108.082 E12.14595
G1 X101.032 Y108.717 E12.19126
G1 X100.701 Y109.367 E12.23675
G1 X100.404 Y110.014 E12.28115
G1 X100.062 Y110.846 E12.33725
G1 X99.817 Y111.526 E12.38232
G1 X99.598 Y112.215 E12.42741
G1 X99.409 Y112.91 E12.47232
G1 X99.207 Y113.793 E12.52881
G1 X99.078 Y114.496 E12.57338
G1 X98.976 Y115.199 E12.61769
G1 X98.888 Y116.115 E12.67507
G1 X98.847 Y116.835 E12.72005
G1 X98.836 Y117.537 E12.76383
G1 X98.85 Y118.216 E12.80618
G1 X98.915 Y119.215 E12.86862
G1 X98.989 Y119.888 E12.91084
G1 X99.087 Y120.56 E12.95319
G1 X99.209 Y121.213 E12.99462
G1 X99.35 Y121.849 E13.03524
G1 X99.453 Y122.255 E13.06136
G1 X99.633 Y122.896 E13.10289
G1 X99.82 Y123.483 E13.1413
G1 X100.252 Y124.687 E13.22108
G1 X100.428 Y125.131 E13.25086
G1 X100.949 Y126.299 E13.33062
G1 X101.26 Y126.91 E13.37337
G1 X101.617 Y127.559 E13.41957
G1 X101.988 Y128.185 E13.46495
G1 X102.378 Y128.796 E13.51015
G1 X103.227 Y129.965 E13.60025
G1 X104.172 Y131.073 E13.69107
G1 X105.2 Y132.098 E13.7816
G1 X106.326 Y133.053 E13.87367
G1 X107.497 Y133.896 E13.96366
G1 X108.758 Y134.668 E14.05586
G1 X109.422 Y135.021 E14.10276
G1 X110.069 Y135.339 E14.14772
G1 X110.759 Y135.644 E14.19477
G1 X111.445 Y135.917 E14.24081
G1 X112.847 Y136.387 E14.33302
G1 X114.477 Y136.792 E14.43777
G1 X115.845 Y137.021 E14.52427
G1 X117.27 Y137.156 E14.61353
G1 X118.778 Y137.179 E14.70758
G0 F3000 X118.773 Y136.481
G0 X118.745 Y136.038
;TYPE:SKIN
G1 F1500 X117.327 Y136.016 E14.79603
G1 X116.006 Y135.891 E14.87877
G1 X114.703 Y135.672 E14.96117
G1 X113.158 Y135.289 E15.06044
G1 X111.837 Y134.846 E15.14733
G1 X111.207 Y134.594 E15.18964
G1 X110.546 Y134.302 E15.23471
G1 X109.938 Y134.003 E15.27696
G1 X109.326 Y133.678 E15.32018
G1 X108.118 Y132.938 E15.40852
G1 X107.039 Y132.161 E15.49144
G1 X105.963 Y131.249 E15.57941
G1 X105.019 Y130.308 E15.66253
G1 X104.117 Y129.248 E15.74933
G1 X103.326 Y128.161 E15.83316
G1 X102.957 Y127.582 E15.87598
G1 X102.607 Y126.993 E15.91871
G1 X102.266 Y126.371 E15.96295
G1 X101.975 Y125.8 E16.00291
G1 X101.478 Y124.682 E16.07921
G1 X101.316 Y124.278 E16.10636
G1 X100.897 Y123.111 E16.18368
G1 X100.723 Y122.563 E16.21954
G1 X100.555 Y121.958 E16.2587
G1 X100.459 Y121.58 E16.28302
G1 X100.325 Y120.978 E16.32148
G1 X100.21 Y120.366 E16.36031
G1 X100.119 Y119.738 E16.39989
G1 X100.052 Y119.122 E16.43853
G1 X99.99 Y118.159 E16.49871
G1 X99.977 Y117.541 E16.53726
G1 X99.987 Y116.883 E16.5783
G1 X100.026 Y116.195 E16.62127
G1 X100.106 Y115.345 E16.67451
G1 X100.202 Y114.687 E16.71598
G1 X100.323 Y114.031 E16.75758
G1 X100.518 Y113.181 E16.81197
G1 X100.689 Y112.545 E16.85304
G1 X100.894 Y111.898 E16.89536
G1 X101.124 Y111.264 E16.93742
G1 X101.453 Y110.463 E16.99143
G1 X101.725 Y109.871 E17.03206
G1 X102.036 Y109.258 E17.07492
G1 X102.364 Y108.667 E17.11707
G1 X102.799 Y107.965 E17.16858
G1 X103.187 Y107.391 E17.21178
G1 X103.59 Y106.841 E17.25431
G1 X104.016 Y106.308 E17.29686
G1 X104.56 Y105.686 E17.34839
G1 X105.03 Y105.188 E17.39109
G1 X105.519 Y104.711 E17.43369
G1 X106.053 Y104.231 E17.47847
G1 X106.57 Y103.803 E17.52033
G1 X107.229 Y103.301 E17.57199
G1 X107.77 Y102.923 E17.61315
G1 X108.436 Y102.501 E17.66232
G1 X109.045 Y102.152 E17.70609
G1 X109.662 Y101.827 E17.74958
G1 X110.314 Y101.518 E17.79458
G1 X111.037 Y101.212 E17.84354
G1 X111.871 Y100.896 E17.89916
G1 X111.898 Y100.899 E17.90085
G1 X112.354 Y100.749 E17.93079
G1 X113.024 Y100.56 E17.9742
G1 X113.759 Y100.382 E18.02136
G1 X114.473 Y100.24 E18.06676
G1 X115.141 Y100.137 E18.10891
G1 X115.91 Y100.05 E18.15717
G1 X116.635 Y99.998 E18.2025
G1 X117.328 Y99.978 E18.24574
G1 X118.011 Y99.983 E18.28833
G1 X118.743 Y100.02 E18.33404
G1 X119.598 Y100.09 E18.38754
G1 X119.633 Y100.109 E18.39002
G1 X120.201 Y100.186 E18.42577
G1 X120.658 Y100.261 E18.45465
G1 X120.679 Y100.275 E18.45622
G1 X121.567 Y100.458 E18.51277
G1 X122.324 Y100.656 E18.56156
G1 X122.979 Y100.856 E18.60427
G1 X123.43 Y101.014 E18.63407
G1 X123.452 Y101.011 E18.63546
G1 X124.288 Y101.346 E18.69162
G1 X125.3 Y101.8 E18.76079
G1 X126.163 Y102.265 E18.82193
G1 X126.855 Y102.683 E18.87235
G1 X127.48 Y103.099 E18.91917
G1 X128.075 Y103.529 E18.96495
G1 X128.606 Y103.945 E19.00702
G1 X129.258 Y104.508 E19.06074
G1 X129.638 Y104.862 E19.09312
G1 X130.117 Y105.34 E19.13533
G1 X130.584 Y105.841 E19.17804
G1 X131.047 Y106.382 E19.22244
G1 X131.264 Y106.657 E19.24429
G1 X131.682 Y107.163 E19.28522
G1 X132.086 Y107.686 E19.32643
G1 X132.443 Y108.181 E19.36449
G1 X132.792 Y108.71 E19.40402
G1 X133.129 Y109.261 E19.4443
G1 X133.439 Y109.807 E19.48345
G1 X133.742 Y110.392 E19.52454
G1 X134.004 Y110.944 E19.56264
G1 X134.266 Y111.554 E19.60404
G1 X134.399 Y111.886 E19.62635
G1 X134.736 Y112.832 E19.68898
G1 X134.724 Y112.849 E19.69027
G1 X134.975 Y113.626 E19.74119
G1 X134.97 Y113.659 E19.74328
G1 X135.186 Y114.532 E19.79936
G1 X135.334 Y115.296 E19.84789
G1 X135.484 Y116.304 E19.91144
G1 X135.478 Y116.329 E19.91305
G1 X135.573 Y117.409 E19.98066
G1 X135.589 Y118.423 E20.0439
G1 X135.566 Y119.425 E20.10641
G1 X135.551 Y119.457 E20.10861
G1 X135.511 Y120.007 E20.143
G1 X135.437 Y120.687 E20.18566
G1 X135.37 Y121.16 E20.21545
G1 X135.228 Y121.942 E20.26502
G1 X135.148 Y122.313 E20.28868
G1 X134.96 Y123.08 E20.33793
G1 X134.727 Y123.858 E20.38858
G1 X134.523 Y124.488 E20.42988
G1 X134.501 Y124.518 E20.4322
G1 X134.335 Y124.961 E20.4617
G1 X134.107 Y125.518 E20.49923
G1 X133.855 Y126.083 E20.53781
G1 X133.58 Y126.647 E20.57694
G1 X133.226 Y127.308 E20.62371
G1 X132.94 Y127.79 E20.65866
G1 X132.586 Y128.356 E20.70029
G1 X132.213 Y128.906 E20.74173
G1 X131.892 Y129.35 E20.7759
G1 X131.382 Y129.997 E20.82728
G1 X130.995 Y130.449 E20.86439
G1 X130.566 Y130.923 E20.90426
G1 X130.107 Y131.393 E20.94522
G1 X129.634 Y131.847 E20.98611
G1 X129.126 Y132.299 E21.02852
G1 X128.64 Y132.701 E21.06785
G1 X128.102 Y133.116 E21.11022
G1 X127.591 Y133.484 E21.14949
G1 X126.764 Y134.028 E21.21123
G1 X126.383 Y134.214 E21.23767
G1 X125.752 Y134.499 E21.28084
G1 X124.683 Y134.919 E21.35247
G1 X124.405 Y135.018 E21.37087
G1 X122.97 Y135.45 E21.46433
G1 X121.57 Y135.755 E21.55369
G1 X120.203 Y135.949 E21.63979
G1 X118.745 Y136.038 E21.73089
G0 F3000 X104.082 Y128.689
G1 F1500 X107.556 Y132.163 E22.03727
G0 F3000 X109.863 Y133.622
G1 F1500 X102.603 Y126.362 E22.67756
G0 F3000 X101.833 Y124.744
G1 F1500 X111.461 Y134.371 E23.52665
G0 F3000 X112.784 Y134.845
G1 F1500 X101.309 Y123.371 E24.53864
G0 F3000 X100.913 Y122.126
G1 F1500 X113.966 Y135.179 E25.68984
G0 F3000 X115.062 Y135.427
G1 F1500 X100.637 Y121.002 E26.96204
G0 F3000 X100.455 Y119.971
G1 F1500 X116.078 Y135.594 E28.3399
G0 F3000 X117.016 Y135.683
G1 F1500 X100.345 Y119.013 E29.81014
G0 F3000 X100.288 Y118.107
G1 F1500 X117.904 Y135.723 E31.36377
G0 F3000 X118.764 Y135.734
G1 F1500 X100.281 Y117.251 E32.99386
G0 F3000 X100.312 Y116.434
G1 F1500 X119.563 Y135.686 E34.69174
G0 F3000 X120.35 Y135.623
G1 F1500 X100.378 Y115.651 E36.45315
G0 F3000 X100.474 Y114.899
G1 F1500 X121.094 Y135.519 E38.27172
G0 F3000 X121.816 Y135.393
G1 F1500 X100.6 Y114.177 E40.14285
G0 F3000 X100.756 Y113.484
G1 F1500 X122.513 Y135.241 E42.06169
G0 F3000 X123.189 Y135.068
G1 F1500 X100.928 Y112.807 E44.02498
G0 F3000 X101.125 Y112.156
G1 F1500 X123.841 Y134.872 E46.0284
G0 F3000 X124.486 Y134.669
G1 F1500 X101.346 Y111.528 E48.06926
G0 F3000 X101.587 Y110.921
G1 F1500 X125.098 Y134.432 E50.1428
G0 F3000 X125.704 Y134.189
G1 F1500 X101.843 Y110.329 E52.24716
G0 F3000 X102.118 Y109.755
G1 F1500 X126.287 Y133.923 E54.37868
G0 F3000 X126.833 Y133.621
G1 F1500 X102.41 Y109.199 E56.5326
G0 F3000 X102.72 Y108.66
G1 F1500 X127.345 Y133.285 E58.70439
G0 F3000 X127.841 Y132.932
G1 F1500 X103.045 Y108.136 E60.89125
G0 F3000 X103.386 Y107.629
