;FLAVOR:Marlin
;TIME:779
;Filament used: 0.334873m
;Layer height: 0.2
;MINX:102.7
;MINY:112.7
;MINZ:0.2
;MAXX:132.3
;MAXY:122.3
;MAXZ:15
;Generated with Cura_SteamEngine 5.3.0
M140 S85
M105
M190 S85
M104 S240
M105
M109 S240
M82 ;absolute extrusion mode
START_PRINT
G92 E0
G92 E0
G1 F1500 E-8
;LAYER_COUNT:75
;LAYER:0
M107
;MESH:Z4_CenterStorageSwitch.stl
G0 F6000 X116.4 Y121.9 Z0.2
;TYPE:WALL-INNER
G1 F1500 E0
G1 F1200 X116.4 Y113.1 E0.29269
G1 X103.1 Y113.1 E0.73505
G1 X103.1 Y121.9 E1.02774
G1 X116.4 Y121.9 E1.4701
G0 F6000 X116.8 Y122.3
;TYPE:WALL-OUTER
G1 F1200 X116.8 Y112.7 E1.7894
G1 X102.7 Y112.7 E2.25836
G1 X102.7 Y122.3 E2.57766
G1 X116.8 Y122.3 E3.04663
G0 F6000 X116.53 Y122.03
G0 X116.3 Y121.54
G0 X116.04 Y121.54
;TYPE:SKIN
G1 F1200 X103.46 Y121.54 E3.46504
G1 X103.46 Y113.46 E3.73378
G1 X116.04 Y113.46 E4.1522
G1 X116.04 Y121.54 E4.42094
G0 F6000 X116.3 Y121.54
G0 X116.3 Y114.142
G0 X115.839 Y114.142
G1 F1200 X115.357 Y113.66 E4.44361
G0 F6000 X114.791 Y113.66
G1 F1200 X115.839 Y114.708 E4.4929
G0 F6000 X115.839 Y115.273
G1 F1200 X114.226 Y113.66 E4.56877
G0 F6000 X113.66 Y113.66
G1 F1200 X115.839 Y115.839 E4.67127
G0 F6000 X115.839 Y116.405
G1 F1200 X113.094 Y113.66 E4.80038
G0 F6000 X112.528 Y113.66
G1 F1200 X115.839 Y116.971 E4.95612
G0 F6000 X115.839 Y117.536
G1 F1200 X111.963 Y113.66 E5.13844
G0 F6000 X111.397 Y113.66
G1 F1200 X115.839 Y118.102 E5.34738
G0 F6000 X115.839 Y118.668
G1 F1200 X110.831 Y113.66 E5.58294
G0 F6000 X110.266 Y113.66
G1 F1200 X115.839 Y119.233 E5.84507
G0 F6000 X115.839 Y119.799
G1 F1200 X109.7 Y113.66 E6.13383
G0 F6000 X109.134 Y113.66
G1 F1200 X115.839 Y120.365 E6.44922
G0 F6000 X115.839 Y120.93
G1 F1200 X108.569 Y113.66 E6.79118
G0 F6000 X108.003 Y113.66
G1 F1200 X115.682 Y121.339 E7.15237
G0 F6000 X115.116 Y121.339
G1 F1200 X107.437 Y113.66 E7.51357
G0 F6000 X106.872 Y113.66
G1 F1200 X114.551 Y121.339 E7.87477
G0 F6000 X113.985 Y121.339
G1 F1200 X106.306 Y113.66 E8.23596
G0 F6000 X105.74 Y113.66
G1 F1200 X113.419 Y121.339 E8.59716
G0 F6000 X112.854 Y121.339
G1 F1200 X105.175 Y113.66 E8.95835
G0 F6000 X104.609 Y113.66
G1 F1200 X112.288 Y121.339 E9.31955
G0 F6000 X111.722 Y121.339
G1 F1200 X104.043 Y113.66 E9.68075
G0 F6000 X103.659 Y113.842
G1 F1200 X111.157 Y121.339 E10.03341
G0 F6000 X110.591 Y121.339
G1 F1200 X103.659 Y114.407 E10.35947
G0 F6000 X103.659 Y114.973
G1 F1200 X110.025 Y121.339 E10.6589
G0 F6000 X109.46 Y121.339
G1 F1200 X103.659 Y115.539 E10.93174
G0 F6000 X103.659 Y116.104
G1 F1200 X108.894 Y121.339 E11.17798
G0 F6000 X108.328 Y121.339
G1 F1200 X103.659 Y116.67 E11.3976
G0 F6000 X103.659 Y117.236
G1 F1200 X107.763 Y121.339 E11.59061
G0 F6000 X107.197 Y121.339
G1 F1200 X103.659 Y117.801 E11.75703
G0 F6000 X103.659 Y118.367
G1 F1200 X106.631 Y121.339 E11.89682
G0 F6000 X106.066 Y121.339
G1 F1200 X103.659 Y118.933 E12.01002
G0 F6000 X103.659 Y119.498
G1 F1200 X105.5 Y121.339 E12.09661
G0 F6000 X104.934 Y121.339
G1 F1200 X103.659 Y120.064 E12.15658
G0 F6000 X103.659 Y120.63
G1 F1200 X104.368 Y121.339 E12.18993
G0 F6000 X103.803 Y121.339
G1 F1200 X103.659 Y121.195 E12.19671
G1 F1500 E4.19671
G0 F6000 X103.2 Y121.195
G0 X103.272 Y121.728
G0 X116.58 Y121.9
G0 X118.42 Y121.9
G0 X118.6 Y121.9
;TYPE:WALL-INNER
G1 F1500 E12.19671
G1 F1200 X131.9 Y121.9 E12.63907
G1 X131.9 Y113.1 E12.93176
G1 X118.6 Y113.1 E13.37412
G1 X118.6 Y121.9 E13.6668
G0 F6000 X118.2 Y122.3
;TYPE:WALL-OUTER
G1 F1200 X132.3 Y122.3 E14.13577
G1 X132.3 Y112.7 E14.45507
G1 X118.2 Y112.7 E14.92404
G1 X118.2 Y122.3 E15.24334
G0 F6000 X118.47 Y122.03
G0 X118.7 Y121.54
G0 X118.96 Y121.54
;TYPE:SKIN
G1 F1200 X118.96 Y113.46 E15.51208
G1 X131.54 Y113.46 E15.93049
G1 X131.54 Y121.54 E16.19923
G1 X118.96 Y121.54 E16.61764
G0 F6000 X119.642 Y121.339
G1 F1200 X119.159 Y120.856 E16.64036
G0 F6000 X119.159 Y120.29
G1 F1200 X120.208 Y121.339 E16.6897
G0 F6000 X120.773 Y121.339
G1 F1200 X119.159 Y119.725 E16.76562
G0 F6000 X119.159 Y119.159
G1 F1200 X121.339 Y121.339 E16.86816
G0 F6000 X121.905 Y121.339
G1 F1200 X119.159 Y118.593 E16.99733
G0 F6000 X119.159 Y118.028
G1 F1200 X122.47 Y121.339 E17.15307
G0 F6000 X123.036 Y121.339
G1 F1200 X119.159 Y117.462 E17.33543
G0 F6000 X119.159 Y116.896
G1 F1200 X123.602 Y121.339 E17.54441
G0 F6000 X124.167 Y121.339
G1 F1200 X119.159 Y116.331 E17.77997
G0 F6000 X119.159 Y115.765
G1 F1200 X124.733 Y121.339 E18.04216
G0 F6000 X125.299 Y121.339
G1 F1200 X119.159 Y115.199 E18.33096
G0 F6000 X119.159 Y114.634
G1 F1200 X125.865 Y121.339 E18.64637
G0 F6000 X126.43 Y121.339
G1 F1200 X119.159 Y114.068 E18.98838
G0 F6000 X119.317 Y113.66
G1 F1200 X126.996 Y121.339 E19.34957
G0 F6000 X127.562 Y121.339
G1 F1200 X119.882 Y113.66 E19.71079
G0 F6000 X120.448 Y113.66
G1 F1200 X128.127 Y121.339 E20.07199
G0 F6000 X128.693 Y121.339
G1 F1200 X121.014 Y113.66 E20.43319
G0 F6000 X121.579 Y113.66
G1 F1200 X129.259 Y121.339 E20.79441
G0 F6000 X129.824 Y121.339
G1 F1200 X122.145 Y113.66 E21.1556
G0 F6000 X122.711 Y113.66
G1 F1200 X130.39 Y121.339 E21.5168
G0 F6000 X130.956 Y121.339
G1 F1200 X123.276 Y113.66 E21.87802
G0 F6000 X123.842 Y113.66
G1 F1200 X131.339 Y121.157 E22.23066
G0 F6000 X131.339 Y120.591
G1 F1200 X124.408 Y113.66 E22.55667
G0 F6000 X124.974 Y113.66
G1 F1200 X131.339 Y120.025 E22.85606
G0 F6000 X131.339 Y119.46
G1 F1200 X125.539 Y113.66 E23.12887
G0 F6000 X126.105 Y113.66
G1 F1200 X131.339 Y118.894 E23.37506
G0 F6000 X131.339 Y118.328
G1 F1200 X126.671 Y113.66 E23.59463
G0 F6000 X127.236 Y113.66
G1 F1200 X131.339 Y117.762 E23.7876
G0 F6000 X131.339 Y117.197
M104 S235
G1 F1200 X127.802 Y113.66 E23.95397
G0 F6000 X128.368 Y113.66
G1 F1200 X131.339 Y116.631 E24.09372
G0 F6000 X131.339 Y116.065
G1 F1200 X128.933 Y113.66 E24.20687
G0 F6000 X129.499 Y113.66
G1 F1200 X131.339 Y115.5 E24.29341
G0 F6000 X131.339 Y114.934
G1 F1200 X130.065 Y113.66 E24.35334
G0 F6000 X130.63 Y113.66
G1 F1200 X131.339 Y114.368 E24.38666
G0 F6000 X131.339 Y113.803
G1 F1200 X131.196 Y113.66 E24.39339
G1 F1500 E16.39339
;MESH:NOMESH
G0 F300 X131.196 Y113.66 Z0.4
G0 F6000 X131.196 Y113.2
G0 X118.772 Y113.272
G0 X118.42 Y121.9
G0 X116.58 Y121.9
G0 X116.4 Y121.9
;TIME_ELAPSED:49.319963
;LAYER:1
M140 S80
M106 S42.5
;TYPE:WALL-INNER
;MESH:Z4_CenterStorageSwitch.stl
G1 F1500 E24.39339
G1 F1275 X116.4 Y113.1 E24.68608
G1 X103.1 Y113.1 E25.12844
G1 X103.1 Y121.9 E25.42113
G1 X116.4 Y121.9 E25.86349
G0 F7500 X116.8 Y122.3
;TYPE:WALL-OUTER
G1 F1275 X116.8 Y112.7 E26.18279
G1 X102.7 Y112.7 E26.65175
G1 X102.7 Y122.3 E26.97105
G1 X116.8 Y122.3 E27.44002
G0 F7500 X116.53 Y122.03
G0 X116.3 Y121.54
G0 X116.04 Y121.54
;TYPE:SKIN
G1 F1275 X103.46 Y121.54 E27.85843
G1 X103.46 Y113.46 E28.12717
G1 X116.04 Y113.46 E28.54559
G1 X116.04 Y121.54 E28.81433
G0 F7500 X115.682 Y121.339
G1 F1275 X115.839 Y121.182 E28.82171
G0 F7500 X115.839 Y120.616
G1 F1275 X115.116 Y121.339 E28.85572
G0 F7500 X114.551 Y121.339
G1 F1275 X115.839 Y120.051 E28.9163
G0 F7500 X115.839 Y119.485
G1 F1275 X113.985 Y121.339 E29.00351
G0 F7500 X113.419 Y121.339
G1 F1275 X115.839 Y118.919 E29.11734
G0 F7500 X115.839 Y118.354
G1 F1275 X112.854 Y121.339 E29.25774
G0 F7500 X112.288 Y121.339
G1 F1275 X115.839 Y117.788 E29.42477
G0 F7500 X115.839 Y117.222
G1 F1275 X111.722 Y121.339 E29.61842
G0 F7500 X111.157 Y121.339
G1 F1275 X115.839 Y116.657 E29.83865
G0 F7500 X115.839 Y116.091
G1 F1275 X110.591 Y121.339 E30.0855
G0 F7500 X110.025 Y121.339
G1 F1275 X115.839 Y115.525 E30.35897
G0 F7500 X115.839 Y114.96
G1 F1275 X109.46 Y121.339 E30.65902
G0 F7500 X108.894 Y121.339
G1 F1275 X115.839 Y114.394 E30.98569
G0 F7500 X115.839 Y113.828
G1 F1275 X108.328 Y121.339 E31.33899
G0 F7500 X107.763 Y121.339
G1 F1275 X115.442 Y113.659 E31.70021
G0 F7500 X114.877 Y113.659
G1 F1275 X107.197 Y121.339 E32.06145
G0 F7500 X106.631 Y121.339
G1 F1275 X114.311 Y113.659 E32.4227
G0 F7500 X113.745 Y113.659
G1 F1275 X106.066 Y121.339 E32.78392
G0 F7500 X105.5 Y121.339
G1 F1275 X113.18 Y113.659 E33.14516
G0 F7500 X112.614 Y113.659
G1 F1275 X104.934 Y121.339 E33.5064
G0 F7500 X104.368 Y121.339
G1 F1275 X112.048 Y113.659 E33.86765
G0 F7500 X111.483 Y113.659
G1 F1275 X103.803 Y121.339 E34.22889
G0 F7500 X103.66 Y120.916
G1 F1275 X110.917 Y113.659 E34.57024
G0 F7500 X110.351 Y113.659
G1 F1275 X103.66 Y120.35 E34.88496
G0 F7500 X103.66 Y119.785
G1 F1275 X109.786 Y113.659 E35.17311
G0 F7500 X109.22 Y113.659
G1 F1275 X103.66 Y119.219 E35.43463
G0 F7500 X103.66 Y118.653
G1 F1275 X108.654 Y113.659 E35.66954
G0 F7500 X108.089 Y113.659
G1 F1275 X103.66 Y118.088 E35.87786
G0 F7500 X103.66 Y117.522
G1 F1275 X107.523 Y113.659 E36.05957
G0 F7500 X106.957 Y113.659
G1 F1275 X103.66 Y116.956 E36.21465
G0 F7500 X103.66 Y116.391
G1 F1275 X106.391 Y113.659 E36.34313
G0 F7500 X105.826 Y113.659
G1 F1275 X103.66 Y115.825 E36.44501
G0 F7500 X103.66 Y115.259
G1 F1275 X105.26 Y113.659 E36.52027
G0 F7500 X104.694 Y113.659
G1 F1275 X103.66 Y114.694 E36.56893
G0 F7500 X103.66 Y114.128
G1 F1275 X104.129 Y113.659 E36.59099
G1 F1500 E28.59099
G0 F7500 X104.129 Y113.2
G0 X116.228 Y113.272
G0 X116.58 Y121.9
G0 X118.42 Y121.9
G0 X118.6 Y121.9
;TYPE:WALL-INNER
G1 F1500 E36.59099
G1 F1275 X131.9 Y121.9 E37.03335
G1 X131.9 Y113.1 E37.32604
G1 X118.6 Y113.1 E37.7684
G1 X118.6 Y121.9 E38.06109
G0 F7500 X118.2 Y122.3
;TYPE:WALL-OUTER
G1 F1275 X132.3 Y122.3 E38.53006
G1 X132.3 Y112.7 E38.84935
G1 X118.2 Y112.7 E39.31832
G1 X118.2 Y122.3 E39.63762
G0 F7500 X118.47 Y122.03
G0 X118.7 Y121.54
G0 X118.96 Y121.54
;TYPE:SKIN
G1 F1275 X118.96 Y113.46 E39.90636
G1 X131.54 Y113.46 E40.32477
G1 X131.54 Y121.54 E40.59352
G1 X118.96 Y121.54 E41.01193
G0 F7500 X118.7 Y121.54
G0 X118.772 Y113.272
G0 X119.402 Y113.2
G0 X119.402 Y113.659
G1 F1275 X119.16 Y113.902 E41.02333
G0 F7500 X119.16 Y114.467
G1 F1275 X119.968 Y113.659 E41.06134
G0 F7500 X120.534 Y113.659
G1 F1275 X119.16 Y115.033 E41.12597
G0 F7500 X119.16 Y115.599
G1 F1275 X121.099 Y113.659 E41.2172
G0 F7500 X121.665 Y113.659
G1 F1275 X119.16 Y116.164 E41.33502
G0 F7500 X119.16 Y116.73
G1 F1275 X122.231 Y113.659 E41.47947
G0 F7500 X122.796 Y113.659
G1 F1275 X119.16 Y117.296 E41.65052
G0 F7500 X119.16 Y117.861
G1 F1275 X123.362 Y113.659 E41.84817
G0 F7500 X123.928 Y113.659
G1 F1275 X119.16 Y118.427 E42.07245
G0 F7500 X119.16 Y118.993
G1 F1275 X124.493 Y113.659 E42.32332
G0 F7500 X125.059 Y113.659
G1 F1275 X119.16 Y119.559 E42.60081
G0 F7500 X119.16 Y120.124
G1 F1275 X125.625 Y113.659 E42.90491
G0 F7500 X126.19 Y113.659
G1 F1275 X119.16 Y120.69 E43.2356
G0 F7500 X119.16 Y121.256
G1 F1275 X126.756 Y113.659 E43.59291
G0 F7500 X127.322 Y113.659
G1 F1275 X119.642 Y121.339 E43.95416
G0 F7500 X120.208 Y121.339
G1 F1275 X127.888 Y113.659 E44.3154
G0 F7500 X128.453 Y113.659
G1 F1275 X120.773 Y121.339 E44.67665
G0 F7500 X121.339 Y121.339
G1 F1275 X129.019 Y113.659 E45.03789
G0 F7500 X129.585 Y113.659
G1 F1275 X121.905 Y121.339 E45.39913
G0 F7500 X122.47 Y121.339
G1 F1275 X130.15 Y113.659 E45.76038
G0 F7500 X130.716 Y113.659
G1 F1275 X123.036 Y121.339 E46.12162
G0 F7500 X123.602 Y121.339
G1 F1275 X131.282 Y113.659 E46.48286
G0 F7500 X131.339 Y114.168
G1 F1275 X124.167 Y121.339 E46.82019
G0 F7500 X124.733 Y121.339
G1 F1275 X131.339 Y114.733 E47.13092
G0 F7500 X131.339 Y115.299
G1 F1275 X125.299 Y121.339 E47.41502
G0 F7500 X125.865 Y121.339
G1 F1275 X131.339 Y115.865 E47.6725
G0 F7500 X131.339 Y116.43
G1 F1275 X126.43 Y121.339 E47.9034
G0 F7500 X126.996 Y121.339
G1 F1275 X131.339 Y116.996 E48.10768
G0 F7500 X131.339 Y117.562
G1 F1275 X127.562 Y121.339 E48.28534
G0 F7500 X128.127 Y121.339
G1 F1275 X131.339 Y118.127 E48.43643
G0 F7500 X131.339 Y118.693
G1 F1275 X128.693 Y121.339 E48.56089
G0 F7500 X129.259 Y121.339
G1 F1275 X131.339 Y119.259 E48.65872
G0 F7500 X131.339 Y119.824
G1 F1275 X129.824 Y121.339 E48.72998
G0 F7500 X130.39 Y121.339
G1 F1275 X131.339 Y120.39 E48.77462
G0 F7500 X131.339 Y120.956
G1 F1275 X130.956 Y121.339 E48.79264
G1 F1500 E40.79264
;MESH:NOMESH
G0 F300 X130.956 Y121.339 Z0.6
G0 F7500 X130.956 Y121.8
G0 X118.42 Y121.9
G0 X116.58 Y121.9
G0 X116.4 Y121.9
;TIME_ELAPSED:92.539718
;LAYER:2
M106 S85
;TYPE:WALL-INNER
;MESH:Z4_CenterStorageSwitch.stl
G1 F1500 E48.79264
G1 F1350 X116.4 Y113.1 E49.08533
G1 X103.1 Y113.1 E49.52769
G1 X103.1 Y121.9 E49.82037
G1 X116.4 Y121.9 E50.26273
G0 F9000 X116.8 Y122.3
;TYPE:WALL-OUTER
G1 F1350 X116.8 Y112.7 E50.58203
G1 X102.7 Y112.7 E51.051
G1 X102.7 Y122.3 E51.3703
G1 X116.8 Y122.3 E51.83926
G0 F9000 X116.53 Y122.03
G0 X116.3 Y121.54
G0 X116.04 Y121.54
;TYPE:SKIN
G1 F1350 X103.46 Y121.54 E52.25768
G1 X103.46 Y113.46 E52.52642
G1 X116.04 Y113.46 E52.94483
G1 X116.04 Y121.54 E53.21357
G0 F9000 X116.3 Y121.54
G0 X116.3 Y114.142
G0 X115.839 Y114.142
G1 F1350 X115.357 Y113.66 E53.23625
G0 F9000 X114.791 Y113.66
G1 F1350 X115.839 Y114.708 E53.28554
G0 F9000 X115.839 Y115.273
G1 F1350 X114.226 Y113.66 E53.36141
G0 F9000 X113.66 Y113.66
G1 F1350 X115.839 Y115.839 E53.4639
G0 F9000 X115.839 Y116.405
G1 F1350 X113.094 Y113.66 E53.59302
G0 F9000 X112.528 Y113.66
G1 F1350 X115.839 Y116.971 E53.74876
G0 F9000 X115.839 Y117.536
G1 F1350 X111.963 Y113.66 E53.93107
G0 F9000 X111.397 Y113.66
G1 F1350 X115.839 Y118.102 E54.14001
G0 F9000 X115.839 Y118.668
G1 F1350 X110.831 Y113.66 E54.37557
G0 F9000 X110.266 Y113.66
G1 F1350 X115.839 Y119.233 E54.63771
G0 F9000 X115.839 Y119.799
G1 F1350 X109.7 Y113.66 E54.92647
G0 F9000 X109.134 Y113.66
G1 F1350 X115.839 Y120.365 E55.24185
G0 F9000 X115.839 Y120.93
G1 F1350 X108.569 Y113.66 E55.58381
G0 F9000 X108.003 Y113.66
G1 F1350 X115.682 Y121.339 E55.94501
G0 F9000 X115.116 Y121.339
G1 F1350 X107.437 Y113.66 E56.3062
G0 F9000 X106.872 Y113.66
G1 F1350 X114.551 Y121.339 E56.6674
G0 F9000 X113.985 Y121.339
G1 F1350 X106.306 Y113.66 E57.0286
G0 F9000 X105.74 Y113.66
G1 F1350 X113.419 Y121.339 E57.38979
G0 F9000 X112.854 Y121.339
G1 F1350 X105.175 Y113.66 E57.75099
G0 F9000 X104.609 Y113.66
G1 F1350 X112.288 Y121.339 E58.11219
G0 F9000 X111.722 Y121.339
G1 F1350 X104.043 Y113.66 E58.47338
G0 F9000 X103.659 Y113.842
G1 F1350 X111.157 Y121.339 E58.82604
G0 F9000 X110.591 Y121.339
G1 F1350 X103.659 Y114.407 E59.1521
G0 F9000 X103.659 Y114.973
G1 F1350 X110.025 Y121.339 E59.45154
G0 F9000 X109.46 Y121.339
G1 F1350 X103.659 Y115.539 E59.72438
G0 F9000 X103.659 Y116.104
G1 F1350 X108.894 Y121.339 E59.97062
G0 F9000 X108.328 Y121.339
G1 F1350 X103.659 Y116.67 E60.19023
G0 F9000 X103.659 Y117.236
G1 F1350 X107.763 Y121.339 E60.38325
G0 F9000 X107.197 Y121.339
G1 F1350 X103.659 Y117.801 E60.54967
G0 F9000 X103.659 Y118.367
G1 F1350 X106.631 Y121.339 E60.68946
G0 F9000 X106.066 Y121.339
G1 F1350 X103.659 Y118.933 E60.80265
G0 F9000 X103.659 Y119.498
G1 F1350 X105.5 Y121.339 E60.88925
G0 F9000 X104.934 Y121.339
G1 F1350 X103.659 Y120.064 E60.94922
G0 F9000 X103.659 Y120.63
G1 F1350 X104.368 Y121.339 E60.98257
G0 F9000 X103.803 Y121.339
G1 F1350 X103.659 Y121.195 E60.98934
G1 F1500 E52.98934
G0 F9000 X103.2 Y121.195
G0 X103.272 Y121.728
G0 X116.58 Y121.9
G0 X118.42 Y121.9
G0 X118.6 Y121.9
;TYPE:WALL-INNER
G1 F1500 E60.98934
G1 F1350 X131.9 Y121.9 E61.4317
G1 X131.9 Y113.1 E61.72439
G1 X118.6 Y113.1 E62.16675
G1 X118.6 Y121.9 E62.45944
G0 F9000 X118.2 Y122.3
;TYPE:WALL-OUTER
G1 F1350 X132.3 Y122.3 E62.92841
G1 X132.3 Y112.7 E63.24771
G1 X118.2 Y112.7 E63.71667
G1 X118.2 Y122.3 E64.03597
G0 F9000 X118.47 Y122.03
G0 X118.7 Y121.54
G0 X118.96 Y121.54
;TYPE:SKIN
G1 F1350 X118.96 Y113.46 E64.30471
G1 X131.54 Y113.46 E64.72313
G1 X131.54 Y121.54 E64.99187
G1 X118.96 Y121.54 E65.41028
G0 F9000 X119.642 Y121.339
G1 F1350 X119.159 Y120.856 E65.433
G0 F9000 X119.159 Y120.29
G1 F1350 X120.208 Y121.339 E65.48234
G0 F9000 X120.773 Y121.339
G1 F1350 X119.159 Y119.725 E65.55826
G0 F9000 X119.159 Y119.159
G1 F1350 X121.339 Y121.339 E65.6608
G0 F9000 X121.905 Y121.339
G1 F1350 X119.159 Y118.593 E65.78996
G0 F9000 X119.159 Y118.028
G1 F1350 X122.47 Y121.339 E65.9457
G0 F9000 X123.036 Y121.339
G1 F1350 X119.159 Y117.462 E66.12806
G0 F9000 X119.159 Y116.896
G1 F1350 X123.602 Y121.339 E66.33705
G0 F9000 X124.167 Y121.339
G1 F1350 X119.159 Y116.331 E66.57261
G0 F9000 X119.159 Y115.765
G1 F1350 X124.733 Y121.339 E66.83479
G0 F9000 X125.299 Y121.339
