;FLAVOR:Marlin
;TIME:2541
;Filament used: 1.31027m
;Layer height: 0.2
;MINX:79.579
;MINY:74.94
;MINZ:0.25
;MAXX:154.905
;MAXY:159.464
;MAXZ:2.65
;Generated with Cura_SteamEngine 5.3.0
M140 S85
M105
M190 S85
M104 S240
M105
M109 S240
M82 ;absolute extrusion mode
START_PRINT
G92 E0
G92 E0
G1 F1500 E-8
;LAYER_COUNT:13
;LAYER:0
M107
G0 F6000 X103.898 Y76.47 Z0.25
;TYPE:SKIRT
G1 F1500 E0
G1 F1200 X105.186 Y75.527 E0.06637
G1 X106.484 Y75.048 E0.12389
G1 X107.323 Y74.94 E0.15906
G1 X127.716 Y74.94 E1.0069
G1 X128.769 Y75.077 E1.05105
G1 X130.131 Y75.676 E1.11291
G1 X131.252 Y76.588 E1.17299
G1 X132.095 Y77.752 E1.23274
G1 X132.562 Y79.004 E1.2883
G1 X132.679 Y79.911 E1.32632
G1 X132.682 Y95.752 E1.98491
G1 X132.537 Y96.854 E2.03112
G1 X131.971 Y98.1 E2.08802
G1 X131.159 Y99.207 E2.14509
G1 X130.035 Y100.031 E2.20304
G1 X128.784 Y100.598 E2.26014
G1 X127.745 Y100.736 E2.30372
G1 X107.429 Y100.748 E3.14836
G1 X106.477 Y100.642 E3.18818
G1 X105.192 Y100.143 E3.24549
G1 X103.91 Y99.217 E3.31124
G1 X102.967 Y97.92 E3.37791
G1 X102.469 Y96.616 E3.43594
G1 X102.373 Y95.72 E3.47341
G1 X102.393 Y79.751 E4.13732
G1 X102.513 Y78.958 E4.17067
G1 X102.981 Y77.737 E4.22503
G1 X103.898 Y76.47 E4.29006
G0 F6000 X104.186 Y76.755
G1 F1200 X105.377 Y75.883 E4.35143
G1 X106.579 Y75.439 E4.4047
G1 X107.374 Y75.337 E4.43802
G1 X127.664 Y75.337 E5.28158
G1 X128.662 Y75.467 E5.32343
G1 X129.922 Y76.021 E5.38065
G1 X130.957 Y76.863 E5.43612
G1 X131.739 Y77.943 E5.49156
G1 X132.171 Y79.101 E5.54294
G1 X132.282 Y79.962 E5.57903
G1 X132.285 Y95.7 E6.23334
G1 X132.148 Y96.744 E6.27712
G1 X131.625 Y97.894 E6.32964
G1 X130.871 Y98.922 E6.38265
G1 X129.83 Y99.685 E6.43631
G1 X128.675 Y100.209 E6.48904
G1 X127.693 Y100.339 E6.53022
G1 X107.473 Y100.35 E7.37087
G1 X106.572 Y100.25 E7.40856
G1 X105.383 Y99.788 E7.46159
G1 X104.195 Y98.93 E7.52252
G1 X103.323 Y97.731 E7.58416
G1 X102.861 Y96.521 E7.63801
G1 X102.771 Y95.678 E7.67325
G1 X102.789 Y79.811 E8.33293
G1 X102.903 Y79.056 E8.36467
G1 X103.334 Y77.932 E8.41472
G1 X104.186 Y76.755 E8.47513
G0 F6000 X104.474 Y77.04
G1 F1200 X105.569 Y76.238 E8.53156
G1 X106.672 Y75.831 E8.58044
G1 X107.425 Y75.734 E8.612
G1 X127.612 Y75.734 E9.45128
G1 X128.555 Y75.857 E9.49082
G1 X129.713 Y76.366 E9.54341
G1 X130.662 Y77.138 E9.59427
G1 X131.383 Y78.134 E9.64539
G1 X131.78 Y79.198 E9.6926
G1 X131.885 Y80.013 E9.72677
G1 X131.888 Y95.648 E10.37679
G1 X131.759 Y96.634 E10.41814
G1 X131.279 Y97.688 E10.46629
G1 X130.583 Y98.637 E10.51522
G1 X129.625 Y99.339 E10.56459
G1 X128.567 Y99.819 E10.6129
G1 X127.64 Y99.942 E10.65177
G1 X107.517 Y99.952 E11.48839
G1 X106.667 Y99.858 E11.52394
G1 X105.574 Y99.433 E11.5727
G1 X104.48 Y98.643 E11.6288
G1 X103.679 Y97.542 E11.68541
G1 X103.253 Y96.426 E11.73507
G1 X103.169 Y95.636 E11.7681
G1 X103.185 Y79.871 E12.42354
G1 X103.293 Y79.154 E12.45368
G1 X103.687 Y78.127 E12.49941
G1 X104.474 Y77.04 E12.55521
G0 F6000 X104.762 Y77.325
G1 F1200 X105.76 Y76.594 E12.60664
G1 X106.767 Y76.222 E12.65127
G1 X107.476 Y76.131 E12.68099
G1 X127.56 Y76.131 E13.51598
G1 X128.448 Y76.247 E13.55322
G1 X129.502 Y76.71 E13.60108
G1 X130.368 Y77.415 E13.6475
G1 X131.027 Y78.325 E13.69422
G1 X131.389 Y79.295 E13.73726
G1 X131.488 Y80.064 E13.7695
G1 X131.491 Y95.596 E14.41524
G1 X131.37 Y96.524 E14.45415
G1 X130.933 Y97.482 E14.49793
G1 X130.295 Y98.352 E14.54278
G1 X129.42 Y98.993 E14.58788
G1 X128.458 Y99.43 E14.63181
G1 X127.588 Y99.545 E14.66829
G1 X107.561 Y99.554 E15.50092
G1 X106.762 Y99.466 E15.53434
G1 X105.765 Y99.078 E15.57881
G1 X104.765 Y98.356 E15.63009
G1 X104.035 Y97.353 E15.68167
G1 X103.645 Y96.331 E15.72715
G1 X103.567 Y95.594 E15.75796
G1 X103.581 Y79.931 E16.40915
G1 X103.683 Y79.256 E16.43753
G1 X104.042 Y78.319 E16.47925
G1 X104.762 Y77.325 E16.53028
G0 F6000 X105.048 Y77.611
G1 F1200 X105.952 Y76.949 E16.57686
G1 X106.86 Y76.614 E16.6171
G1 X107.527 Y76.528 E16.64506
G1 X127.508 Y76.528 E17.47577
G1 X128.341 Y76.637 E17.5107
G1 X129.291 Y77.054 E17.55383
G1 X130.074 Y77.692 E17.59583
G1 X130.671 Y78.516 E17.63813
G1 X130.998 Y79.392 E17.67701
G1 X131.091 Y80.115 E17.70731
G1 X131.094 Y95.544 E18.34877
G1 X130.981 Y96.414 E18.38525
G1 X130.587 Y97.276 E18.42465
G1 X130.007 Y98.067 E18.46543
G1 X129.217 Y98.646 E18.50615
G1 X128.348 Y99.041 E18.54584
G1 X127.536 Y99.148 E18.57989
G1 X107.561 Y99.154 E19.41035
G1 X106.86 Y99.075 E19.43968
G1 X105.956 Y98.723 E19.48002
G1 X105.05 Y98.069 E19.52647
G1 X104.391 Y97.164 E19.57302
G1 X104.037 Y96.236 E19.61431
G1 X103.965 Y95.552 E19.6429
G1 X103.977 Y79.991 E20.28985
G1 X104.073 Y79.354 E20.31664
G1 X104.396 Y78.512 E20.35413
G1 X105.048 Y77.611 E20.40037
G0 F6000 X105.334 Y77.897
G1 F1200 X106.143 Y77.305 E20.44205
G1 X106.955 Y77.005 E20.47804
G1 X107.578 Y76.925 E20.50415
G1 X127.456 Y76.925 E21.33058
G1 X128.234 Y77.027 E21.3632
G1 X129.08 Y77.398 E21.40161
G1 X129.78 Y77.969 E21.43917
G1 X130.315 Y78.707 E21.47706
G1 X130.607 Y79.489 E21.51177
G1 X130.694 Y80.166 E21.54015
G1 X130.697 Y95.493 E22.17737
G1 X130.592 Y96.303 E22.21133
G1 X130.24 Y97.073 E22.24653
G1 X129.721 Y97.781 E22.28302
G1 X129.014 Y98.299 E22.31946
G1 X128.238 Y98.652 E22.3549
G1 X127.484 Y98.751 E22.38652
G1 X107.606 Y98.756 E23.21295
G1 X106.955 Y98.683 E23.24019
G1 X106.147 Y98.368 E23.27624
G1 X105.337 Y97.783 E23.31778
G1 X104.746 Y96.972 E23.3595
G1 X104.43 Y96.143 E23.39639
G1 X104.363 Y95.51 E23.42285
G1 X104.373 Y80.051 E24.06556
G1 X104.463 Y79.456 E24.09058
G1 X104.752 Y78.702 E24.12415
G1 X105.334 Y77.897 E24.16545
G0 F6000 X105.62 Y78.183
G1 F1200 X106.335 Y77.66 E24.20228
G1 X107.048 Y77.397 E24.23388
G1 X107.629 Y77.322 E24.25823
G1 X127.456 Y77.325 E25.08254
G1 X128.125 Y77.416 E25.11061
G1 X128.869 Y77.742 E25.14438
G1 X129.486 Y78.246 E25.17751
G1 X129.959 Y78.898 E25.211
G1 X130.216 Y79.586 E25.24153
G1 X130.297 Y80.217 E25.26798
G1 X130.3 Y95.442 E25.90096
G1 X130.203 Y96.192 E25.9324
G1 X129.893 Y96.87 E25.9634
G1 X129.435 Y97.495 E25.99561
G1 X128.811 Y97.952 E26.02777
G1 X128.128 Y98.263 E26.05897
G1 X127.432 Y98.354 E26.08815
G1 X107.65 Y98.358 E26.91059
G1 X107.051 Y98.291 E26.93565
G1 X106.338 Y98.013 E26.96747
G1 X105.622 Y97.496 E27.00418
G1 X105.102 Y96.782 E27.04091
G1 X104.823 Y96.05 E27.07348
G1 X104.761 Y95.468 E27.09781
G1 X104.769 Y80.111 E27.73628
G1 X104.853 Y79.554 E27.7597
G1 X105.106 Y78.894 E27.78908
G1 X105.62 Y78.183 E27.82556
G0 F6000 X105.906 Y78.469
G1 F1200 X106.526 Y78.016 E27.85748
G1 X107.143 Y77.788 E27.88483
G1 X107.68 Y77.719 E27.90734
G1 X127.456 Y77.725 E28.72953
G1 X128.016 Y77.805 E28.75305
G1 X128.657 Y78.086 E28.78215
G1 X129.192 Y78.523 E28.81087
G1 X129.603 Y79.089 E28.83995
G1 X129.826 Y79.686 E28.86644
G1 X129.897 Y80.217 E28.88872
G1 X129.9 Y95.442 E29.5217
G1 X129.815 Y96.079 E29.54842
G1 X129.546 Y96.667 E29.5753
G1 X129.149 Y97.209 E29.60323
G1 X128.608 Y97.605 E29.63111
G1 X128.018 Y97.874 E29.65806
G1 X127.38 Y97.957 E29.68481
G1 X107.694 Y97.96 E30.50326
G1 X107.147 Y97.899 E30.52614
G1 X106.529 Y97.658 E30.55372
G1 X105.907 Y97.209 E30.58562
G1 X105.458 Y96.592 E30.61734
G1 X105.216 Y95.957 E30.64559
G1 X105.159 Y95.425 E30.66784
G1 X105.165 Y80.17 E31.30207
G1 X105.242 Y79.657 E31.32363
G1 X105.462 Y79.083 E31.34919
G1 X105.906 Y78.469 E31.38069
G0 F6000 X106.192 Y78.755
G1 F1200 X106.718 Y78.371 E31.40777
G1 X107.236 Y78.18 E31.43072
G1 X107.731 Y78.116 E31.45147
G1 X127.456 Y78.125 E32.27154
G1 X127.904 Y78.193 E32.29038
G1 X128.445 Y78.43 E32.31494
G1 X128.898 Y78.8 E32.33926
G1 X129.247 Y79.28 E32.36393
G1 X129.436 Y79.785 E32.38635
G1 X129.497 Y80.217 E32.40449
G1 X129.503 Y95.389 E33.03526
G1 X129.426 Y95.968 E33.05955
G1 X129.199 Y96.464 E33.08223
G1 X128.863 Y96.923 E33.10588
G1 X128.405 Y97.258 E33.12947
G1 X127.907 Y97.485 E33.15222
G1 X127.329 Y97.56 E33.17645
G1 X107.738 Y97.562 E33.99095
G1 X107.243 Y97.507 E34.01166
G1 X106.72 Y97.303 E34.035
G1 X106.194 Y96.923 E34.06198
G1 X105.813 Y96.4 E34.08888
G1 X105.609 Y95.864 E34.11272
G1 X105.557 Y95.382 E34.13288
G1 X105.561 Y80.229 E34.76287
G1 X105.632 Y79.755 E34.78279
G1 X105.816 Y79.275 E34.80416
G1 X106.192 Y78.755 E34.83084
G0 F6000 X106.478 Y79.041
G1 F1200 X106.909 Y78.727 E34.85301
G1 X107.331 Y78.571 E34.87172
G1 X107.782 Y78.513 E34.89062
G1 X127.396 Y78.521 E35.70608
G1 X127.794 Y78.581 E35.72281
G1 X128.233 Y78.774 E35.74275
G1 X128.607 Y79.079 E35.76281
G1 X128.89 Y79.468 E35.78281
G1 X129.047 Y79.888 E35.80146
G1 X129.097 Y80.217 E35.81529
G1 X129.106 Y95.336 E36.44387
G1 X129.037 Y95.856 E36.46567
G1 X128.851 Y96.262 E36.48424
G1 X128.577 Y96.637 E36.50355
G1 X128.202 Y96.911 E36.52286
G1 X127.796 Y97.096 E36.54141
G1 X127.278 Y97.163 E36.56312
G1 X107.782 Y97.164 E37.37367
G1 X107.34 Y97.115 E37.39216
G1 X106.91 Y96.947 E37.41136
G1 X106.479 Y96.636 E37.43345
G1 X106.169 Y96.21 E37.45536
G1 X106.002 Y95.771 E37.47488
G1 X105.955 Y95.339 E37.49295
G1 X105.957 Y80.288 E38.1187
G1 X106.022 Y79.853 E38.13698
G1 X106.17 Y79.467 E38.15417
G1 X106.478 Y79.041 E38.17603
G0 F6000 X106.764 Y79.328
G1 F1200 X107.1 Y79.083 E38.19331
G1 X107.428 Y78.961 E38.20786
G1 X107.782 Y78.913 E38.22272
G1 X127.337 Y78.917 E39.03572
G1 X127.683 Y78.969 E39.05027
G1 X128.021 Y79.118 E39.06562
G1 X128.314 Y79.357 E39.08134
G1 X128.535 Y79.66 E39.09693
G1 X128.657 Y79.985 E39.11137
G1 X128.701 Y80.277 E39.12364
G1 X128.706 Y95.336 E39.74972
G1 X128.649 Y95.742 E39.76677
G1 X128.503 Y96.06 E39.78132
G1 X128.29 Y96.352 E39.79634
G1 X128.003 Y96.561 E39.81111
G1 X127.682 Y96.708 E39.82578
G1 X127.278 Y96.763 E39.84273
G1 X107.782 Y96.764 E40.65328
G1 X107.44 Y96.724 E40.6676
G1 X107.1 Y96.591 E40.68278
G1 X106.766 Y96.35 E40.6999
G1 X106.524 Y96.017 E40.71702
G1 X106.394 Y95.675 E40.73223
G1 X106.355 Y95.339 E40.74629
G1 X106.357 Y80.288 E41.37204
G1 X106.412 Y79.952 E41.38619
G1 X106.524 Y79.66 E41.3992
G1 X106.764 Y79.328 E41.41623
G0 F6000 X107.053 Y79.612
G1 F1200 X107.292 Y79.438 E41.42852
G1 X107.487 Y79.357 E41.4373
G1 X107.782 Y79.313 E41.4497
G1 X127.278 Y79.313 E42.26025
G1 X127.571 Y79.357 E42.27257
G1 X127.813 Y79.464 E42.28357
G1 X128.022 Y79.634 E42.29477
G1 X128.18 Y79.851 E42.30593
G1 X128.261 Y80.045 E42.31467
G1 X128.305 Y80.337 E42.32694
G1 X128.306 Y95.336 E42.95053
G1 X128.261 Y95.63 E42.9629
G1 X128.18 Y95.825 E42.97167
G1 X128.006 Y96.064 E42.98397
G1 X127.768 Y96.237 E42.9962
G1 X127.572 Y96.319 E43.00503
G1 X127.278 Y96.363 E43.01739
G1 X107.782 Y96.364 E43.82794
G1 X107.537 Y96.332 E43.83821
G1 X107.291 Y96.236 E43.84919
G1 X107.053 Y96.064 E43.8614
G1 X106.879 Y95.824 E43.87372
G1 X106.786 Y95.58 E43.88458
G1 X106.755 Y95.339 E43.89468
G1 X106.754 Y80.34 E44.51827
G1 X106.786 Y80.095 E44.52854
G1 X106.879 Y79.852 E44.53936
G1 X107.053 Y79.612 E44.55168
G1 F1500 E36.55168
G0 F6000 X106.485 Y79.592
G0 X106.337 Y79.95
G0 X104.946 Y104.67
G1 F1500 E44.55168
G1 F1200 X105.986 Y104.808 E44.5953
G1 X107.222 Y105.368 E44.65171
G1 X108.36 Y106.197 E44.71025
G1 X109.279 Y107.468 E44.77546
G1 X109.764 Y108.754 E44.8326
G1 X109.88 Y109.634 E44.8695
G1 X109.883 Y125.482 E45.52839
G1 X109.738 Y126.584 E45.5746
G1 X109.172 Y127.83 E45.63149
G1 X108.36 Y128.937 E45.68857
G1 X107.236 Y129.761 E45.74651
G1 X105.985 Y130.328 E45.80362
G1 X104.946 Y130.466 E45.84719
G1 X84.511 Y130.467 E46.69678
G1 X83.475 Y130.33 E46.74023
G1 X82.227 Y129.755 E46.79736
G1 X81.099 Y128.934 E46.85536
G1 X80.185 Y127.672 E46.92014
G1 X79.699 Y126.382 E46.97745
G1 X79.582 Y125.502 E47.01436
G1 X79.579 Y109.654 E47.67325
G1 X79.724 Y108.552 E47.71946
G1 X80.29 Y107.306 E47.77635
G1 X81.102 Y106.199 E47.83343
G1 X82.226 Y105.375 E47.89137
G1 X83.477 Y104.808 E47.94848
G1 X84.516 Y104.67 E47.99205
G1 X104.946 Y104.67 E48.84143
G1 F1500 E40.84143
G0 F6000 X81.39 Y106.484
G1 F1500 E48.84143
G1 F1200 X82.431 Y105.721 E48.89509
G1 X83.586 Y105.197 E48.94782
G1 X84.568 Y105.067 E48.98901
G1 X104.894 Y105.067 E49.83406
G1 X105.877 Y105.197 E49.87529
G1 X107.021 Y105.716 E49.92752
G1 X108.073 Y106.482 E49.98162
G1 X108.924 Y107.659 E50.042
G1 X109.372 Y108.849 E50.09487
G1 X109.483 Y109.687 E50.13001
G1 X109.486 Y125.43 E50.78453
G1 X109.349 Y126.474 E50.82831
G1 X108.826 Y127.624 E50.88083
G1 X108.072 Y128.652 E50.93383
G1 X107.031 Y129.415 E50.98749
G1 X105.876 Y129.939 E51.04022
G1 X104.894 Y130.069 E51.08141
G1 X84.564 Y130.07 E51.92663
G1 X83.584 Y129.94 E51.96773
G1 X82.432 Y129.41 E52.02045
G1 X81.386 Y128.648 E52.07425
G1 X80.539 Y127.479 E52.13427
G1 X80.09 Y126.287 E52.18723
G1 X79.979 Y125.449 E52.22237
G1 X79.976 Y109.706 E52.87689
G1 X80.113 Y108.662 E52.92067
G1 X80.636 Y107.512 E52.97319
G1 X81.39 Y106.484 E53.02619
G0 F6000 X81.678 Y106.769
G1 F1200 X82.636 Y106.067 E53.07557
G1 X83.694 Y105.587 E53.12387
G1 X84.621 Y105.464 E53.16275
G1 X104.841 Y105.464 E54.0034
G1 X105.769 Y105.587 E54.04232
G1 X106.82 Y106.064 E54.09031
G1 X107.786 Y106.767 E54.13998
G1 X108.569 Y107.85 E54.19554
G1 X108.981 Y108.944 E54.24414
G1 X109.086 Y109.739 E54.27748
G1 X109.089 Y125.378 E54.92767
G1 X108.96 Y126.364 E54.96902
G1 X108.48 Y127.418 E55.01717
G1 X107.784 Y128.367 E55.06609
G1 X106.826 Y129.069 E55.11547
G1 X105.768 Y129.549 E55.16377
G1 X104.841 Y129.672 E55.20265
G1 X84.616 Y129.673 E56.04351
G1 X83.694 Y129.551 E56.08218
G1 X82.637 Y129.065 E56.13054
G1 X81.673 Y128.362 E56.18015
G1 X80.893 Y127.286 E56.2354
G1 X80.481 Y126.192 E56.284
G1 X80.376 Y125.397 E56.31734
G1 X80.373 Y109.758 E56.96753
G1 X80.502 Y108.772 E57.00888
G1 X80.982 Y107.718 E57.05703
G1 X81.678 Y106.769 E57.10596
G0 F6000 X81.966 Y107.054
G1 F1200 X82.841 Y106.413 E57.15105
G1 X83.803 Y105.976 E57.19498
G1 X84.673 Y105.861 E57.23146
G1 X104.789 Y105.861 E58.06779
G1 X105.659 Y105.976 E58.10428
G1 X106.62 Y106.413 E58.14817
G1 X107.497 Y107.051 E58.19326
G1 X108.215 Y108.043 E58.24417
G1 X108.59 Y109.039 E58.28841
G1 X108.689 Y109.791 E58.31995
G1 X108.692 Y125.326 E58.96582
G1 X108.571 Y126.254 E59.00473
G1 X108.134 Y127.212 E59.0485
G1 X107.496 Y128.082 E59.09336
G1 X106.621 Y128.723 E59.13845
G1 X105.659 Y129.16 E59.18238
G1 X104.789 Y129.275 E59.21887
G1 X84.668 Y129.276 E60.0554
G1 X83.804 Y129.162 E60.09163
G1 X82.84 Y128.718 E60.13576
G1 X81.961 Y128.078 E60.18096
G1 X81.247 Y127.093 E60.23154
G1 X80.872 Y126.097 E60.27579
G1 X80.773 Y125.345 E60.30732
G1 X80.77 Y109.81 E60.95319
G1 X80.891 Y108.882 E60.9921
G1 X81.328 Y107.924 E61.03588
G1 X81.966 Y107.054 E61.08073
G0 F6000 X82.254 Y107.339
G1 F1200 X83.044 Y106.76 E61.12145
G1 X83.913 Y106.365 E61.16114
G1 X84.725 Y106.258 E61.19519
G1 X104.737 Y106.258 E62.02719
G1 X105.549 Y106.365 E62.06124
G1 X106.418 Y106.76 E62.10093
G1 X107.21 Y107.337 E62.14167
G1 X107.861 Y108.236 E62.18782
G1 X108.199 Y109.134 E62.22771
G1 X108.292 Y109.843 E62.25744
G1 X108.295 Y125.274 E62.89898
G1 X108.182 Y126.144 E62.93546
G1 X107.788 Y127.006 E62.97486
G1 X107.208 Y127.797 E63.01564
G1 X106.418 Y128.376 E63.05636
G1 X105.549 Y128.771 E63.09605
G1 X104.737 Y128.878 E63.1301
G1 X84.721 Y128.879 E63.96227
G1 X83.913 Y128.772 E63.99615
G1 X83.042 Y128.371 E64.03602
G1 X82.249 Y127.794 E64.07679
G1 X81.601 Y126.9 E64.1227
G1 X81.263 Y126.002 E64.16259
G1 X81.17 Y125.293 E64.19232
G1 X81.167 Y109.862 E64.83386
G1 X81.28 Y108.992 E64.87034
G1 X81.674 Y108.13 E64.90974
G1 X82.254 Y107.339 E64.95052
G0 F6000 X82.54 Y107.625
G1 F1200 X83.247 Y107.107 E64.98696
G1 X84.023 Y106.754 E65.0224
G1 X84.777 Y106.655 E65.05402
G1 X104.685 Y106.655 E65.8817
G1 X105.439 Y106.754 E65.91332
G1 X106.215 Y107.107 E65.94876
G1 X106.923 Y107.623 E65.98518
G1 X107.507 Y108.429 E66.02656
G1 X107.808 Y109.229 E66.0621
G1 X107.895 Y109.895 E66.09002
G1 X107.898 Y125.223 E66.72729
G1 X107.793 Y126.033 E66.76125
G1 X107.441 Y126.803 E66.79645
G1 X106.922 Y127.511 E66.83294
G1 X106.215 Y128.029 E66.86938
G1 X105.439 Y128.382 E66.90482
G1 X104.685 Y128.481 E66.93644
G1 X84.773 Y128.482 E67.76429
G1 X84.023 Y128.383 E67.79574
G1 X83.247 Y128.026 E67.83125
G1 X82.536 Y127.508 E67.86782
G1 X81.955 Y126.707 E67.90896
G1 X81.654 Y125.907 E67.9445
G1 X81.567 Y125.241 E67.97242
G1 X81.564 Y109.913 E68.60969
G1 X81.669 Y109.103 E68.64365
