;FLAVOR:Marlin
;TIME:2411
;Filament used: 0.966744m
;Layer height: 0.2
;MINX:97.523
;MINY:97.523
;MINZ:0.25
;MAXX:137.477
;MAXY:137.477
;MAXZ:17.05
;Generated with Cura_SteamEngine 5.3.0
M140 S60
M105
M190 S60
M104 S220
M105
M109 S220
M82 ;absolute extrusion mode
START_PRINT
G92 E0
G92 E0
G1 F1200 E-0.8
;LAYER_COUNT:85
;LAYER:0
M107
G0 F6000 X104.265 Y103.615 Z0.25
;TYPE:SKIRT
G1 F1200 E0
G1 F600 X104.935 Y103.003 E0.03773
G1 X105.542 Y102.49 E0.07077
G1 X106.133 Y102.046 E0.1015
G1 X106.81 Y101.571 E0.13588
G1 X107.586 Y101.077 E0.17413
G1 X108.383 Y100.619 E0.21235
G1 X109.081 Y100.253 E0.24511
G1 X109.415 Y100.094 E0.26049
G1 X109.858 Y99.896 E0.28067
G1 X110.609 Y99.59 E0.31438
G1 X111.053 Y99.424 E0.33409
G1 X111.959 Y99.133 E0.37365
G1 X112.897 Y98.879 E0.41405
G1 X113.798 Y98.678 E0.45243
G1 X114.646 Y98.529 E0.48823
G1 X115.465 Y98.414 E0.52261
G1 X116.207 Y98.36 E0.55354
G1 X117.056 Y98.323 E0.58887
G1 X117.955 Y98.323 E0.62625
G1 X118.94 Y98.367 E0.66724
G1 X120.246 Y98.51 E0.72186
G1 X121.199 Y98.677 E0.76209
G1 X122.106 Y98.879 E0.80072
G1 X122.988 Y99.118 E0.83871
G1 X123.726 Y99.349 E0.87086
G1 X124.124 Y99.49 E0.88842
G1 X124.842 Y99.769 E0.92044
G1 X125.286 Y99.959 E0.94052
G1 X125.666 Y100.133 E0.9579
G1 X126.207 Y100.398 E0.98294
G1 X126.711 Y100.671 E1.00677
G1 X127.436 Y101.09 E1.04159
G1 X128.199 Y101.577 E1.07922
G1 X128.994 Y102.136 E1.11963
G1 X130.006 Y102.949 E1.1736
G1 X130.733 Y103.613 E1.21453
G1 X131.382 Y104.262 E1.25269
G1 X131.989 Y104.926 E1.29009
G1 X132.498 Y105.528 E1.32287
G1 X132.954 Y106.133 E1.35436
G1 X133.429 Y106.81 E1.38875
G1 X133.923 Y107.586 E1.42699
G1 X134.381 Y108.383 E1.46521
G1 X134.747 Y109.081 E1.49798
G1 X135.102 Y109.853 E1.5333
G1 X135.404 Y110.592 E1.56649
G1 X135.57 Y111.034 E1.58612
G1 X135.867 Y111.957 E1.62643
G1 X136.122 Y112.9 E1.66705
G1 X136.322 Y113.798 E1.7053
G1 X136.471 Y114.646 E1.74109
G1 X136.584 Y115.449 E1.77481
G1 X136.639 Y116.189 E1.80566
G1 X136.677 Y117.049 E1.84145
G1 X136.677 Y117.954 E1.87907
G1 X136.633 Y118.94 E1.92011
G1 X136.491 Y120.241 E1.97452
G1 X136.325 Y121.191 E2.01461
G1 X136.121 Y122.105 E2.05355
G1 X135.881 Y122.99 E2.09167
G1 X135.651 Y123.726 E2.12373
G1 X135.51 Y124.124 E2.14128
G1 X135.231 Y124.842 E2.17331
G1 X135.041 Y125.286 E2.19339
G1 X134.867 Y125.666 E2.21076
G1 X134.602 Y126.207 E2.23581
G1 X134.331 Y126.707 E2.25945
G1 X133.913 Y127.431 E2.29421
G1 X133.422 Y128.2 E2.33214
G1 X132.862 Y128.996 E2.37261
G1 X132.051 Y130.006 E2.42646
G1 X131.387 Y130.733 E2.46739
G1 X130.735 Y131.385 E2.50573
G1 X130.065 Y131.997 E2.54345
G1 X129.458 Y132.51 E2.5765
G1 X128.867 Y132.954 E2.60723
G1 X128.19 Y133.429 E2.64161
G1 X127.414 Y133.923 E2.67986
G1 X126.617 Y134.381 E2.71807
G1 X125.919 Y134.747 E2.75084
G1 X125.585 Y134.906 E2.76622
G1 X125.142 Y135.104 E2.78639
G1 X124.391 Y135.41 E2.82011
G1 X123.947 Y135.576 E2.83982
G1 X123.041 Y135.867 E2.87938
G1 X122.103 Y136.121 E2.91978
G1 X121.202 Y136.322 E2.95816
G1 X120.354 Y136.471 E2.99396
G1 X119.535 Y136.586 E3.02834
G1 X118.793 Y136.64 E3.05927
G1 X117.944 Y136.677 E3.0946
G1 X117.045 Y136.677 E3.13198
G1 X116.06 Y136.633 E3.17297
G1 X114.754 Y136.49 E3.22759
G1 X113.801 Y136.323 E3.26782
G1 X112.894 Y136.121 E3.30645
G1 X112.012 Y135.882 E3.34444
G1 X111.274 Y135.651 E3.37659
G1 X110.876 Y135.51 E3.39415
G1 X110.158 Y135.231 E3.42617
G1 X109.714 Y135.041 E3.44625
G1 X109.334 Y134.867 E3.46363
G1 X108.791 Y134.601 E3.48876
G1 X108.286 Y134.327 E3.51265
G1 X107.563 Y133.909 E3.54737
G1 X106.791 Y133.416 E3.58545
G1 X105.991 Y132.852 E3.62615
G1 X104.991 Y132.048 E3.6795
G1 X104.267 Y131.387 E3.72025
G1 X103.612 Y130.733 E3.75874
G1 X103.001 Y130.064 E3.7964
G1 X102.484 Y129.45 E3.82978
G1 X102.048 Y128.87 E3.85994
G1 X101.572 Y128.192 E3.89438
G1 X101.074 Y127.41 E3.93293
G1 X100.617 Y126.614 E3.97109
G1 X100.253 Y125.919 E4.00371
G1 X99.897 Y125.145 E4.03913
G1 X99.594 Y124.403 E4.07245
G1 X99.428 Y123.961 E4.09208
G1 X99.129 Y123.031 E4.13269
G1 X98.876 Y122.093 E4.17308
G1 X98.678 Y121.202 E4.21103
G1 X98.529 Y120.354 E4.24683
G1 X98.414 Y119.535 E4.28121
G1 X98.36 Y118.794 E4.3121
G1 X98.323 Y117.946 E4.34739
G1 X98.323 Y117.046 E4.38481
G1 X98.367 Y116.06 E4.42584
G1 X98.509 Y114.759 E4.48025
G1 X98.675 Y113.809 E4.52035
G1 X98.878 Y112.896 E4.55923
G1 X99.119 Y112.007 E4.59752
G1 X99.353 Y111.261 E4.63003
G1 X99.493 Y110.867 E4.64741
G1 X99.769 Y110.158 E4.67905
G1 X99.959 Y109.714 E4.69912
G1 X100.133 Y109.334 E4.7165
G1 X100.398 Y108.793 E4.74155
G1 X100.669 Y108.293 E4.76519
G1 X101.087 Y107.569 E4.79995
G1 X101.578 Y106.8 E4.83788
G1 X102.138 Y106.004 E4.87834
G1 X102.949 Y104.994 E4.93219
G1 X103.613 Y104.267 E4.97313
G1 X104.265 Y103.615 E5.01146
G0 F6000 X103.33 Y103.984
G1 F600 X103.995 Y103.32 E5.05053
G1 X104.677 Y102.697 E5.08894
G1 X105.302 Y102.17 E5.12293
G1 X105.903 Y101.719 E5.15417
G1 X106.595 Y101.234 E5.1893
G1 X107.387 Y100.73 E5.22833
G1 X108.197 Y100.265 E5.26716
G1 X108.909 Y99.892 E5.30058
G1 X109.252 Y99.729 E5.31637
G1 X109.707 Y99.526 E5.33708
G1 X110.469 Y99.215 E5.3713
G1 X110.931 Y99.043 E5.39179
G1 X111.854 Y98.747 E5.43209
G1 X112.81 Y98.489 E5.47326
G1 X113.729 Y98.284 E5.51241
G1 X114.59 Y98.133 E5.54875
G1 X115.436 Y98.015 E5.58426
G1 X116.19 Y97.96 E5.61569
G1 X117.039 Y97.923 E5.65102
G1 X117.973 Y97.923 E5.68985
G1 X118.984 Y97.969 E5.73193
G1 X120.29 Y98.112 E5.78655
G1 X121.286 Y98.287 E5.8286
G1 X122.211 Y98.493 E5.86799
G1 X123.107 Y98.736 E5.90659
G1 X123.86 Y98.972 E5.9394
G1 X124.269 Y99.117 E5.95744
G1 X124.999 Y99.401 E5.99001
G1 X125.453 Y99.595 E6.01053
G1 X125.842 Y99.774 E6.02834
G1 X126.398 Y100.046 E6.05407
G1 X126.911 Y100.325 E6.07835
G1 X127.651 Y100.753 E6.11389
G1 X128.429 Y101.25 E6.15227
G1 X129.245 Y101.824 E6.19375
G1 X130.257 Y102.637 E6.24772
G1 X131.016 Y103.33 E6.29045
G1 X131.677 Y103.992 E6.32934
G1 X132.294 Y104.668 E6.36739
G1 X132.817 Y105.287 E6.40108
G1 X133.281 Y105.903 E6.43315
G1 X133.766 Y106.595 E6.46828
G1 X134.27 Y107.387 E6.50731
G1 X134.735 Y108.197 E6.54614
G1 X135.11 Y108.914 E6.57978
G1 X135.472 Y109.702 E6.61583
G1 X135.778 Y110.451 E6.64947
G1 X135.951 Y110.911 E6.6699
G1 X136.248 Y111.834 E6.71021
G1 X136.512 Y112.813 E6.75237
G1 X136.716 Y113.729 E6.79139
G1 X136.867 Y114.59 E6.82773
G1 X136.983 Y115.419 E6.86253
G1 X137.039 Y116.171 E6.89388
G1 X137.077 Y117.031 E6.92967
G1 X137.077 Y117.972 E6.96879
G1 X137.031 Y118.983 E7.01087
G1 X136.889 Y120.284 E7.06528
G1 X136.715 Y121.278 E7.10723
G1 X136.507 Y122.21 E7.14693
G1 X136.263 Y123.109 E7.18566
G1 X136.028 Y123.86 E7.21838
G1 X135.883 Y124.269 E7.23642
G1 X135.599 Y124.999 E7.26899
G1 X135.405 Y125.453 E7.28951
G1 X135.226 Y125.842 E7.30732
G1 X134.954 Y126.398 E7.33305
G1 X134.677 Y126.907 E7.35714
G1 X134.25 Y127.646 E7.39263
G1 X133.749 Y128.43 E7.43131
G1 X133.174 Y129.246 E7.47281
G1 X132.346 Y130.276 E7.52775
G1 X131.67 Y131.016 E7.56942
G1 X131.005 Y131.68 E7.60849
G1 X130.323 Y132.303 E7.6469
G1 X129.698 Y132.83 E7.68089
G1 X129.097 Y133.281 E7.71213
G1 X128.405 Y133.766 E7.74726
G1 X127.613 Y134.27 E7.78629
G1 X126.803 Y134.735 E7.82512
G1 X126.091 Y135.108 E7.85854
G1 X125.748 Y135.271 E7.87432
G1 X125.293 Y135.474 E7.89504
G1 X124.531 Y135.785 E7.92925
G1 X124.069 Y135.957 E7.94975
G1 X123.146 Y136.253 E7.99005
G1 X122.19 Y136.511 E8.03122
G1 X121.271 Y136.716 E8.07036
G1 X120.41 Y136.867 E8.10671
G1 X119.564 Y136.985 E8.14222
G1 X118.81 Y137.04 E8.17365
G1 X117.961 Y137.077 E8.20898
G1 X117.027 Y137.077 E8.24781
G1 X116.016 Y137.031 E8.28989
G1 X114.71 Y136.888 E8.34451
G1 X113.714 Y136.713 E8.38655
G1 X112.789 Y136.507 E8.42595
G1 X111.893 Y136.264 E8.46455
G1 X111.14 Y136.028 E8.49736
G1 X110.731 Y135.883 E8.5154
G1 X110.001 Y135.599 E8.54796
G1 X109.547 Y135.405 E8.56849
G1 X109.158 Y135.226 E8.58629
G1 X108.6 Y134.953 E8.61212
G1 X108.086 Y134.673 E8.63645
G1 X107.348 Y134.246 E8.6719
G1 X106.561 Y133.743 E8.71073
G1 X105.74 Y133.164 E8.7525
G1 X104.74 Y132.36 E8.80585
G1 X103.984 Y131.67 E8.8484
G1 X103.317 Y131.003 E8.88762
G1 X102.695 Y130.322 E8.92596
G1 X102.164 Y129.69 E8.96028
G1 X101.721 Y129.1 E8.99096
G1 X101.235 Y128.407 E9.02615
G1 X100.727 Y127.609 E9.06548
G1 X100.263 Y126.8 E9.10425
G1 X99.89 Y126.086 E9.13774
G1 X99.527 Y125.296 E9.17389
G1 X99.22 Y124.544 E9.20766
G1 X99.047 Y124.083 E9.22813
G1 X98.743 Y123.135 E9.26952
G1 X98.486 Y122.18 E9.31064
G1 X98.284 Y121.271 E9.34935
G1 X98.133 Y120.41 E9.38569
G1 X98.015 Y119.564 E9.4212
G1 X97.96 Y118.811 E9.45259
G1 X97.923 Y117.963 E9.48788
G1 X97.923 Y117.028 E9.52676
G1 X97.969 Y116.017 E9.56883
G1 X98.111 Y114.716 E9.62324
G1 X98.285 Y113.722 E9.6652
G1 X98.492 Y112.791 E9.70485
G1 X98.737 Y111.887 E9.74379
G1 X98.976 Y111.127 E9.77691
G1 X99.12 Y110.722 E9.79478
G1 X99.401 Y110.001 E9.82695
G1 X99.595 Y109.547 E9.84748
G1 X99.774 Y109.158 E9.86528
G1 X100.046 Y108.602 E9.89102
G1 X100.323 Y108.093 E9.91511
G1 X100.75 Y107.354 E9.95059
G1 X101.251 Y106.57 E9.98927
G1 X101.826 Y105.754 E10.03078
G1 X102.654 Y104.724 E10.08572
G1 X103.33 Y103.984 E10.12739
G0 F6000 X103.047 Y103.701
G1 F600 X103.725 Y103.025 E10.16719
G1 X104.419 Y102.391 E10.20628
G1 X105.062 Y101.85 E10.24121
G1 X105.673 Y101.391 E10.27298
G1 X106.365 Y100.906 E10.30812
G1 X107.188 Y100.383 E10.34866
G1 X108.011 Y99.911 E10.3881
G1 X108.737 Y99.531 E10.42217
G1 X109.089 Y99.364 E10.43837
G1 X109.556 Y99.156 E10.45962
G1 X110.329 Y98.84 E10.49434
G1 X110.809 Y98.662 E10.51562
G1 X111.75 Y98.361 E10.5567
G1 X112.723 Y98.099 E10.59859
G1 X113.66 Y97.89 E10.63851
G1 X114.535 Y97.737 E10.67544
G1 X115.407 Y97.616 E10.71204
G1 X116.173 Y97.56 E10.74397
G1 X117.022 Y97.523 E10.7793
G1 X117.991 Y97.523 E10.81959
G1 X119.028 Y97.571 E10.86275
G1 X120.334 Y97.714 E10.91737
G1 X121.373 Y97.897 E10.96123
G1 X122.316 Y98.107 E11.00139
G1 X123.227 Y98.354 E11.04064
G1 X123.994 Y98.595 E11.07406
G1 X124.414 Y98.744 E11.09259
G1 X125.156 Y99.033 E11.1257
G1 X125.62 Y99.232 E11.14669
G1 X126.018 Y99.415 E11.1649
G1 X126.589 Y99.695 E11.19134
G1 X127.111 Y99.979 E11.21605
G1 X127.866 Y100.416 E11.25231
G1 X128.659 Y100.923 E11.29144
G1 X129.496 Y101.512 E11.334
G1 X130.508 Y102.325 E11.38797
G1 X131.299 Y103.047 E11.43249
G1 X131.972 Y103.722 E11.47212
G1 X132.6 Y104.41 E11.51085
G1 X133.137 Y105.046 E11.54545
G1 X133.609 Y105.673 E11.57808
G1 X134.094 Y106.365 E11.61321
G1 X134.617 Y107.188 E11.65376
G1 X135.089 Y108.012 E11.69324
G1 X135.473 Y108.747 E11.72771
G1 X135.842 Y109.551 E11.76449
G1 X136.152 Y110.31 E11.79858
G1 X136.332 Y110.788 E11.81981
G1 X136.629 Y111.711 E11.86012
G1 X136.902 Y112.726 E11.90382
G1 X137.11 Y113.66 E11.94361
G1 X137.263 Y114.535 E11.98054
G1 X137.382 Y115.389 E12.01638
G1 X137.439 Y116.153 E12.04824
G1 X137.477 Y117.013 E12.08402
G1 X137.477 Y117.99 E12.12464
G1 X137.429 Y119.026 E12.16776
G1 X137.287 Y120.327 E12.22217
G1 X137.105 Y121.365 E12.26599
G1 X136.893 Y122.315 E12.30645
G1 X136.645 Y123.228 E12.34579
G1 X136.405 Y123.994 E12.37916
G1 X136.256 Y124.414 E12.39769
G1 X135.967 Y125.156 E12.43079
G1 X135.768 Y125.62 E12.45178
G1 X135.585 Y126.018 E12.47
G1 X135.305 Y126.589 E12.49644
G1 X135.023 Y127.107 E12.52096
G1 X134.587 Y127.861 E12.55717
G1 X134.076 Y128.66 E12.5966
G1 X133.486 Y129.497 E12.63917
G1 X132.658 Y130.527 E12.69412
G1 X131.953 Y131.299 E12.73758
G1 X131.275 Y131.975 E12.77739
G1 X130.581 Y132.609 E12.81647
G1 X129.938 Y133.15 E12.85141
G1 X129.327 Y133.609 E12.88318
G1 X128.635 Y134.094 E12.91831
G1 X127.812 Y134.617 E12.95885
G1 X126.989 Y135.089 E12.99829
G1 X126.263 Y135.469 E13.03236
G1 X125.911 Y135.636 E13.04856
G1 X125.444 Y135.844 E13.06982
G1 X124.671 Y136.16 E13.10453
G1 X124.191 Y136.338 E13.12582
G1 X123.25 Y136.639 E13.16689
G1 X122.277 Y136.901 E13.20879
G1 X121.34 Y137.11 E13.2487
G1 X120.465 Y137.263 E13.28563
G1 X119.593 Y137.384 E13.32223
G1 X118.827 Y137.44 E13.35416
G1 X117.978 Y137.477 E13.38949
G1 X117.009 Y137.477 E13.42978
G1 X115.972 Y137.429 E13.47294
G1 X114.666 Y137.286 E13.52756
G1 X113.627 Y137.103 E13.57142
G1 X112.684 Y136.893 E13.61159
G1 X111.773 Y136.646 E13.65083
G1 X111.006 Y136.405 E13.68426
G1 X110.586 Y136.256 E13.70278
G1 X109.844 Y135.967 E13.73589
G1 X109.38 Y135.768 E13.75688
G1 X108.982 Y135.585 E13.77509
G1 X108.409 Y135.304 E13.80163
G1 X107.886 Y135.019 E13.82639
G1 X107.133 Y134.583 E13.86256
G1 X106.33 Y134.07 E13.90218
G1 X105.489 Y133.476 E13.94499
G1 X104.489 Y132.672 E13.99833
G1 X103.701 Y131.953 E14.04268
G1 X103.022 Y131.273 E14.08263
G1 X102.389 Y130.579 E14.12169
G1 X101.844 Y129.93 E14.15692
G1 X101.394 Y129.33 E14.1881
G1 X100.898 Y128.622 E14.22404
G1 X100.38 Y127.808 E14.26416
G1 X99.908 Y126.985 E14.3036
G1 X99.535 Y126.271 E14.33709
G1 X99.157 Y125.447 E14.37478
G1 X98.846 Y124.685 E14.409
G1 X98.666 Y124.205 E14.43031
G1 X98.357 Y123.239 E14.47248
G1 X98.096 Y122.267 E14.51432
G1 X97.89 Y121.34 E14.5538
G1 X97.737 Y120.465 E14.59073
G1 X97.616 Y119.593 E14.62733
G1 X97.56 Y118.828 E14.65922
G1 X97.523 Y117.98 E14.69451
G1 X97.523 Y117.01 E14.73484
G1 X97.571 Y115.974 E14.77796
G1 X97.713 Y114.673 E14.83237
G1 X97.895 Y113.635 E14.87618
G1 X98.106 Y112.686 E14.9166
G1 X98.355 Y111.767 E14.95618
G1 X98.599 Y110.993 E14.98992
G1 X98.747 Y110.577 E15.00828
G1 X99.033 Y109.844 E15.04099
G1 X99.232 Y109.38 E15.06198
G1 X99.415 Y108.982 E15.0802
G1 X99.695 Y108.411 E15.10664
G1 X99.977 Y107.893 E15.13116
G1 X100.413 Y107.139 E15.16737
G1 X100.924 Y106.34 E15.2068
G1 X101.514 Y105.503 E15.24937
G1 X102.342 Y104.473 E15.30432
G1 X103.047 Y103.701 E15.34778
G1 F1200 E14.54778
;MESH:SpessoreBauleBmw.stl
G0 F6000 X109.591 Y111.946
G0 X110.467 Y112.585
G0 X117.5 Y125.099
;TYPE:WALL-INNER
G1 F1200 E15.34778
G1 F600 X117.823 Y125.092 E15.36122
G1 X118.169 Y125.069 E15.37563
G1 X118.496 Y125.033 E15.38931
G1 X118.813 Y124.984 E15.40265
G1 X119.153 Y124.917 E15.41705
G1 X119.472 Y124.839 E15.43071
G1 X119.774 Y124.751 E15.44378
G1 X120.092 Y124.642 E15.45776
G1 X120.415 Y124.517 E15.47216
G1 X120.707 Y124.389 E15.48541
G1 X121.01 Y124.24 E15.49945
G1 X121.298 Y124.082 E15.51311
G1 X121.582 Y123.909 E15.52694
G1 X121.864 Y123.721 E15.54103
G1 X122.121 Y123.533 E15.55426
G1 X122.389 Y123.317 E15.56857
G1 X122.638 Y123.097 E15.58239
G1 X122.879 Y122.868 E15.59621
G1 X123.097 Y122.639 E15.60936
G1 X123.326 Y122.378 E15.62379
G1 X123.532 Y122.121 E15.63748
G1 X123.721 Y121.864 E15.65075
G1 X123.913 Y121.577 E15.6651
G1 X124.076 Y121.306 E15.67825
G1 X124.244 Y121.002 E15.69269
G1 X124.39 Y120.706 E15.70641
G1 X124.517 Y120.415 E15.71961
G1 X124.643 Y120.091 E15.73407
G1 X124.75 Y119.776 E15.7479
G1 X124.841 Y119.467 E15.76129
G1 X124.919 Y119.145 E15.77507
G1 X124.984 Y118.813 E15.78913
G1 X125.035 Y118.485 E15.80293
G1 X125.069 Y118.169 E15.81614
G1 X125.091 Y117.824 E15.83052
G1 X125.099 Y117.492 E15.84432
G1 X125.091 Y117.163 E15.85801
G1 X125.07 Y116.833 E15.87175
G1 X125.033 Y116.502 E15.8856
G1 X124.982 Y116.175 E15.89936
G1 X124.917 Y115.848 E15.91322
G1 X124.839 Y115.527 E15.92696
G1 X124.747 Y115.211 E15.94064
G1 X124.643 Y114.91 E15.95388
G1 X124.517 Y114.584 E15.96841
G1 X124.384 Y114.28 E15.9822
G1 X124.239 Y113.987 E15.9958
G1 X124.081 Y113.702 E16.00934
G1 X123.91 Y113.418 E16.02313
G1 X123.721 Y113.136 E16.03724
G1 X123.533 Y112.879 E16.05048
G1 X123.317 Y112.611 E16.06479
G1 X123.097 Y112.362 E16.0786
G1 X122.868 Y112.121 E16.09243
G1 X122.639 Y111.903 E16.10557
G1 X122.378 Y111.674 E16.12001
G1 X122.121 Y111.468 E16.1337
G1 X121.864 Y111.28 E16.14694
G1 X121.582 Y111.091 E16.16105
G1 X121.305 Y110.923 E16.17452
G1 X121.002 Y110.756 E16.1889
G1 X120.706 Y110.61 E16.20263
G1 X120.415 Y110.483 E16.21583
G1 X120.091 Y110.357 E16.23028
G1 X119.776 Y110.25 E16.24411
G1 X119.473 Y110.161 E16.25724
G1 X119.153 Y110.083 E16.27093
G1 X118.814 Y110.016 E16.2853
G1 X118.494 Y109.967 E16.29876
G1 X118.168 Y109.931 E16.3124
G1 X117.823 Y109.909 E16.32677
G1 X117.5 Y109.901 E16.3402
G1 X117.177 Y109.909 E16.35363
G1 X116.832 Y109.93 E16.368
G1 X116.506 Y109.967 E16.38164
G1 X116.186 Y110.016 E16.3951
G1 X115.847 Y110.083 E16.40947
G1 X115.527 Y110.161 E16.42316
