;FLAVOR:Marlin
;TIME:2704
;Filament used: 1.68104m
;Layer height: 0.2
;MINX:97.176
;MINY:105.275
;MINZ:0.25
;MAXX:137.925
;MAXY:129.725
;MAXZ:18.05
;Generated with Cura_SteamEngine 5.3.0
M140 S85
M105
M190 S85
M104 S240
M105
M109 S240
M82 ;absolute extrusion mode
START_PRINT
G92 E0
G92 E0
G1 F1500 E-8
;LAYER_COUNT:90
;LAYER:0
M107
G0 F6000 X100.86 Y105.813 Z0.25
;TYPE:SKIRT
G1 F1500 E0
G1 F1200 X101.249 Y105.459 E0.02187
G1 X101.777 Y105.275 E0.04511
G1 X133.231 Y105.275 E1.35282
G1 X133.748 Y105.404 E1.37497
G1 X134.192 Y105.74 E1.39812
G1 X134.657 Y106.43 E1.43271
G1 X134.999 Y106.977 E1.45954
G1 X135.319 Y107.53 E1.4861
G1 X135.629 Y108.1 E1.51307
G1 X135.915 Y108.674 E1.53974
G1 X136.185 Y109.26 E1.56656
G1 X136.436 Y109.852 E1.59329
G1 X136.668 Y110.452 E1.62004
G1 X136.881 Y111.059 E1.64678
G1 X137.077 Y111.679 E1.67382
G1 X137.249 Y112.296 E1.70045
G1 X137.402 Y112.914 E1.72692
G1 X137.541 Y113.55 E1.75398
G1 X137.655 Y114.182 E1.78068
G1 X137.748 Y114.822 E1.80757
G1 X137.821 Y115.456 E1.8341
G1 X137.877 Y116.101 E1.86102
G1 X137.912 Y116.744 E1.88779
G1 X137.925 Y117.385 E1.91445
G1 X137.92 Y118.033 E1.94139
G1 X137.891 Y118.671 E1.96794
G1 X137.845 Y119.317 E1.99487
G1 X137.776 Y119.959 E2.02171
G1 X137.687 Y120.596 E2.04845
G1 X137.58 Y121.226 E2.07502
G1 X137.453 Y121.864 E2.10207
G1 X137.302 Y122.498 E2.12916
G1 X137.06 Y123.37 E2.16679
G1 X136.745 Y124.337 E2.20907
G1 X136.521 Y124.934 E2.23558
G1 X136.166 Y125.782 E2.2738
G1 X135.894 Y126.367 E2.30062
G1 X135.607 Y126.938 E2.32719
G1 X135.297 Y127.508 E2.35417
G1 X134.974 Y128.06 E2.38075
G1 X134.631 Y128.608 E2.40763
G1 X134.24 Y129.19 E2.43678
G1 X133.84 Y129.549 E2.45913
G1 X133.317 Y129.725 E2.48207
G1 X101.871 Y129.725 E3.78944
G1 X101.351 Y129.596 E3.81172
G1 X100.908 Y129.259 E3.83486
G1 X100.449 Y128.574 E3.86914
G1 X100.102 Y128.024 E3.89618
G1 X99.779 Y127.469 E3.92287
G1 X99.478 Y126.911 E3.94923
G1 X99.186 Y126.325 E3.97645
G1 X98.917 Y125.741 E4.00319
G1 X98.665 Y125.149 E4.02994
G1 X98.43 Y124.543 E4.05696
G1 X98.222 Y123.944 E4.08332
G1 X98.024 Y123.321 E4.1105
G1 X97.852 Y122.704 E4.13713
G1 X97.699 Y122.083 E4.16372
G1 X97.564 Y121.453 E4.19051
G1 X97.446 Y120.817 E4.2174
G1 X97.353 Y120.18 E4.24416
G1 X97.277 Y119.54 E4.27096
G1 X97.225 Y118.937 E4.29612
G1 X97.189 Y118.256 E4.32447
G1 X97.176 Y117.615 E4.35113
G1 X97.181 Y116.967 E4.37807
G1 X97.21 Y116.329 E4.40462
G1 X97.256 Y115.681 E4.43163
G1 X97.326 Y115.044 E4.45827
G1 X97.414 Y114.404 E4.48513
G1 X97.521 Y113.774 E4.5117
G1 X97.648 Y113.136 E4.53874
G1 X97.799 Y112.502 E4.56584
G1 X98.04 Y111.633 E4.60333
G1 X98.235 Y111.019 E4.63012
G1 X98.449 Y110.411 E4.65691
G1 X98.687 Y109.799 E4.68421
G1 X99.09 Y108.878 E4.72601
G1 X99.373 Y108.299 E4.7528
G1 X99.678 Y107.719 E4.78005
G1 X100.128 Y106.94 E4.81745
G1 X100.471 Y106.393 E4.84429
G1 X100.86 Y105.813 E4.87333
G0 F6000 X101.164 Y106.078
G1 F1200 X100.803 Y106.616 E4.90026
G1 X100.467 Y107.152 E4.92657
G1 X100.024 Y107.919 E4.96339
G1 X99.727 Y108.485 E4.98996
G1 X99.45 Y109.053 E5.01624
G1 X99.054 Y109.959 E5.05735
G1 X98.822 Y110.556 E5.08397
G1 X98.612 Y111.152 E5.11025
G1 X98.421 Y111.754 E5.1365
G1 X98.184 Y112.609 E5.17339
G1 X98.037 Y113.228 E5.19984
G1 X97.913 Y113.852 E5.22629
G1 X97.808 Y114.471 E5.2524
G1 X97.722 Y115.098 E5.27871
G1 X97.654 Y115.724 E5.30489
G1 X97.609 Y116.357 E5.33127
G1 X97.581 Y116.985 E5.3574
G1 X97.576 Y117.618 E5.38372
G1 X97.589 Y118.248 E5.40992
G1 X97.624 Y118.903 E5.43719
G1 X97.676 Y119.506 E5.46235
G1 X97.75 Y120.133 E5.4886
G1 X97.842 Y120.759 E5.51491
G1 X97.957 Y121.38 E5.54117
G1 X98.09 Y121.999 E5.56749
G1 X98.24 Y122.608 E5.59356
G1 X98.409 Y123.214 E5.61972
G1 X98.603 Y123.822 E5.64625
G1 X98.808 Y124.412 E5.67222
G1 X99.038 Y125.004 E5.69863
G1 X99.285 Y125.585 E5.72487
G1 X99.549 Y126.157 E5.75106
G1 X99.836 Y126.733 E5.77782
G1 X100.131 Y127.279 E5.80362
G1 X100.448 Y127.823 E5.8298
G1 X100.787 Y128.36 E5.8562
G1 X101.204 Y128.982 E5.88733
G1 X101.527 Y129.228 E5.90421
G1 X101.919 Y129.325 E5.921
G1 X133.251 Y129.325 E7.22364
G1 X133.634 Y129.196 E7.24044
G1 X133.936 Y128.925 E7.25731
G1 X134.299 Y128.385 E7.28436
G1 X134.635 Y127.848 E7.3107
G1 X134.952 Y127.306 E7.3368
G1 X135.255 Y126.747 E7.36324
G1 X135.537 Y126.187 E7.3893
G1 X135.803 Y125.614 E7.41557
G1 X136.146 Y124.793 E7.45256
G1 X136.37 Y124.196 E7.47907
G1 X136.68 Y123.246 E7.52062
G1 X136.917 Y122.391 E7.5575
G1 X137.064 Y121.772 E7.58395
G1 X137.188 Y121.148 E7.6104
G1 X137.293 Y120.529 E7.63651
G1 X137.38 Y119.904 E7.66274
G1 X137.447 Y119.275 E7.68904
G1 X137.492 Y118.643 E7.71538
G1 X137.52 Y118.015 E7.74152
G1 X137.525 Y117.382 E7.76784
G1 X137.512 Y116.752 E7.79403
G1 X137.478 Y116.123 E7.82022
G1 X137.423 Y115.491 E7.8466
G1 X137.351 Y114.868 E7.87267
G1 X137.259 Y114.24 E7.89906
G1 X137.147 Y113.621 E7.92521
G1 X137.011 Y112.999 E7.95168
G1 X136.861 Y112.392 E7.97768
G1 X136.692 Y111.786 E8.00383
G1 X136.5 Y111.18 E8.03026
G1 X136.291 Y110.585 E8.05648
G1 X136.063 Y109.996 E8.08274
G1 X135.817 Y109.416 E8.10893
G1 X135.552 Y108.842 E8.13522
G1 X135.271 Y108.278 E8.16141
G1 X134.968 Y107.721 E8.18778
G1 X134.653 Y107.177 E8.21391
G1 X134.318 Y106.642 E8.24015
G1 X133.896 Y106.017 E8.27151
G1 X133.572 Y105.772 E8.2884
G1 X133.182 Y105.675 E8.3051
G1 X101.845 Y105.675 E9.60795
G1 X101.459 Y105.809 E9.62493
G1 X101.164 Y106.078 E9.64153
G0 F6000 X101.469 Y106.341
G1 F1200 X101.667 Y106.161 E9.65266
G1 X101.914 Y106.075 E9.66353
G1 X133.134 Y106.075 E10.96151
G1 X133.396 Y106.14 E10.97273
G1 X133.602 Y106.296 E10.98347
G1 X133.979 Y106.854 E11.01147
G1 X134.307 Y107.378 E11.03717
G1 X134.617 Y107.912 E11.06284
G1 X134.913 Y108.456 E11.08859
G1 X135.189 Y109.01 E11.11432
G1 X135.449 Y109.572 E11.14007
G1 X135.69 Y110.141 E11.16576
G1 X135.914 Y110.718 E11.19149
G1 X136.119 Y111.301 E11.21718
G1 X136.307 Y111.893 E11.24301
G1 X136.473 Y112.488 E11.26869
G1 X136.62 Y113.084 E11.29421
G1 X136.753 Y113.692 E11.32009
G1 X136.863 Y114.299 E11.34573
G1 X136.954 Y114.914 E11.37158
G1 X137.025 Y115.526 E11.3972
G1 X137.079 Y116.144 E11.42299
G1 X137.112 Y116.76 E11.44863
G1 X137.125 Y117.379 E11.47438
G1 X137.12 Y117.998 E11.50011
G1 X137.093 Y118.615 E11.52579
G1 X137.049 Y119.233 E11.55155
G1 X136.984 Y119.849 E11.5773
G1 X136.899 Y120.462 E11.60303
G1 X136.796 Y121.07 E11.62867
G1 X136.675 Y121.68 E11.65452
G1 X136.532 Y122.284 E11.68033
G1 X136.299 Y123.125 E11.71661
G1 X136.113 Y123.711 E11.74217
G1 X135.995 Y124.056 E11.75733
G1 X135.777 Y124.639 E11.78321
G1 X135.44 Y125.446 E11.81956
G1 X135.18 Y126.007 E11.84527
G1 X134.903 Y126.557 E11.87087
G1 X134.607 Y127.104 E11.89673
G1 X134.296 Y127.636 E11.92235
G1 X133.967 Y128.162 E11.94815
G1 X133.632 Y128.66 E11.9731
G1 X133.428 Y128.843 E11.98449
G1 X133.185 Y128.925 E11.99516
G1 X101.967 Y128.925 E13.29305
G1 X101.705 Y128.86 E13.30427
G1 X101.498 Y128.703 E13.31507
G1 X101.125 Y128.147 E13.34291
G1 X100.794 Y127.622 E13.36871
G1 X100.483 Y127.088 E13.3944
G1 X100.194 Y126.555 E13.41961
G1 X99.912 Y125.989 E13.4459
G1 X99.653 Y125.428 E13.47159
G1 X99.411 Y124.859 E13.4973
G1 X99.186 Y124.281 E13.52308
G1 X98.984 Y123.7 E13.54866
G1 X98.794 Y123.107 E13.57455
G1 X98.628 Y122.512 E13.60023
G1 X98.481 Y121.915 E13.62579
G1 X98.35 Y121.308 E13.65161
G1 X98.238 Y120.7 E13.67731
G1 X98.147 Y120.086 E13.70312
G1 X98.075 Y119.472 E13.72882
G1 X98.023 Y118.869 E13.75398
G1 X97.989 Y118.24 E13.78017
G1 X97.976 Y117.621 E13.80591
G1 X97.981 Y117.002 E13.83165
G1 X98.008 Y116.385 E13.85732
G1 X98.052 Y115.767 E13.88308
G1 X98.118 Y115.152 E13.9088
G1 X98.202 Y114.538 E13.93456
G1 X98.305 Y113.93 E13.9602
G1 X98.426 Y113.32 E13.98606
G1 X98.569 Y112.716 E14.01186
G1 X98.802 Y111.875 E14.04814
G1 X98.989 Y111.285 E14.07387
G1 X99.195 Y110.701 E14.09962
G1 X99.421 Y110.119 E14.12558
G1 X99.81 Y109.228 E14.166
G1 X100.081 Y108.671 E14.19175
G1 X100.37 Y108.119 E14.21766
G1 X100.806 Y107.364 E14.2539
G1 X101.135 Y106.839 E14.27966
G1 X101.469 Y106.341 E14.30459
G0 F6000 X101.801 Y106.564
G1 F1200 X101.914 Y106.475 E14.31057
G1 X133.134 Y106.475 E15.60855
G1 X133.271 Y106.52 E15.61454
G1 X133.64 Y107.066 E15.64194
G1 X133.961 Y107.579 E15.6671
G1 X134.266 Y108.103 E15.69231
G1 X134.555 Y108.635 E15.71748
G1 X134.826 Y109.178 E15.74271
G1 X135.081 Y109.728 E15.76791
G1 X135.317 Y110.286 E15.7931
G1 X135.537 Y110.851 E15.81831
G1 X135.738 Y111.422 E15.84348
G1 X135.922 Y112.001 E15.86874
G1 X136.085 Y112.583 E15.89386
G1 X136.229 Y113.169 E15.91895
G1 X136.359 Y113.764 E15.94427
G1 X136.467 Y114.358 E15.96937
G1 X136.557 Y114.96 E15.99468
G1 X136.627 Y115.561 E16.01983
G1 X136.68 Y116.165 E16.04504
G1 X136.712 Y116.769 E16.07019
G1 X136.725 Y117.376 E16.09543
G1 X136.72 Y117.981 E16.12058
G1 X136.694 Y118.587 E16.1458
G1 X136.651 Y119.191 E16.17098
G1 X136.588 Y119.794 E16.19618
G1 X136.505 Y120.395 E16.22141
G1 X136.404 Y120.992 E16.24658
G1 X136.286 Y121.588 E16.27184
G1 X136.146 Y122.178 E16.29705
G1 X135.918 Y123.004 E16.33268
G1 X135.735 Y123.581 E16.35784
G1 X135.62 Y123.916 E16.37257
G1 X135.408 Y124.485 E16.39781
G1 X135.077 Y125.278 E16.43354
G1 X134.823 Y125.827 E16.45869
G1 X134.551 Y126.367 E16.48383
G1 X134.262 Y126.902 E16.50911
G1 X133.957 Y127.424 E16.53424
G1 X133.635 Y127.939 E16.55949
G1 X133.3 Y128.437 E16.58445
G1 X133.185 Y128.525 E16.59047
G1 X101.967 Y128.525 E17.88836
G1 X101.83 Y128.48 E17.89436
G1 X101.463 Y127.934 E17.92171
G1 X101.14 Y127.421 E17.94691
G1 X100.835 Y126.897 E17.97212
G1 X100.546 Y126.364 E17.99733
G1 X100.275 Y125.822 E18.02252
G1 X100.021 Y125.271 E18.04774
G1 X99.784 Y124.714 E18.07291
G1 X99.564 Y124.149 E18.09812
G1 X99.365 Y123.578 E18.12326
G1 X99.179 Y122.999 E18.14854
G1 X99.016 Y122.417 E18.17367
G1 X98.872 Y121.83 E18.1988
G1 X98.743 Y121.236 E18.22407
G1 X98.634 Y120.641 E18.24922
G1 X98.544 Y120.04 E18.27448
G1 X98.474 Y119.438 E18.29968
G1 X98.422 Y118.835 E18.32484
G1 X98.389 Y118.231 E18.34999
G1 X98.376 Y117.624 E18.37523
G1 X98.381 Y117.019 E18.40039
G1 X98.407 Y116.413 E18.4256
G1 X98.45 Y115.809 E18.45078
G1 X98.514 Y115.206 E18.47599
G1 X98.596 Y114.605 E18.50121
G1 X98.697 Y114.008 E18.52638
G1 X98.815 Y113.412 E18.55164
G1 X98.955 Y112.822 E18.57685
G1 X99.183 Y111.996 E18.61248
G1 X99.366 Y111.418 E18.63768
G1 X99.568 Y110.846 E18.6629
G1 X99.788 Y110.279 E18.68819
G1 X100.17 Y109.403 E18.72792
G1 X100.435 Y108.857 E18.75315
G1 X100.717 Y108.319 E18.77841
G1 X101.145 Y107.576 E18.81406
G1 X101.467 Y107.062 E18.83927
G1 X101.801 Y106.564 E18.8642
G1 F1500 E10.8642
;MESH:22mm-Spacer.stl
G0 F6000 X101.986 Y108.119
G0 X102.287 Y127.725
;TYPE:WALL-INNER
G1 F1500 E18.8642
G1 F1200 X132.814 Y127.724 E20.13337
G1 X132.973 Y127.488 E20.1452
G1 X133.276 Y127.003 E20.16897
G1 X133.584 Y126.471 E20.19453
G1 X133.87 Y125.942 E20.21953
G1 X134.104 Y125.472 E20.24136
G1 X134.348 Y124.946 E20.26547
G1 X134.757 Y123.964 E20.3097
G1 X134.977 Y123.324 E20.33783
G1 X135.15 Y122.78 E20.36156
G1 X135.369 Y121.982 E20.39597
G1 X135.503 Y121.407 E20.42051
G1 X135.618 Y120.838 E20.44465
G1 X135.693 Y120.391 E20.46349
G1 X135.707 Y120.379 E20.46426
G1 X135.795 Y119.693 E20.49301
G1 X135.853 Y119.124 E20.51679
G1 X135.895 Y118.533 E20.54143
G1 X135.92 Y117.952 E20.5656
G1 X135.924 Y117.375 E20.58959
G1 X135.912 Y116.793 E20.61379
G1 X135.89 Y116.378 E20.63107
G1 X135.902 Y116.365 E20.63181
G1 X135.831 Y115.643 E20.66197
G1 X135.762 Y115.057 E20.6865
G1 X135.676 Y114.481 E20.71071
G1 X135.573 Y113.913 E20.73471
G1 X135.449 Y113.345 E20.75888
G1 X135.31 Y112.781 E20.78303
G1 X135.151 Y112.222 E20.8072
G1 X134.944 Y111.566 E20.8358
G1 X134.784 Y111.124 E20.85534
G1 X134.572 Y110.58 E20.87961
G1 X134.348 Y110.05 E20.90353
G1 X134.101 Y109.519 E20.92788
G1 X133.843 Y109.004 E20.95183
G1 X133.545 Y108.456 E20.97776
G1 X133.262 Y107.972 E21.00107
G1 X132.963 Y107.494 E21.02451
G1 X132.815 Y107.275 E21.0355
G1 X102.287 Y107.275 E22.30471
G1 X102.13 Y107.51 E22.31646
G1 X101.826 Y107.996 E22.34029
G1 X101.414 Y108.713 E22.37467
G1 X101.145 Y109.226 E22.39876
G1 X100.892 Y109.747 E22.42284
G1 X100.651 Y110.293 E22.44765
G1 X100.637 Y110.298 E22.44827
G1 X100.335 Y111.081 E22.48316
G1 X100.158 Y111.583 E22.50529
G1 X100.143 Y111.592 E22.50601
G1 X99.963 Y112.184 E22.53174
G1 X99.732 Y113.019 E22.56776
G1 X99.598 Y113.593 E22.59226
G1 X99.483 Y114.162 E22.6164
G1 X99.408 Y114.609 E22.63524
G1 X99.393 Y114.62 E22.63602
G1 X99.307 Y115.307 E22.6648
G1 X99.248 Y115.877 E22.68863
G1 X99.206 Y116.467 E22.71322
G1 X99.181 Y117.048 E22.7374
G1 X99.177 Y117.625 E22.76138
G1 X99.189 Y118.198 E22.78521
G1 X99.212 Y118.622 E22.80287
G1 X99.2 Y118.635 E22.8036
G1 X99.27 Y119.353 E22.83359
G1 X99.337 Y119.934 E22.85791
G1 X99.422 Y120.506 E22.88195
G1 X99.527 Y121.076 E22.90605
G1 X99.649 Y121.645 E22.93024
G1 X99.789 Y122.209 E22.9544
G1 X99.95 Y122.778 E22.97899
G1 X100.124 Y123.323 E23.00277
G1 X100.314 Y123.869 E23.02681
G1 X100.524 Y124.41 E23.05093
G1 X100.752 Y124.945 E23.07511
G1 X100.997 Y125.472 E23.09928
G1 X101.282 Y126.042 E23.12577
G1 X101.553 Y126.54 E23.14934
G1 X101.836 Y127.023 E23.17262
G1 X102.137 Y127.503 E23.19617
G1 X102.287 Y127.725 E23.20731
G0 F6000 X102.075 Y128.125
;TYPE:WALL-OUTER
G1 F1200 X133.027 Y128.124 E24.49414
G1 X133.304 Y127.714 E24.51472
G1 X133.633 Y127.185 E24.54062
G1 X133.936 Y126.662 E24.56575
G1 X134.2 Y126.175 E24.58878
G1 X134.464 Y125.646 E24.61336
G1 X134.714 Y125.107 E24.63806
G1 X135.131 Y124.106 E24.68314
G1 X135.357 Y123.45 E24.71199
G1 X135.534 Y122.894 E24.73625
G1 X135.757 Y122.08 E24.77134
G1 X135.894 Y121.492 E24.79644
G1 X136.012 Y120.911 E24.82109
G1 X136.087 Y120.463 E24.83997
G1 X136.101 Y120.45 E24.84076
G1 X136.193 Y119.738 E24.87061
G1 X136.251 Y119.158 E24.89485
G1 X136.295 Y118.556 E24.91994
G1 X136.32 Y117.962 E24.94466
G1 X136.324 Y117.372 E24.96919
G1 X136.312 Y116.778 E24.99389
G1 X136.29 Y116.36 E25.01129
G1 X136.302 Y116.346 E25.01206
G1 X136.229 Y115.6 E25.04322
G1 X136.158 Y115.004 E25.06818
G1 X136.071 Y114.416 E25.09289
G1 X135.965 Y113.835 E25.11744
G1 X135.839 Y113.254 E25.14216
G1 X135.696 Y112.678 E25.16683
G1 X135.534 Y112.107 E25.19151
G1 X135.323 Y111.438 E25.22067
G1 X135.158 Y110.984 E25.24076
G1 X134.943 Y110.43 E25.26546
G1 X134.714 Y109.888 E25.28992
G1 X134.435 Y109.291 E25.31732
G1 X134.198 Y108.819 E25.33928
G1 X133.891 Y108.254 E25.36601
G1 X133.602 Y107.76 E25.38981
G1 X133.313 Y107.297 E25.4125
G1 X133.027 Y106.875 E25.43369
G1 X102.074 Y106.875 E26.72057
G1 X101.791 Y107.298 E26.74173
G1 X101.483 Y107.79 E26.76586
G1 X101.063 Y108.521 E26.80091
G1 X100.762 Y109.098 E26.82797
G1 X100.529 Y109.579 E26.85019
G1 X100.289 Y110.124 E26.87495
G1 X100.273 Y110.129 E26.87565
G1 X99.959 Y110.943 E26.91192
G1 X99.783 Y111.444 E26.93399
G1 X99.767 Y111.454 E26.93478
G1 X99.579 Y112.072 E26.96164
G1 X99.344 Y112.92 E26.99822
G1 X99.207 Y113.508 E27.02332
G1 X99.089 Y114.089 E27.04797
G1 X99.014 Y114.537 E27.06685
G1 X98.999 Y114.549 E27.06765
G1 X98.909 Y115.261 E27.09749
G1 X98.85 Y115.842 E27.12177
G1 X98.806 Y116.444 E27.14686
G1 X98.781 Y117.038 E27.17158
G1 X98.777 Y117.628 E27.19611
G1 X98.789 Y118.213 E27.22044
G1 X98.812 Y118.64 E27.23822
G1 X98.8 Y118.654 E27.23898
G1 X98.872 Y119.395 E27.26994
G1 X98.941 Y119.986 E27.29467
G1 X99.028 Y120.572 E27.3193
G1 X99.135 Y121.154 E27.34391
G1 X99.259 Y121.735 E27.3686
G1 X99.403 Y122.312 E27.39333
G1 X99.567 Y122.893 E27.41843
G1 X99.744 Y123.45 E27.44273
G1 X99.939 Y124.007 E27.46726
G1 X100.154 Y124.56 E27.49193
G1 X100.386 Y125.107 E27.51663
G1 X100.637 Y125.646 E27.54135
G1 X100.93 Y126.232 E27.56859
G1 X101.207 Y126.741 E27.59268
G1 X101.497 Y127.235 E27.6165
G1 X101.805 Y127.727 E27.64063
G1 X102.075 Y128.125 E27.66063
G0 F6000 X102.481 Y127.365
;TYPE:SKIN
G1 F1200 X102.14 Y126.83 E27.687
G1 X101.91 Y126.445 E27.70565
G1 X101.472 Y125.636 E27.7439
G1 X101.077 Y124.791 E27.78268
G1 X100.827 Y124.196 E27.80951
G1 X100.65 Y123.739 E27.82988
G1 X100.466 Y123.211 E27.85313
G1 X100.265 Y122.565 E27.88126
G1 X100.137 Y122.111 E27.90087
G1 X99.998 Y121.558 E27.92457
G1 X99.879 Y121 E27.94829
