;FLAVOR:Marlin
;TIME:803
;Filament used: 0.504959m
;Layer height: 0.2
;MINX:60.726
;MINY:97.477
;MINZ:0.25
;MAXX:178.368
;MAXY:146.397
;MAXZ:0.65
;Generated with Cura_SteamEngine 5.3.0
M140 S55
M105
M190 S55
M104 S212
M105
M109 S212
M82 ;absolute extrusion mode
START_PRINT
G92 E0
G92 E0
G1 F3000 E-6.5
;LAYER_COUNT:3
;LAYER:0
M107
G0 X76.155 Y99.923 Z0.25
;TYPE:SKIRT
G1 F3000 E0
G1 F600 X76.424 Y99.788 E0.01251
G1 X76.601 Y99.757 E0.01998
G1 X79.983 Y99.935 E0.16079
G1 X83.356 Y99.925 E0.30102
G1 X86.739 Y99.729 E0.4419
G1 X86.985 Y99.773 E0.45229
G1 X87.143 Y99.856 E0.45971
G1 X87.317 Y100.106 E0.47238
G1 X87.372 Y100.277 E0.47985
G1 X88.846 Y117.494 E1.19826
G1 X88.809 Y117.739 E1.20856
G1 X88.676 Y117.956 E1.21915
G1 X88.565 Y118.049 E1.22517
G1 X88.329 Y118.141 E1.2357
G1 X83.875 Y118.378 E1.42114
G1 X79.463 Y118.398 E1.60457
G1 X75.083 Y118.205 E1.78684
G1 X74.843 Y118.135 E1.79724
G1 X74.647 Y117.976 E1.80773
G1 X74.57 Y117.855 E1.81369
G1 X74.508 Y117.606 E1.82436
G1 X75.971 Y100.305 E2.54622
G1 X76.051 Y100.067 E2.55666
G1 X76.155 Y99.923 E2.56404
G0 F3000 X76.419 Y100.224
G1 F600 X76.58 Y100.156 E2.57131
G1 X79.981 Y100.335 E2.7129
G1 X83.362 Y100.325 E2.85347
G1 X86.762 Y100.128 E2.99506
G1 X86.883 Y100.16 E3.00027
G1 X86.973 Y100.311 E3.00757
G1 X88.447 Y117.528 E3.72599
G1 X88.419 Y117.649 E3.73116
G1 X88.308 Y117.742 E3.73718
G1 X83.873 Y117.978 E3.92182
G1 X79.481 Y117.998 E4.10442
G1 X75.101 Y117.805 E4.2867
G1 X74.984 Y117.761 E4.2919
G1 X74.907 Y117.64 E4.29786
G1 X76.37 Y100.339 E5.01972
G1 X76.419 Y100.224 E5.02491
G1 F3000 E-1.47509
G0 X76.447 Y99.684
G0 X103.003 Y99.533
G0 X103.067 Y99.538
G1 F3000 E5.02491
G1 F600 X103.147 Y99.3 E5.03535
G1 X103.251 Y99.156 E5.04274
G1 X103.519 Y99.021 E5.05521
G1 X103.696 Y98.99 E5.06269
G1 X107.077 Y99.167 E5.20344
G1 X110.452 Y99.158 E5.34376
G1 X113.834 Y98.961 E5.48461
G1 X114.08 Y99.005 E5.495
G1 X114.238 Y99.088 E5.50242
G1 X114.412 Y99.338 E5.51508
G1 X114.467 Y99.509 E5.52255
G1 X115.941 Y116.726 E6.24097
G1 X115.904 Y116.971 E6.25127
G1 X115.771 Y117.188 E6.26185
G1 X115.66 Y117.281 E6.26787
G1 X115.424 Y117.373 E6.2784
G1 X110.97 Y117.611 E6.46384
G1 X106.558 Y117.631 E6.64727
G1 X102.179 Y117.438 E6.82951
G1 X101.939 Y117.368 E6.8399
G1 X101.743 Y117.209 E6.85039
G1 X101.666 Y117.088 E6.85635
G1 X101.604 Y116.839 E6.86702
G1 X103.067 Y99.538 E7.58888
G0 F3000 X103.515 Y99.457
G1 F600 X103.675 Y99.389 E7.59611
G1 X107.075 Y99.567 E7.73766
G1 X110.458 Y99.558 E7.87831
G1 X113.857 Y99.36 E8.01986
G1 X113.978 Y99.392 E8.02507
G1 X114.068 Y99.543 E8.03237
G1 X115.542 Y116.76 E8.75079
G1 X115.514 Y116.881 E8.75596
G1 X115.403 Y116.974 E8.76198
G1 X110.968 Y117.211 E8.94663
G1 X106.576 Y117.231 E9.12923
G1 X102.197 Y117.038 E9.31146
G1 X102.08 Y116.994 E9.31666
G1 X102.003 Y116.873 E9.32262
G1 X103.466 Y99.572 E10.04448
G1 X103.515 Y99.457 E10.04968
G1 F3000 E3.54968
G0 X103.543 Y98.917
G0 X130.371 Y98.139
G0 X130.436 Y98.144
G1 F3000 E10.04968
G1 F600 X130.516 Y97.906 E10.06011
G1 X130.62 Y97.762 E10.0675
G1 X130.888 Y97.627 E10.07998
G1 X131.065 Y97.596 E10.08745
G1 X134.446 Y97.773 E10.2282
G1 X137.821 Y97.763 E10.36852
G1 X141.203 Y97.567 E10.50936
G1 X141.449 Y97.611 E10.51975
G1 X141.607 Y97.694 E10.52717
G1 X141.781 Y97.944 E10.53984
G1 X141.836 Y98.115 E10.54731
G1 X143.31 Y115.332 E11.26572
G1 X143.273 Y115.577 E11.27603
G1 X143.14 Y115.794 E11.28661
G1 X143.029 Y115.887 E11.29263
G1 X142.793 Y115.979 E11.30316
G1 X138.339 Y116.216 E11.4886
G1 X133.927 Y116.236 E11.67203
G1 X129.548 Y116.043 E11.85426
G1 X129.308 Y115.973 E11.86466
G1 X129.112 Y115.814 E11.87515
G1 X129.035 Y115.693 E11.88111
G1 X128.973 Y115.444 E11.89178
G1 X130.436 Y98.144 E12.6136
G0 F3000 X130.884 Y98.063
G1 F600 X131.044 Y97.995 E12.62083
G1 X134.444 Y98.173 E12.76237
G1 X137.827 Y98.163 E12.90302
G1 X141.226 Y97.966 E13.04457
G1 X141.347 Y97.998 E13.04978
G1 X141.437 Y98.149 E13.05709
G1 X142.911 Y115.366 E13.7755
G1 X142.883 Y115.487 E13.78067
G1 X142.772 Y115.58 E13.78669
G1 X138.337 Y115.816 E13.97134
G1 X133.945 Y115.836 E14.15394
G1 X129.566 Y115.643 E14.33617
G1 X129.449 Y115.599 E14.34137
G1 X129.372 Y115.478 E14.34733
G1 X130.835 Y98.178 E15.06915
G1 X130.884 Y98.063 E15.07434
G1 F3000 E8.57434
G0 X130.912 Y97.523
G0 X141.835 Y97.477
G0 X155.395 Y98.174
G0 X155.46 Y98.179
G1 F3000 E15.07434
G1 F600 X155.54 Y97.941 E15.08478
G1 X155.644 Y97.797 E15.09217
G1 X155.912 Y97.662 E15.10464
G1 X156.089 Y97.631 E15.11212
G1 X159.471 Y97.808 E15.25291
G1 X162.845 Y97.799 E15.39319
G1 X166.228 Y97.602 E15.53408
G1 X166.474 Y97.646 E15.54447
G1 X166.632 Y97.729 E15.55189
G1 X166.806 Y97.979 E15.56455
G1 X166.861 Y98.15 E15.57202
G1 X168.335 Y115.367 E16.29044
G1 X168.298 Y115.612 E16.30074
G1 X168.165 Y115.829 E16.31132
G1 X168.054 Y115.922 E16.31734
G1 X167.818 Y116.014 E16.32787
G1 X163.364 Y116.252 E16.51331
G1 X158.952 Y116.272 E16.69674
G1 X154.572 Y116.078 E16.87902
G1 X154.332 Y116.008 E16.88941
G1 X154.136 Y115.849 E16.89991
G1 X154.059 Y115.728 E16.90587
G1 X153.997 Y115.479 E16.91654
G1 X155.46 Y98.179 E17.63836
G0 F3000 X155.908 Y98.098
G1 F600 X156.068 Y98.03 E17.64558
G1 X159.469 Y98.208 E17.78717
G1 X162.851 Y98.199 E17.92778
G1 X166.251 Y98.001 E18.06938
G1 X166.372 Y98.033 E18.07458
G1 X166.462 Y98.184 E18.08189
G1 X167.936 Y115.401 E18.80031
G1 X167.908 Y115.522 E18.80547
G1 X167.797 Y115.615 E18.81149
G1 X163.362 Y115.852 E18.99614
G1 X158.97 Y115.872 E19.17874
G1 X154.59 Y115.678 E19.36102
G1 X154.473 Y115.634 E19.36621
G1 X154.396 Y115.513 E19.37218
G1 X155.859 Y98.213 E20.094
G1 X155.908 Y98.098 E20.09919
G1 F3000 E13.59919
G0 X155.405 Y98.056
G0 X151.492 Y127.189
G0 X151.496 Y127.252
G1 F3000 E20.09919
G1 F600 X151.742 Y127.296 E20.10958
G1 X151.9 Y127.379 E20.117
G1 X152.074 Y127.629 E20.12967
G1 X152.129 Y127.8 E20.13713
G1 X153.603 Y145.017 E20.85555
G1 X153.566 Y145.262 E20.86585
G1 X153.433 Y145.479 E20.87643
G1 X153.322 Y145.572 E20.88246
G1 X153.086 Y145.664 E20.89299
G1 X148.632 Y145.902 E21.07843
G1 X144.22 Y145.922 E21.26186
G1 X139.841 Y145.728 E21.44409
G1 X139.601 Y145.658 E21.45449
G1 X139.405 Y145.499 E21.46498
G1 X139.328 Y145.378 E21.47094
G1 X139.266 Y145.129 E21.48161
G1 X140.729 Y127.829 E22.20343
G1 X140.809 Y127.591 E22.21387
G1 X140.913 Y127.447 E22.22125
G1 X141.181 Y127.312 E22.23373
G1 X141.358 Y127.281 E22.2412
G1 X144.739 Y127.458 E22.38196
G1 X148.114 Y127.449 E22.52227
G1 X151.496 Y127.252 E22.66312
G1 F3000 E16.16312
G0 X151.492 Y127.189
G0 X141.205 Y127.208
G0 X141.177 Y127.748
G1 F3000 E22.66312
G1 F600 X141.337 Y127.68 E22.67035
G1 X144.737 Y127.858 E22.8119
G1 X148.12 Y127.849 E22.95255
G1 X151.519 Y127.651 E23.0941
G1 X151.64 Y127.683 E23.0993
G1 X151.73 Y127.834 E23.10661
G1 X153.204 Y145.051 E23.82503
G1 X153.176 Y145.172 E23.83019
G1 X153.065 Y145.265 E23.83621
G1 X148.63 Y145.502 E24.02086
G1 X144.238 Y145.522 E24.20346
G1 X139.859 Y145.328 E24.3857
G1 X139.742 Y145.284 E24.3909
G1 X139.665 Y145.163 E24.39686
G1 X141.128 Y127.863 E25.11868
G1 X141.177 Y127.748 E25.12387
G1 F3000 E18.62387
G0 X140.674 Y127.706
G0 X127.207 Y128.026
G0 X127.144 Y128.032
G1 F3000 E25.12387
G1 F600 X128.618 Y145.249 E25.84229
G1 X128.581 Y145.494 E25.85259
G1 X128.448 Y145.711 E25.86318
G1 X128.337 Y145.804 E25.8692
G1 X128.101 Y145.896 E25.87973
G1 X123.647 Y146.133 E26.06516
G1 X119.235 Y146.153 E26.2486
G1 X114.856 Y145.96 E26.43083
G1 X114.616 Y145.89 E26.44122
G1 X114.42 Y145.731 E26.45172
G1 X114.343 Y145.61 E26.45768
G1 X114.281 Y145.361 E26.46835
G1 X115.744 Y128.06 E27.19021
G1 X115.824 Y127.822 E27.20065
G1 X115.928 Y127.678 E27.20803
G1 X116.196 Y127.543 E27.22051
G1 X116.373 Y127.512 E27.22798
G1 X119.754 Y127.689 E27.36874
G1 X123.129 Y127.68 E27.50905
G1 X126.511 Y127.484 E27.6499
G1 X126.757 Y127.528 E27.66029
G1 X126.915 Y127.611 E27.66771
G1 X127.089 Y127.861 E27.68037
G1 X127.144 Y128.032 E27.68784
G1 F3000 E21.18784
G0 X127.207 Y128.026
G0 X127.143 Y127.394
G0 X116.22 Y127.439
G0 X116.192 Y127.979
G1 F3000 E27.68784
G1 F600 X116.352 Y127.911 E27.69507
G1 X119.752 Y128.089 E27.83661
G1 X123.135 Y128.08 E27.97726
G1 X126.534 Y127.883 E28.11881
G1 X126.655 Y127.915 E28.12402
G1 X126.745 Y128.066 E28.13133
G1 X128.219 Y145.283 E28.84974
G1 X128.191 Y145.404 E28.85491
G1 X128.08 Y145.497 E28.86093
G1 X123.645 Y145.733 E29.04558
G1 X119.253 Y145.753 E29.22818
G1 X114.874 Y145.56 E29.41041
G1 X114.757 Y145.516 E29.41561
G1 X114.68 Y145.395 E29.42157
G1 X116.143 Y128.094 E30.14343
G1 X116.192 Y127.979 E30.14863
G1 F3000 E23.64863
G0 X115.689 Y127.937
G0 X100.001 Y128.269
G0 X99.938 Y128.275
G1 F3000 E30.14863
G1 F600 X101.413 Y145.492 E30.86705
G1 X101.376 Y145.737 E30.87735
G1 X101.243 Y145.954 E30.88793
G1 X101.132 Y146.047 E30.89395
G1 X100.896 Y146.139 E30.90448
G1 X96.441 Y146.377 E31.08996
G1 X92.03 Y146.397 E31.27335
G1 X87.65 Y146.203 E31.45563
G1 X87.41 Y146.133 E31.46602
G1 X87.214 Y145.974 E31.47652
G1 X87.137 Y145.853 E31.48248
G1 X87.075 Y145.604 E31.49315
G1 X88.538 Y128.304 E32.21497
G1 X88.618 Y128.066 E32.22541
G1 X88.722 Y127.922 E32.23279
G1 X88.99 Y127.787 E32.24527
G1 X89.167 Y127.756 E32.25274
G1 X92.548 Y127.933 E32.3935
G1 X95.923 Y127.924 E32.53381
G1 X99.305 Y127.727 E32.67466
G1 X99.551 Y127.771 E32.68505
G1 X99.709 Y127.854 E32.69247
G1 X99.883 Y128.104 E32.70513
G1 X99.938 Y128.275 E32.7126
G1 F3000 E26.2126
G0 X100.001 Y128.269
G0 X99.937 Y127.637
G0 X89.014 Y127.683
G0 X88.986 Y128.223
G1 F3000 E32.7126
G1 F600 X89.146 Y128.155 E32.71983
G1 X92.546 Y128.333 E32.86138
G1 X95.929 Y128.324 E33.00203
G1 X99.328 Y128.126 E33.14358
G1 X99.449 Y128.158 E33.14878
G1 X99.539 Y128.309 E33.15609
G1 X101.014 Y145.526 E33.87451
G1 X100.986 Y145.647 E33.87968
G1 X100.875 Y145.74 E33.8857
G1 X96.439 Y145.977 E34.07039
G1 X92.048 Y145.997 E34.25295
G1 X87.668 Y145.803 E34.43522
G1 X87.551 Y145.759 E34.44042
G1 X87.474 Y145.638 E34.44638
G1 X88.937 Y128.338 E35.1682
G1 X88.986 Y128.223 E35.1734
G1 F3000 E28.6734
G0 X88.483 Y128.181
G0 X73.652 Y127.27
G0 X73.589 Y127.276
G1 F3000 E35.1734
G1 F600 X75.064 Y144.493 E35.89182
G1 X75.027 Y144.738 E35.90212
G1 X74.894 Y144.955 E35.9127
G1 X74.783 Y145.048 E35.91872
G1 X74.547 Y145.14 E35.92925
G1 X70.092 Y145.377 E36.11473
G1 X65.68 Y145.397 E36.29816
G1 X61.301 Y145.204 E36.4804
G1 X61.061 Y145.134 E36.49079
G1 X60.865 Y144.975 E36.50129
G1 X60.788 Y144.854 E36.50725
G1 X60.726 Y144.605 E36.51792
G1 X62.189 Y127.305 E37.23973
G1 X62.269 Y127.067 E37.25017
G1 X62.373 Y126.923 E37.25756
G1 X62.641 Y126.788 E37.27003
G1 X62.818 Y126.757 E37.27751
G1 X66.199 Y126.934 E37.41826
G1 X69.574 Y126.924 E37.55858
G1 X72.956 Y126.728 E37.69942
G1 X73.202 Y126.772 E37.70981
G1 X73.36 Y126.855 E37.71723
G1 X73.534 Y127.105 E37.7299
G1 X73.589 Y127.276 E37.73736
G1 F3000 E31.23736
G0 X73.652 Y127.27
G0 X73.588 Y126.638
G0 X62.665 Y126.684
G0 X62.637 Y127.224
G1 F3000 E37.73736
G1 F600 X62.797 Y127.156 E37.74459
G1 X66.197 Y127.334 E37.88614
G1 X69.58 Y127.324 E38.02679
G1 X72.979 Y127.127 E38.16834
G1 X73.1 Y127.159 E38.17355
G1 X73.19 Y127.31 E38.18085
G1 X74.665 Y144.527 E38.89928
G1 X74.637 Y144.648 E38.90444
G1 X74.526 Y144.741 E38.91046
G1 X70.09 Y144.977 E39.09515
G1 X65.698 Y144.997 E39.27775
G1 X61.319 Y144.804 E39.45998
G1 X61.202 Y144.76 E39.46518
G1 X61.125 Y144.639 E39.47114
G1 X62.588 Y127.339 E40.19296
G1 X62.637 Y127.224 E40.19816
G1 F3000 E33.69816
G0 X62.665 Y126.684
G0 X71.512 Y126.648
G0 X165.429 Y127.235
G0 X165.493 Y127.24
G1 F3000 E40.19816
G1 F600 X165.573 Y127.002 E40.2086
G1 X165.677 Y126.858 E40.21598
G1 X165.946 Y126.723 E40.22849
G1 X166.123 Y126.692 E40.23596
G1 X169.504 Y126.87 E40.37673
G1 X172.878 Y126.86 E40.517
G1 X176.26 Y126.664 E40.65784
G1 X176.506 Y126.708 E40.66823
G1 X176.664 Y126.791 E40.67565
G1 X176.838 Y127.041 E40.68832
G1 X176.893 Y127.212 E40.69578
G1 X178.368 Y144.429 E41.41421
G1 X178.331 Y144.674 E41.42451
G1 X178.198 Y144.891 E41.43509
G1 X178.087 Y144.984 E41.44111
G1 X177.851 Y145.076 E41.45164
G1 X173.396 Y145.313 E41.63712
G1 X168.985 Y145.333 E41.82051
G1 X164.605 Y145.14 E42.00279
G1 X164.365 Y145.07 E42.01318
G1 X164.169 Y144.911 E42.02367
G1 X164.092 Y144.79 E42.02964
G1 X164.03 Y144.541 E42.0403
G1 X165.493 Y127.24 E42.76216
G0 F3000 X165.941 Y127.159
G1 F600 X166.102 Y127.091 E42.76943
G1 X169.502 Y127.27 E42.91098
G1 X172.884 Y127.26 E43.05159
G1 X176.283 Y127.063 E43.19314
G1 X176.404 Y127.095 E43.19834
G1 X176.494 Y127.246 E43.20565
G1 X177.969 Y144.463 E43.92407
G1 X177.941 Y144.584 E43.92924
G1 X177.83 Y144.677 E43.93526
G1 X173.394 Y144.913 E44.11995
G1 X169.003 Y144.933 E44.3025
G1 X164.623 Y144.74 E44.48478
G1 X164.506 Y144.696 E44.48998
G1 X164.429 Y144.575 E44.49594
G1 X165.892 Y127.274 E45.2178
G1 X165.941 Y127.159 E45.223
G1 F3000 E38.723
;MESH:roulette-wheel-33.stl
G0 X165.438 Y127.117
G0 X88.873 Y117.063
G0 X87.799 Y117.155
G0 X86.73 Y116.223
;TYPE:WALL-INNER
G1 F3000 E45.223
G1 F1800 X85.496 Y101.805 E45.82462
G1 X83.463 Y101.923 E45.90928
G1 X79.904 Y101.934 E46.05725
G1 X77.85 Y101.826 E46.14276
G1 X76.628 Y116.271 E46.74546
G1 X79.523 Y116.398 E46.86594
G1 X83.823 Y116.378 E47.04471
G1 X86.73 Y116.223 E47.16574
G0 F3000 X87.163 Y116.6
G1 F1800 X85.861 Y101.383 E47.8007
G1 X83.44 Y101.524 E47.90153
G1 X79.925 Y101.534 E48.04766
G1 X77.484 Y101.406 E48.14929
G1 X76.195 Y116.652 E48.78541
G1 X79.515 Y116.798 E48.92357
G1 X83.835 Y116.778 E49.10318
G1 X87.163 Y116.6 E49.24174
G0 F3000 X87.597 Y116.977
G1 F1800 X86.226 Y100.961 E49.91004
G1 X83.384 Y101.125 E50.02839
G1 X79.946 Y101.135 E50.17133
G1 X77.118 Y100.986 E50.28907
G1 X75.761 Y117.033 E50.9586
G1 X79.507 Y117.198 E51.11449
G1 X83.846 Y117.178 E51.29489
G1 X87.597 Y116.977 E51.45106
G0 F3000 X88.031 Y117.355
;TYPE:WALL-OUTER
G1 F1800 X86.592 Y100.539 E52.15275
G1 X83.383 Y100.725 E52.28639
G1 X79.967 Y100.735 E52.42841
G1 X76.752 Y100.566 E52.56226
G1 X75.327 Y117.415 E53.26526
G1 X79.499 Y117.598 E53.43887
G1 X83.858 Y117.578 E53.6201
G1 X88.031 Y117.355 E53.79384
G0 F3000 X87.739 Y117.103
G0 X86.339 Y115.882
;TYPE:SKIN
G1 F1500 X83.804 Y116.018 E53.89939
G1 X79.536 Y116.038 E54.07683
G1 X77.018 Y115.928 E54.18162
G1 X78.18 Y102.204 E54.75424
G1 X79.893 Y102.294 E54.82555
G1 X83.482 Y102.283 E54.97477
G1 X85.168 Y102.186 E55.04498
G1 X86.339 Y115.882 E55.61647
G0 F3000 X77.281 Y115.182
G1 F1500 X77.862 Y115.763 E55.65063
G0 F3000 X78.454 Y115.789
G1 F1500 X77.324 Y114.66 E55.71704
G0 F3000 X77.369 Y114.139
G1 F1500 X79.046 Y115.815 E55.81561
G0 F3000 X79.632 Y115.836
G1 F1500 X77.413 Y113.617 E55.94608
G0 F3000 X77.457 Y113.096
G1 F1500 X80.195 Y115.833 E56.10704
G0 F3000 X80.758 Y115.831
G1 F1500 X77.501 Y112.574 E56.29854
G0 F3000 X77.546 Y112.053
G1 F1500 X81.321 Y115.828 E56.52049
G0 F3000 X81.885 Y115.826
G1 F1500 X77.59 Y111.531 E56.77302
G0 F3000 X77.634 Y111.01
G1 F1500 X82.447 Y115.823 E57.05601
G0 F3000 X83.01 Y115.82
G1 F1500 X77.678 Y110.488 E57.36951
G0 F3000 X77.723 Y109.967
G1 F1500 X83.573 Y115.817 E57.71347
G0 F3000 X84.12 Y115.799
G1 F1500 X77.766 Y109.445 E58.08706
G0 F3000 X77.811 Y108.924
G1 F1500 X84.657 Y115.77 E58.48958
G0 F3000 X85.194 Y115.741
G1 F1500 X77.855 Y108.402 E58.92108
G0 F3000 X77.899 Y107.88
G1 F1500 X85.731 Y115.712 E59.38157
G0 F3000 X86.107 Y115.523
G1 F1500 X77.943 Y107.359 E59.86158
G0 F3000 X77.987 Y106.837
G1 F1500 X86.054 Y114.904 E60.33589
G0 F3000 X86.001 Y114.286
G1 F1500 X78.032 Y106.316 E60.80447
G0 F3000 X78.075 Y105.794
G1 F1500 X85.949 Y113.668 E61.26743
G0 F3000 X85.896 Y113.049
G1 F1500 X78.12 Y105.273 E61.72463
G0 F3000 X78.164 Y104.751
G1 F1500 X85.843 Y112.43 E62.17612
G0 F3000 X85.79 Y111.811
G1 F1500 X78.208 Y104.23 E62.62189
G0 F3000 X78.252 Y103.708
G1 F1500 X85.737 Y111.193 E63.06198
G0 F3000 X85.685 Y110.575
G1 F1500 X78.297 Y103.187 E63.49636
G0 F3000 X78.341 Y102.665
G1 F1500 X85.632 Y109.956 E63.92505
G0 F3000 X85.579 Y109.337
G1 F1500 X78.671 Y102.43 E64.33118
G0 F3000 X79.268 Y102.461
G1 F1500 X85.525 Y108.719 E64.6991
G0 F3000 X85.472 Y108.1
G1 F1500 X79.865 Y102.493 E65.02877
G0 F3000 X80.43 Y102.492
G1 F1500 X85.419 Y107.481 E65.3221
