;FLAVOR:Marlin
;TIME:880
;Filament used: 0.572599m
;Layer height: 0.2
;MINX:41.442
;MINY:100.535
;MINZ:0.25
;MAXX:161.711
;MAXY:146.395
;MAXZ:0.65
;Generated with Cura_SteamEngine 5.3.0
M140 S55
M105
M190 S55
M104 S212
M105
M109 S212
M82 ;absolute extrusion mode
START_PRINT
G92 E0
G92 E0
G1 F3000 E-6.5
;LAYER_COUNT:3
;LAYER:0
M107
G0 X43.357 Y101.153 Z0.25
;TYPE:SKIRT
G1 F3000 E0
G1 F600 X43.534 Y101.122 E0.00747
G1 X46.916 Y101.299 E0.14827
G1 X50.29 Y101.289 E0.28855
G1 X53.673 Y101.093 E0.42943
G1 X53.919 Y101.137 E0.43982
G1 X54.077 Y101.22 E0.44724
G1 X54.251 Y101.47 E0.4599
G1 X54.306 Y101.641 E0.46737
G1 X55.78 Y118.858 E1.18579
G1 X55.743 Y119.103 E1.19609
G1 X55.61 Y119.32 E1.20667
G1 X55.499 Y119.413 E1.21269
G1 X55.263 Y119.505 E1.22322
G1 X50.809 Y119.742 E1.40866
G1 X46.397 Y119.762 E1.59209
G1 X42.017 Y119.569 E1.77437
G1 X41.777 Y119.499 E1.78476
G1 X41.581 Y119.34 E1.79526
G1 X41.504 Y119.219 E1.80122
G1 X41.442 Y118.97 E1.81189
G1 X42.905 Y101.67 E2.5337
G1 X42.985 Y101.432 E2.54414
G1 X43.089 Y101.288 E2.55153
G1 X43.357 Y101.153 E2.564
G0 F3000 X43.353 Y101.589
G1 F600 X43.513 Y101.521 E2.57123
G1 X46.914 Y101.699 E2.71282
G1 X50.296 Y101.689 E2.85343
G1 X53.696 Y101.492 E2.99502
G1 X53.817 Y101.524 E3.00023
G1 X53.907 Y101.675 E3.00754
G1 X55.381 Y118.892 E3.72595
G1 X55.353 Y119.013 E3.73112
G1 X55.242 Y119.106 E3.73714
G1 X50.807 Y119.342 E3.92178
G1 X46.415 Y119.362 E4.10438
G1 X42.035 Y119.169 E4.28666
G1 X41.918 Y119.125 E4.29186
G1 X41.841 Y119.004 E4.29782
G1 X43.304 Y101.704 E5.01964
G1 X43.353 Y101.589 E5.02484
G1 F3000 E-1.47516
G0 X43.381 Y101.049
G0 X54.305 Y101.003
G0 X68.356 Y101.968
G0 X68.42 Y101.973
G1 F3000 E5.02484
G1 F600 X68.5 Y101.735 E5.03527
G1 X68.604 Y101.591 E5.04266
G1 X68.872 Y101.456 E5.05513
G1 X69.049 Y101.425 E5.06261
G1 X72.43 Y101.602 E5.20336
G1 X75.805 Y101.593 E5.34368
G1 X79.187 Y101.397 E5.48452
G1 X79.433 Y101.441 E5.49491
G1 X79.591 Y101.524 E5.50233
G1 X79.765 Y101.774 E5.515
G1 X79.82 Y101.945 E5.52247
G1 X81.294 Y119.162 E6.24088
G1 X81.257 Y119.407 E6.25118
G1 X81.124 Y119.624 E6.26177
G1 X81.013 Y119.717 E6.26779
G1 X80.777 Y119.809 E6.27832
G1 X76.323 Y120.046 E6.46376
G1 X71.911 Y120.066 E6.64719
G1 X67.532 Y119.873 E6.82942
G1 X67.292 Y119.803 E6.83982
G1 X67.096 Y119.644 E6.85031
G1 X67.019 Y119.523 E6.85627
G1 X66.957 Y119.274 E6.86694
G1 X68.42 Y101.973 E7.5888
G0 F3000 X68.868 Y101.892
G1 F600 X69.028 Y101.824 E7.59603
G1 X72.428 Y102.002 E7.73758
G1 X75.811 Y101.993 E7.87822
G1 X79.21 Y101.796 E8.01978
G1 X79.331 Y101.828 E8.02498
G1 X79.421 Y101.979 E8.03229
G1 X80.895 Y119.196 E8.75071
G1 X80.867 Y119.317 E8.75587
G1 X80.756 Y119.41 E8.76189
G1 X76.321 Y119.646 E8.94654
G1 X71.929 Y119.666 E9.12914
G1 X67.55 Y119.473 E9.31137
G1 X67.433 Y119.429 E9.31657
G1 X67.356 Y119.308 E9.32253
G1 X68.819 Y102.007 E10.04439
G1 X68.868 Y101.892 E10.04959
G1 F3000 E3.54959
G0 X68.896 Y101.352
G0 X90.315 Y101.197
G0 X90.379 Y101.202
G1 F3000 E10.04959
G1 F600 X90.459 Y100.964 E10.06003
G1 X90.563 Y100.82 E10.06741
G1 X90.831 Y100.685 E10.07989
G1 X91.008 Y100.654 E10.08736
G1 X94.389 Y100.831 E10.22812
G1 X97.764 Y100.822 E10.36843
G1 X101.146 Y100.625 E10.50928
G1 X101.392 Y100.669 E10.51967
G1 X101.55 Y100.752 E10.52709
G1 X101.724 Y101.002 E10.53975
G1 X101.779 Y101.173 E10.54722
G1 X103.253 Y118.39 E11.26564
G1 X103.216 Y118.635 E11.27594
G1 X103.083 Y118.852 E11.28652
G1 X102.972 Y118.945 E11.29254
G1 X102.736 Y119.037 E11.30307
G1 X98.282 Y119.275 E11.48851
G1 X93.87 Y119.295 E11.67194
G1 X89.491 Y119.102 E11.85418
G1 X89.251 Y119.032 E11.86457
G1 X89.055 Y118.873 E11.87506
G1 X88.978 Y118.752 E11.88103
G1 X88.916 Y118.503 E11.8917
G1 X90.379 Y101.202 E12.61355
G0 F3000 X90.827 Y101.121
G1 F600 X90.987 Y101.053 E12.62078
G1 X94.387 Y101.231 E12.76233
G1 X97.77 Y101.222 E12.90298
G1 X101.169 Y101.024 E13.04453
G1 X101.29 Y101.056 E13.04974
G1 X101.38 Y101.207 E13.05705
G1 X102.854 Y118.424 E13.77546
G1 X102.826 Y118.545 E13.78063
G1 X102.715 Y118.638 E13.78665
G1 X98.28 Y118.875 E13.9713
G1 X93.888 Y118.895 E14.1539
G1 X89.509 Y118.702 E14.33613
G1 X89.392 Y118.658 E14.34133
G1 X89.315 Y118.537 E14.34729
G1 X90.778 Y101.236 E15.06915
G1 X90.827 Y101.121 E15.07435
G1 F3000 E8.57435
G0 X90.855 Y100.581
G0 X101.778 Y100.535
G0 X114.257 Y101.834
G0 X114.322 Y101.839
G1 F3000 E15.07435
G1 F600 X114.402 Y101.601 E15.08479
G1 X114.506 Y101.457 E15.09217
G1 X114.774 Y101.322 E15.10465
G1 X114.951 Y101.291 E15.11212
G1 X118.333 Y101.468 E15.25292
G1 X121.707 Y101.459 E15.39319
G1 X125.09 Y101.262 E15.53408
G1 X125.336 Y101.306 E15.54447
G1 X125.494 Y101.389 E15.55189
G1 X125.668 Y101.639 E15.56455
G1 X125.723 Y101.81 E15.57202
G1 X127.197 Y119.027 E16.29044
G1 X127.16 Y119.272 E16.30074
G1 X127.027 Y119.489 E16.31132
G1 X126.916 Y119.582 E16.31734
G1 X126.68 Y119.674 E16.32787
G1 X122.225 Y119.912 E16.51336
G1 X117.814 Y119.932 E16.69675
G1 X113.434 Y119.738 E16.87902
G1 X113.194 Y119.668 E16.88942
G1 X112.998 Y119.509 E16.89991
G1 X112.921 Y119.388 E16.90587
G1 X112.859 Y119.139 E16.91654
G1 X114.322 Y101.839 E17.63836
G0 F3000 X114.77 Y101.758
G1 F600 X114.93 Y101.69 E17.64559
G1 X118.331 Y101.868 E17.78718
G1 X121.713 Y101.859 E17.92779
G1 X125.113 Y101.661 E18.06938
G1 X125.234 Y101.693 E18.07458
G1 X125.324 Y101.844 E18.08189
G1 X126.798 Y119.061 E18.80031
G1 X126.77 Y119.182 E18.80547
G1 X126.659 Y119.275 E18.81149
G1 X122.223 Y119.512 E18.99618
G1 X117.832 Y119.532 E19.17874
G1 X113.452 Y119.338 E19.36102
G1 X113.335 Y119.294 E19.36622
G1 X113.258 Y119.173 E19.37218
G1 X114.721 Y101.873 E20.094
G1 X114.77 Y101.758 E20.0992
G1 F3000 E13.5992
G0 X114.798 Y101.218
G0 X125.722 Y101.172
G0 X137.866 Y101.647
G0 X137.93 Y101.652
G1 F3000 E20.0992
G1 F600 X138.01 Y101.414 E20.10963
G1 X138.114 Y101.27 E20.11702
G1 X138.382 Y101.135 E20.1295
G1 X138.559 Y101.104 E20.13697
G1 X141.94 Y101.281 E20.27772
G1 X145.315 Y101.272 E20.41804
G1 X148.697 Y101.075 E20.55889
G1 X148.943 Y101.119 E20.56928
G1 X149.101 Y101.202 E20.5767
G1 X149.275 Y101.452 E20.58936
G1 X149.33 Y101.623 E20.59683
G1 X150.805 Y118.84 E21.31525
G1 X150.768 Y119.085 E21.32555
G1 X150.635 Y119.302 E21.33613
G1 X150.524 Y119.395 E21.34215
G1 X150.288 Y119.487 E21.35268
G1 X145.833 Y119.725 E21.53817
G1 X141.421 Y119.745 E21.7216
G1 X137.042 Y119.552 E21.90383
G1 X136.802 Y119.482 E21.91423
G1 X136.606 Y119.323 E21.92472
G1 X136.529 Y119.202 E21.93068
G1 X136.467 Y118.953 E21.94135
G1 X137.93 Y101.652 E22.66321
G0 F3000 X138.378 Y101.571
G1 F600 X138.538 Y101.503 E22.67044
G1 X141.938 Y101.681 E22.81199
G1 X145.321 Y101.672 E22.95263
G1 X148.72 Y101.474 E23.09419
G1 X148.841 Y101.506 E23.09939
G1 X148.931 Y101.657 E23.1067
G1 X150.406 Y118.874 E23.82512
G1 X150.378 Y118.995 E23.83029
G1 X150.267 Y119.088 E23.83631
G1 X145.831 Y119.325 E24.021
G1 X141.439 Y119.345 E24.2036
G1 X137.06 Y119.152 E24.38583
G1 X136.943 Y119.108 E24.39103
G1 X136.866 Y118.987 E24.39699
G1 X138.329 Y101.686 E25.11885
G1 X138.378 Y101.571 E25.12405
G1 F3000 E18.62405
G0 X137.875 Y101.529
G0 X136.361 Y119.574
G0 X136.216 Y127.122
G0 X136.22 Y127.185
G1 F3000 E25.12405
G1 F600 X136.466 Y127.229 E25.13444
G1 X136.624 Y127.312 E25.14186
G1 X136.798 Y127.562 E25.15452
G1 X136.853 Y127.733 E25.16199
G1 X138.327 Y144.95 E25.88041
G1 X138.29 Y145.195 E25.89071
G1 X138.157 Y145.412 E25.90129
G1 X138.046 Y145.505 E25.90731
G1 X137.81 Y145.597 E25.91784
G1 X133.355 Y145.834 E26.10332
G1 X128.944 Y145.854 E26.28671
G1 X124.564 Y145.661 E26.46899
G1 X124.324 Y145.591 E26.47938
G1 X124.128 Y145.432 E26.48987
G1 X124.051 Y145.311 E26.49584
G1 X123.989 Y145.062 E26.5065
G1 X125.452 Y127.761 E27.22836
G1 X125.532 Y127.523 E27.2388
G1 X125.636 Y127.379 E27.24619
G1 X125.904 Y127.244 E27.25866
G1 X126.081 Y127.213 E27.26613
G1 X129.463 Y127.39 E27.40693
G1 X132.837 Y127.381 E27.54721
G1 X136.22 Y127.185 E27.68809
G1 F3000 E21.18809
G0 X136.216 Y127.122
G0 X125.928 Y127.14
G0 X125.9 Y127.68
G1 F3000 E27.68809
G1 F600 X126.06 Y127.612 E27.69532
G1 X129.461 Y127.79 E27.83691
G1 X132.843 Y127.781 E27.97752
G1 X136.243 Y127.584 E28.11911
G1 X136.364 Y127.616 E28.12431
G1 X136.454 Y127.767 E28.13162
G1 X137.928 Y144.984 E28.85004
G1 X137.9 Y145.105 E28.85521
G1 X137.789 Y145.198 E28.86123
G1 X133.353 Y145.434 E29.04591
G1 X128.962 Y145.454 E29.22847
G1 X124.582 Y145.261 E29.41075
G1 X124.465 Y145.217 E29.41595
G1 X124.388 Y145.096 E29.42191
G1 X125.851 Y127.795 E30.14377
G1 X125.9 Y127.68 E30.14896
G1 F3000 E23.64896
G0 X125.397 Y127.638
G0 X112.192 Y127.884
G0 X112.129 Y127.89
G1 F3000 E30.14896
G1 F600 X113.603 Y145.107 E30.86738
G1 X113.566 Y145.352 E30.87768
G1 X113.433 Y145.569 E30.88827
G1 X113.322 Y145.662 E30.89429
G1 X113.086 Y145.754 E30.90482
G1 X108.632 Y145.991 E31.09025
G1 X104.22 Y146.011 E31.27369
G1 X99.841 Y145.818 E31.45592
G1 X99.601 Y145.748 E31.46631
G1 X99.405 Y145.589 E31.47681
G1 X99.328 Y145.468 E31.48277
G1 X99.266 Y145.219 E31.49344
G1 X100.729 Y127.918 E32.2153
G1 X100.809 Y127.68 E32.22574
G1 X100.913 Y127.536 E32.23312
G1 X101.181 Y127.401 E32.2456
G1 X101.358 Y127.37 E32.25307
G1 X104.739 Y127.547 E32.39383
G1 X108.114 Y127.538 E32.53414
G1 X111.496 Y127.342 E32.67499
G1 X111.742 Y127.386 E32.68538
G1 X111.9 Y127.469 E32.6928
G1 X112.074 Y127.719 E32.70546
G1 X112.129 Y127.89 E32.71293
G1 F3000 E26.21293
G0 X112.192 Y127.884
G0 X112.128 Y127.252
G0 X101.205 Y127.297
G0 X101.177 Y127.837
G1 F3000 E32.71293
G1 F600 X101.337 Y127.769 E32.72016
G1 X104.737 Y127.947 E32.8617
G1 X108.12 Y127.938 E33.00235
G1 X111.519 Y127.741 E33.1439
G1 X111.64 Y127.773 E33.14911
G1 X111.73 Y127.924 E33.15642
G1 X113.204 Y145.141 E33.87483
G1 X113.176 Y145.262 E33.88
G1 X113.065 Y145.355 E33.88602
G1 X108.63 Y145.591 E34.07067
G1 X104.238 Y145.611 E34.25327
G1 X99.859 Y145.418 E34.4355
G1 X99.742 Y145.374 E34.4407
G1 X99.665 Y145.253 E34.44666
G1 X101.128 Y127.952 E35.16852
G1 X101.177 Y127.837 E35.17372
G1 F3000 E28.67372
G0 X100.674 Y127.795
G0 X90.359 Y128.268
G0 X90.296 Y128.274
G1 F3000 E35.17372
G1 F600 X91.771 Y145.491 E35.89214
G1 X91.734 Y145.736 E35.90244
G1 X91.601 Y145.953 E35.91302
G1 X91.49 Y146.046 E35.91904
G1 X91.254 Y146.138 E35.92957
G1 X86.799 Y146.375 E36.11505
G1 X82.388 Y146.395 E36.29844
G1 X78.008 Y146.202 E36.48072
G1 X77.768 Y146.132 E36.49111
G1 X77.572 Y145.973 E36.5016
G1 X77.495 Y145.852 E36.50757
G1 X77.433 Y145.603 E36.51823
G1 X78.896 Y128.302 E37.24009
G1 X78.976 Y128.064 E37.25053
G1 X79.08 Y127.92 E37.25792
G1 X79.348 Y127.785 E37.27039
G1 X79.525 Y127.754 E37.27786
G1 X82.906 Y127.931 E37.41862
G1 X86.281 Y127.922 E37.55894
G1 X89.663 Y127.726 E37.69978
G1 X89.909 Y127.77 E37.71017
G1 X90.067 Y127.853 E37.71759
G1 X90.241 Y128.103 E37.73026
G1 X90.296 Y128.274 E37.73772
G1 F3000 E31.23772
G0 X90.359 Y128.268
G0 X90.295 Y127.636
G0 X79.372 Y127.681
G0 X79.344 Y128.221
G1 F3000 E37.73772
G1 F600 X79.504 Y128.153 E37.74495
G1 X82.904 Y128.331 E37.8865
G1 X86.287 Y128.322 E38.02715
G1 X89.686 Y128.125 E38.1687
G1 X89.807 Y128.157 E38.1739
G1 X89.897 Y128.308 E38.18121
G1 X91.372 Y145.525 E38.89963
G1 X91.344 Y145.646 E38.9048
G1 X91.233 Y145.739 E38.91082
G1 X86.797 Y145.975 E39.09551
G1 X82.406 Y145.995 E39.27807
G1 X78.026 Y145.802 E39.46034
G1 X77.909 Y145.758 E39.46554
G1 X77.832 Y145.637 E39.4715
G1 X79.295 Y128.336 E40.19336
G1 X79.344 Y128.221 E40.19856
G1 F3000 E33.69856
G0 X78.841 Y128.179
G0 X68.554 Y128.17
G0 X68.491 Y128.176
G1 F3000 E40.19856
G1 F600 X69.966 Y145.393 E40.91698
G1 X69.929 Y145.638 E40.92728
G1 X69.796 Y145.855 E40.93786
G1 X69.685 Y145.948 E40.94388
G1 X69.449 Y146.04 E40.95441
G1 X64.994 Y146.277 E41.13989
G1 X60.582 Y146.298 E41.32332
G1 X56.203 Y146.104 E41.50556
G1 X55.963 Y146.034 E41.51595
G1 X55.767 Y145.875 E41.52645
G1 X55.69 Y145.754 E41.53241
G1 X55.628 Y145.505 E41.54308
G1 X57.091 Y128.205 E42.2649
G1 X57.171 Y127.967 E42.27534
G1 X57.275 Y127.823 E42.28272
G1 X57.543 Y127.688 E42.2952
G1 X57.72 Y127.657 E42.30267
G1 X61.101 Y127.834 E42.44343
G1 X64.476 Y127.824 E42.58374
G1 X67.858 Y127.628 E42.72459
G1 X68.104 Y127.672 E42.73497
G1 X68.262 Y127.755 E42.74239
G1 X68.436 Y128.005 E42.75506
G1 X68.491 Y128.176 E42.76253
G1 F3000 E36.26253
G0 X68.554 Y128.17
G0 X68.49 Y127.538
G0 X57.567 Y127.584
G0 X57.539 Y128.124
G1 F3000 E42.76253
G1 F600 X57.699 Y128.056 E42.76975
G1 X61.099 Y128.234 E42.9113
G1 X64.482 Y128.224 E43.05195
G1 X67.881 Y128.027 E43.1935
G1 X68.002 Y128.059 E43.19871
G1 X68.092 Y128.21 E43.20602
G1 X69.567 Y145.427 E43.92444
G1 X69.539 Y145.548 E43.9296
G1 X69.428 Y145.641 E43.93562
G1 X64.992 Y145.877 E44.12031
G1 X60.6 Y145.898 E44.30291
G1 X56.221 Y145.704 E44.48515
G1 X56.104 Y145.66 E44.49034
G1 X56.027 Y145.539 E44.49631
G1 X57.49 Y128.239 E45.21812
G1 X57.539 Y128.124 E45.22332
G1 F3000 E38.72332
G0 X57.567 Y127.584
G0 X125.452 Y127.126
G0 X134.686 Y127.102
G0 X148.773 Y127.19
G0 X148.837 Y127.195
G1 F3000 E45.22332
G1 F600 X148.917 Y126.957 E45.23376
G1 X149.021 Y126.813 E45.24114
G1 X149.289 Y126.678 E45.25362
G1 X149.466 Y126.647 E45.26109
G1 X152.847 Y126.824 E45.40185
G1 X156.222 Y126.815 E45.54217
G1 X159.604 Y126.619 E45.68301
G1 X159.85 Y126.663 E45.6934
G1 X160.008 Y126.746 E45.70082
G1 X160.182 Y126.996 E45.71348
G1 X160.237 Y127.167 E45.72095
G1 X161.711 Y144.384 E46.43937
G1 X161.674 Y144.629 E46.44967
G1 X161.541 Y144.846 E46.46025
G1 X161.43 Y144.939 E46.46627
G1 X161.194 Y145.031 E46.4768
G1 X156.74 Y145.268 E46.66224
G1 X152.328 Y145.288 E46.84567
G1 X147.949 Y145.095 E47.02791
G1 X147.709 Y145.025 E47.0383
G1 X147.513 Y144.866 E47.04879
G1 X147.436 Y144.745 E47.05476
G1 X147.374 Y144.496 E47.06542
G1 X148.837 Y127.195 E47.78728
G0 F3000 X149.285 Y127.114
G1 F600 X149.445 Y127.046 E47.79451
G1 X152.845 Y127.224 E47.93606
G1 X156.228 Y127.215 E48.07671
G1 X159.627 Y127.018 E48.21826
G1 X159.748 Y127.05 E48.22346
G1 X159.838 Y127.201 E48.23077
G1 X161.312 Y144.418 E48.94919
G1 X161.284 Y144.539 E48.95435
G1 X161.173 Y144.632 E48.96038
G1 X156.738 Y144.868 E49.14502
G1 X152.346 Y144.888 E49.32762
G1 X147.967 Y144.695 E49.50986
G1 X147.85 Y144.651 E49.51505
G1 X147.773 Y144.53 E49.52102
G1 X149.236 Y127.229 E50.24288
G1 X149.285 Y127.114 E50.24807
G1 F3000 E43.74807
;MESH:roulette-wheel-11.stl
G0 X148.782 Y127.072
G0 X66.851 Y119.895
G0 X55.807 Y118.427
G0 X54.733 Y118.519
G0 X53.664 Y117.587
;TYPE:WALL-INNER
G1 F3000 E50.24807
G1 F1800 X52.43 Y103.169 E50.84969
G1 X50.397 Y103.287 E50.93436
G1 X46.838 Y103.298 E51.08233
G1 X44.784 Y103.191 E51.16784
G1 X43.562 Y117.635 E51.77049
G1 X46.457 Y117.762 E51.89097
G1 X50.757 Y117.742 E52.06975
G1 X53.664 Y117.587 E52.19078
G0 F3000 X54.097 Y117.964
G1 F1800 X52.795 Y102.747 E52.82574
G1 X50.374 Y102.888 E52.92656
G1 X46.859 Y102.898 E53.0727
G1 X44.418 Y102.771 E53.17432
G1 X43.129 Y118.016 E53.8104
G1 X46.449 Y118.162 E53.94856
G1 X50.769 Y118.142 E54.12817
G1 X54.097 Y117.964 E54.26673
G0 F3000 X54.531 Y118.341
G1 F1800 X53.16 Y102.325 E54.93503
G1 X50.318 Y102.489 E55.05338
G1 X46.88 Y102.499 E55.19632
G1 X44.052 Y102.351 E55.31405
G1 X42.695 Y118.397 E55.98355
G1 X46.441 Y118.562 E56.13944
G1 X50.78 Y118.542 E56.31984
G1 X54.531 Y118.341 E56.47601
G0 F3000 X54.965 Y118.719
;TYPE:WALL-OUTER
G1 F1800 X53.526 Y101.903 E57.17769
G1 X50.317 Y102.089 E57.31133
G1 X46.901 Y102.099 E57.45335
G1 X43.686 Y101.931 E57.5872
G1 X42.261 Y118.779 E58.29016
G1 X46.433 Y118.962 E58.46378
G1 X50.792 Y118.942 E58.64501
G1 X54.965 Y118.719 E58.81875
G0 F3000 X54.673 Y118.467
G0 X53.273 Y117.246
;TYPE:SKIN
G1 F1500 X50.738 Y117.382 E58.92429
G1 X46.47 Y117.402 E59.10174
G1 X43.952 Y117.292 E59.20652
G1 X45.114 Y103.568 E59.77914
G1 X46.827 Y103.658 E59.85046
G1 X50.416 Y103.647 E59.99967
G1 X52.102 Y103.55 E60.06988
G1 X53.273 Y117.246 E60.64137
G0 F3000 X44.209 Y116.617
G1 F1500 X44.716 Y117.123 E60.67115
G0 F3000 X45.307 Y117.149
G1 F1500 X44.254 Y116.096 E60.73307
G0 F3000 X44.298 Y115.574
G1 F1500 X45.899 Y117.176 E60.82723
G0 F3000 X46.49 Y117.2
G1 F1500 X44.341 Y115.052 E60.95355
G0 F3000 X44.386 Y114.531
G1 F1500 X47.053 Y117.198 E61.11036
G0 F3000 X47.616 Y117.195
