;FLAVOR:Marlin
;TIME:1982
;Filament used: 1.14625m
;Layer height: 0.2
;MINX:94.2
;MINY:103.7
;MINZ:0.25
;MAXX:140.8
;MAXY:131.3
;MAXZ:21.05
;Generated with Cura_SteamEngine 5.3.0
M140 S55
M105
M190 S55
M104 S212
M105
M109 S212
M82 ;absolute extrusion mode
START_PRINT
G92 E0
G92 E0
G1 F3000 E-6.5
;LAYER_COUNT:105
;LAYER:0
M107
G0 X97.294 Y105.25 Z0.25
;TYPE:SKIRT
G1 F3000 E0
G1 F600 X99.166 Y104.138 E0.09052
G1 X101.353 Y103.7 E0.18325
G1 X114.747 Y103.7 E0.74011
G1 X116.649 Y104.166 E0.82153
G1 X117.493 Y104.606 E0.8611
G1 X118.287 Y104.135 E0.89948
G1 X120.459 Y103.7 E0.99158
G1 X133.853 Y103.7 E1.54843
G1 X135.749 Y104.166 E1.62961
G1 X137.776 Y105.219 E1.72457
G1 X139.25 Y106.794 E1.81426
G1 X140.362 Y108.666 E1.90478
G1 X140.8 Y110.853 E1.99751
G1 X140.8 Y124.353 E2.55877
G1 X140.334 Y126.249 E2.63995
G1 X139.281 Y128.276 E2.73491
G1 X137.706 Y129.75 E2.8246
G1 X135.834 Y130.862 E2.91512
G1 X133.647 Y131.3 E3.00785
G1 X120.249 Y131.3 E3.56488
G1 X118.353 Y130.836 E3.64603
G1 X117.508 Y130.394 E3.68568
G1 X116.714 Y130.865 E3.72406
G1 X114.542 Y131.3 E3.81615
G1 X101.147 Y131.3 E4.37305
G1 X99.251 Y130.834 E4.45422
G1 X97.224 Y129.781 E4.54919
G1 X95.75 Y128.206 E4.63887
G1 X94.638 Y126.334 E4.7294
G1 X94.2 Y124.147 E4.82213
G1 X94.2 Y110.647 E5.38339
G1 X94.666 Y108.751 E5.46457
G1 X95.719 Y106.724 E5.55953
G1 X97.294 Y105.25 E5.64921
G0 F3000 X97.535 Y105.572
G1 F600 X96.042 Y106.969 E5.73422
G1 X95.042 Y108.894 E5.82441
G1 X94.6 Y110.693 E5.90143
G1 X94.6 Y124.109 E6.4592
G1 X95.016 Y126.188 E6.54735
G1 X96.072 Y127.965 E6.63329
G1 X97.469 Y129.458 E6.71829
G1 X99.394 Y130.458 E6.80848
G1 X101.193 Y130.9 E6.8855
G1 X114.504 Y130.9 E7.43891
G1 X116.568 Y130.487 E7.52642
G1 X117.496 Y129.936 E7.57129
G1 X118.495 Y130.458 E7.61815
G1 X120.299 Y130.9 E7.69537
G1 X133.609 Y130.9 E8.24874
G1 X135.688 Y130.484 E8.33688
G1 X137.465 Y129.428 E8.42282
G1 X138.958 Y128.031 E8.50783
G1 X139.958 Y126.106 E8.59802
G1 X140.4 Y124.307 E8.67504
G1 X140.4 Y110.891 E9.23281
G1 X139.984 Y108.812 E9.32096
G1 X138.928 Y107.035 E9.4069
G1 X137.531 Y105.542 E9.4919
G1 X135.606 Y104.542 E9.58209
G1 X133.807 Y104.1 E9.65911
G1 X120.497 Y104.1 E10.21247
G1 X118.433 Y104.513 E10.29999
G1 X117.505 Y105.064 E10.34486
G1 X116.504 Y104.542 E10.39179
G1 X114.701 Y104.1 E10.46897
G1 X101.391 Y104.1 E11.02234
G1 X99.312 Y104.516 E11.11048
G1 X97.535 Y105.572 E11.19642
G0 F3000 X97.776 Y105.894
G1 F600 X99.458 Y104.895 E11.27776
G1 X101.43 Y104.5 E11.36137
G1 X114.655 Y104.5 E11.9112
G1 X116.359 Y104.918 E11.98415
G1 X117.476 Y105.501 E12.03653
G1 X117.553 Y105.501 E12.03973
G1 X118.579 Y104.892 E12.08934
G1 X120.536 Y104.5 E12.17232
G1 X133.76 Y104.5 E12.72211
G1 X135.464 Y104.919 E12.79506
G1 X137.286 Y105.865 E12.88041
G1 X138.606 Y107.276 E12.96074
G1 X139.605 Y108.958 E13.04208
G1 X140 Y110.93 E13.12569
G1 X140 Y124.26 E13.67989
G1 X139.581 Y125.964 E13.75284
G1 X138.635 Y127.786 E13.8382
G1 X137.224 Y129.106 E13.91853
G1 X135.542 Y130.105 E13.99986
G1 X133.57 Y130.5 E14.08348
G1 X120.345 Y130.5 E14.63331
G1 X118.641 Y130.082 E14.70625
G1 X117.524 Y129.499 E14.75864
G1 X117.448 Y129.499 E14.7618
G1 X116.422 Y130.108 E14.8114
G1 X114.465 Y130.5 E14.89438
G1 X101.24 Y130.5 E15.44421
G1 X99.536 Y130.081 E15.51717
G1 X97.714 Y129.135 E15.60252
G1 X96.394 Y127.724 E15.68285
G1 X95.395 Y126.042 E15.76418
G1 X95 Y124.07 E15.8478
G1 X95 Y110.74 E16.40199
G1 X95.419 Y109.036 E16.47495
G1 X96.365 Y107.214 E16.5603
G1 X97.776 Y105.894 E16.64063
G0 F3000 X98.017 Y106.216
G1 F600 X99.604 Y105.273 E16.71738
G1 X101.468 Y104.9 E16.79641
G1 X114.605 Y104.9 E17.34258
G1 X116.221 Y105.296 E17.41176
G1 X117.38 Y105.902 E17.46613
G1 X117.664 Y105.9 E17.47794
G1 X118.725 Y105.27 E17.52924
G1 X120.574 Y104.9 E17.60764
G1 X133.714 Y104.9 E18.15394
G1 X135.321 Y105.295 E18.22274
G1 X137.041 Y106.188 E18.30331
G1 X138.284 Y107.517 E18.37896
G1 X139.227 Y109.104 E18.45571
G1 X139.6 Y110.968 E18.53474
G1 X139.6 Y124.214 E19.08545
G1 X139.205 Y125.821 E19.15425
G1 X138.312 Y127.541 E19.23482
G1 X136.983 Y128.784 E19.31048
G1 X135.396 Y129.727 E19.38722
G1 X133.532 Y130.1 E19.46626
G1 X120.395 Y130.1 E20.01243
G1 X118.779 Y129.704 E20.0816
G1 X117.62 Y129.098 E20.13598
G1 X117.337 Y129.1 E20.14774
G1 X116.276 Y129.73 E20.19905
G1 X114.427 Y130.1 E20.27744
G1 X101.286 Y130.1 E20.82378
G1 X99.679 Y129.705 E20.89258
G1 X97.959 Y128.812 E20.97315
G1 X96.716 Y127.483 E21.04881
G1 X95.773 Y125.896 E21.12556
G1 X95.4 Y124.032 E21.20459
G1 X95.4 Y110.786 E21.75529
G1 X95.795 Y109.179 E21.82409
G1 X96.688 Y107.459 E21.90467
G1 X98.017 Y106.216 E21.98032
G0 F3000 X98.258 Y106.538
G1 F600 X97.011 Y107.704 E22.0513
G1 X96.171 Y109.322 E22.12709
G1 X95.8 Y110.832 E22.19174
G1 X95.8 Y123.994 E22.73895
G1 X96.151 Y125.75 E22.8134
G1 X97.038 Y127.242 E22.88556
G1 X98.204 Y128.489 E22.95654
G1 X99.822 Y129.329 E23.03234
G1 X101.332 Y129.7 E23.09698
G1 X114.388 Y129.7 E23.63979
G1 X116.13 Y129.351 E23.71365
G1 X117.227 Y128.7 E23.76668
G1 X117.718 Y128.698 E23.7871
G1 X118.925 Y129.328 E23.8437
G1 X120.441 Y129.7 E23.9086
G1 X133.494 Y129.7 E24.45128
G1 X135.25 Y129.349 E24.52573
G1 X136.742 Y128.462 E24.5979
G1 X137.989 Y127.296 E24.66887
G1 X138.829 Y125.678 E24.74467
G1 X139.2 Y124.168 E24.80931
G1 X139.2 Y111.006 E25.35653
G1 X138.849 Y109.25 E25.43098
G1 X137.962 Y107.758 E25.50314
G1 X136.796 Y106.511 E25.57412
G1 X135.178 Y105.671 E25.64991
G1 X133.668 Y105.3 E25.71456
G1 X120.613 Y105.3 E26.25732
G1 X118.871 Y105.649 E26.33118
G1 X117.774 Y106.3 E26.38422
G1 X117.282 Y106.302 E26.40467
G1 X116.075 Y105.672 E26.46128
G1 X114.559 Y105.3 E26.52618
G1 X101.506 Y105.3 E27.06886
G1 X99.75 Y105.651 E27.14331
G1 X98.258 Y106.538 E27.21547
G0 F3000 X98.499 Y106.86
G1 F600 X97.334 Y107.949 E27.28177
G1 X96.548 Y109.464 E27.35273
G1 X96.2 Y110.879 E27.41331
G1 X96.2 Y123.956 E27.95699
G1 X96.529 Y125.604 E28.02686
G1 X97.36 Y127.001 E28.09444
G1 X98.449 Y128.166 E28.16074
G1 X99.964 Y128.952 E28.2317
G1 X101.379 Y129.3 E28.29228
G1 X114.35 Y129.3 E28.83155
G1 X115.984 Y128.973 E28.90083
G1 X117.117 Y128.3 E28.95562
G1 X117.816 Y128.298 E28.98468
G1 X119.071 Y128.952 E29.04352
G1 X120.487 Y129.3 E29.10414
G1 X133.456 Y129.3 E29.64333
G1 X135.104 Y128.971 E29.7132
G1 X136.501 Y128.14 E29.78078
G1 X137.666 Y127.051 E29.84708
G1 X138.452 Y125.536 E29.91804
G1 X138.8 Y124.121 E29.97862
G1 X138.8 Y111.044 E30.5223
G1 X138.471 Y109.396 E30.59216
G1 X137.64 Y107.999 E30.65974
G1 X136.551 Y106.834 E30.72604
G1 X135.036 Y106.048 E30.797
G1 X133.621 Y105.7 E30.85758
G1 X120.651 Y105.7 E31.39681
G1 X119.017 Y106.027 E31.4661
G1 X117.884 Y106.7 E31.52088
G1 X117.184 Y106.702 E31.54999
G1 X115.929 Y106.048 E31.60882
G1 X114.513 Y105.7 E31.66944
G1 X101.544 Y105.7 E32.20863
G1 X99.896 Y106.029 E32.2785
G1 X98.499 Y106.86 E32.34608
G0 F3000 X98.738 Y107.184
G1 F600 X100.044 Y106.407 E32.40926
G1 X101.582 Y106.1 E32.47446
G1 X114.467 Y106.1 E33.01016
G1 X115.785 Y106.424 E33.06659
G1 X116.954 Y107.029 E33.12131
G1 X117.06 Y107.102 E33.12666
G1 X117.994 Y107.1 E33.16549
G1 X119.163 Y106.406 E33.22202
G1 X120.69 Y106.1 E33.28676
G1 X133.575 Y106.1 E33.82246
G1 X134.893 Y106.424 E33.87889
G1 X136.306 Y107.157 E33.94507
G1 X137.316 Y108.238 E34.00657
G1 X138.093 Y109.544 E34.06975
G1 X138.4 Y111.082 E34.13496
G1 X138.4 Y124.075 E34.67514
G1 X138.076 Y125.393 E34.73157
G1 X137.343 Y126.806 E34.79775
G1 X136.262 Y127.816 E34.85926
G1 X134.956 Y128.593 E34.92244
G1 X133.418 Y128.9 E34.98764
G1 X120.533 Y128.9 E35.52334
G1 X119.215 Y128.576 E35.57977
G1 X118.046 Y127.971 E35.63449
G1 X117.94 Y127.898 E35.63984
G1 X117.007 Y127.9 E35.67863
G1 X115.838 Y128.594 E35.73515
G1 X114.311 Y128.9 E35.7999
G1 X101.425 Y128.9 E36.33564
G1 X100.107 Y128.576 E36.39206
G1 X98.694 Y127.843 E36.45824
G1 X97.684 Y126.762 E36.51975
G1 X96.907 Y125.456 E36.58293
G1 X96.6 Y123.918 E36.64813
G1 X96.6 Y110.925 E37.18832
G1 X96.924 Y109.607 E37.24475
G1 X97.657 Y108.194 E37.31093
G1 X98.738 Y107.184 E37.37243
G0 F3000 X98.977 Y107.508
G1 F600 X100.192 Y106.785 E37.43122
G1 X101.62 Y106.5 E37.49176
G1 X114.421 Y106.5 E38.02396
G1 X115.642 Y106.8 E38.07623
G1 X116.77 Y107.384 E38.12904
G1 X116.927 Y107.502 E38.13721
G1 X118.104 Y107.5 E38.18614
G1 X119.309 Y106.784 E38.24442
G1 X120.728 Y106.5 E38.30458
G1 X133.529 Y106.5 E38.83678
G1 X134.75 Y106.8 E38.88906
G1 X136.061 Y107.48 E38.95046
G1 X136.992 Y108.477 E39.00717
G1 X137.715 Y109.692 E39.06595
G1 X138 Y111.12 E39.12649
G1 X138 Y124.029 E39.66319
G1 X137.7 Y125.25 E39.71546
G1 X137.02 Y126.561 E39.77686
G1 X136.023 Y127.492 E39.83357
G1 X134.808 Y128.215 E39.89235
G1 X133.38 Y128.5 E39.95289
G1 X120.579 Y128.5 E40.4851
G1 X119.358 Y128.2 E40.53737
G1 X118.23 Y127.616 E40.59018
G1 X118.073 Y127.498 E40.59835
G1 X116.897 Y127.5 E40.64724
G1 X115.692 Y128.216 E40.70551
G1 X114.273 Y128.5 E40.76568
G1 X101.471 Y128.5 E41.29792
G1 X100.25 Y128.2 E41.3502
G1 X98.939 Y127.52 E41.4116
G1 X98.008 Y126.523 E41.46831
G1 X97.285 Y125.308 E41.52709
G1 X97 Y123.88 E41.58763
G1 X97 Y110.971 E42.12432
G1 X97.3 Y109.75 E42.1766
G1 X97.98 Y108.439 E42.238
G1 X98.977 Y107.508 E42.29471
G0 F3000 X99.216 Y107.832
G1 F600 X100.34 Y107.163 E42.34909
G1 X101.658 Y106.9 E42.40497
G1 X114.375 Y106.9 E42.93368
G1 X115.499 Y107.176 E42.9818
G1 X116.586 Y107.739 E43.03269
G1 X116.783 Y107.902 E43.04332
G1 X118.264 Y107.9 E43.1049
G1 X118.406 Y107.786 E43.11247
G1 X119.455 Y107.162 E43.16321
G1 X120.766 Y106.9 E43.21879
G1 X133.483 Y106.9 E43.74751
G1 X134.607 Y107.176 E43.79563
G1 X135.816 Y107.803 E43.85225
G1 X136.668 Y108.716 E43.90417
G1 X137.337 Y109.84 E43.95855
G1 X137.6 Y111.158 E44.01442
G1 X137.6 Y123.983 E44.54762
G1 X137.324 Y125.107 E44.59574
G1 X136.697 Y126.316 E44.65237
G1 X135.784 Y127.168 E44.70428
G1 X134.66 Y127.837 E44.75867
G1 X133.342 Y128.1 E44.81454
G1 X120.625 Y128.1 E45.34325
G1 X119.501 Y127.824 E45.39137
G1 X118.414 Y127.261 E45.44227
G1 X118.217 Y127.098 E45.4529
G1 X116.737 Y127.1 E45.51443
G1 X116.595 Y127.214 E45.522
G1 X115.546 Y127.838 E45.57274
G1 X114.235 Y128.1 E45.62833
G1 X101.517 Y128.1 E46.15708
G1 X100.393 Y127.824 E46.2052
G1 X99.184 Y127.197 E46.26182
G1 X98.332 Y126.284 E46.31374
G1 X97.663 Y125.16 E46.36812
G1 X97.4 Y123.842 E46.424
G1 X97.4 Y111.017 E46.9572
G1 X97.676 Y109.893 E47.00532
G1 X98.303 Y108.684 E47.06194
G1 X99.216 Y107.832 E47.11386
G0 F3000 X99.458 Y108.154
G1 F600 X100.488 Y107.541 E47.16369
G1 X101.696 Y107.3 E47.2149
G1 X114.328 Y107.3 E47.74008
G1 X115.357 Y107.553 E47.78413
G1 X116.402 Y108.094 E47.83306
G1 X116.626 Y108.302 E47.84577
G1 X118.413 Y108.3 E47.92006
G1 X118.61 Y108.13 E47.93088
G1 X119.601 Y107.541 E47.97881
G1 X120.805 Y107.3 E48.02986
G1 X133.436 Y107.3 E48.55499
G1 X134.465 Y107.553 E48.59905
G1 X135.569 Y108.125 E48.65074
G1 X136.346 Y108.958 E48.6981
G1 X136.959 Y109.988 E48.74793
G1 X137.2 Y111.196 E48.79915
G1 X137.2 Y123.936 E49.32881
G1 X136.947 Y124.965 E49.37287
G1 X136.375 Y126.069 E49.42456
G1 X135.542 Y126.846 E49.47192
G1 X134.512 Y127.459 E49.52176
G1 X133.304 Y127.7 E49.57297
G1 X120.672 Y127.7 E50.09815
G1 X119.643 Y127.447 E50.1422
G1 X118.598 Y126.906 E50.19112
G1 X118.374 Y126.698 E50.20383
G1 X116.588 Y126.7 E50.27809
G1 X116.391 Y126.87 E50.2889
G1 X115.4 Y127.459 E50.33683
G1 X114.196 Y127.7 E50.38788
G1 X101.564 Y127.7 E50.91306
G1 X100.535 Y127.447 E50.95711
G1 X99.431 Y126.875 E51.00881
G1 X98.654 Y126.042 E51.05617
G1 X98.041 Y125.012 E51.106
G1 X97.8 Y123.804 E51.15721
G1 X97.8 Y111.064 E51.68688
G1 X98.053 Y110.035 E51.73094
G1 X98.625 Y108.931 E51.78263
G1 X99.458 Y108.154 E51.82999
G0 F3000 X99.7 Y108.476
G1 F600 X100.636 Y107.919 E51.87527
G1 X101.734 Y107.7 E51.92182
G1 X114.282 Y107.7 E52.44351
G1 X115.214 Y107.929 E52.48341
G1 X116.218 Y108.449 E52.53041
G1 X116.45 Y108.702 E52.54469
G1 X118.57 Y108.7 E52.63283
G1 X118.814 Y108.474 E52.64665
G1 X119.747 Y107.919 E52.69179
G1 X120.843 Y107.7 E52.73825
G1 X133.39 Y107.7 E53.2599
G1 X134.322 Y107.929 E53.2998
G1 X135.322 Y108.447 E53.34662
G1 X136.024 Y109.2 E53.38942
G1 X136.581 Y110.136 E53.4347
G1 X136.8 Y111.234 E53.48125
G1 X136.8 Y123.89 E54.00743
G1 X136.571 Y124.822 E54.04733
G1 X136.053 Y125.822 E54.09415
G1 X135.3 Y126.524 E54.13695
G1 X134.364 Y127.081 E54.18223
G1 X133.266 Y127.3 E54.22878
G1 X120.718 Y127.3 E54.75047
G1 X119.786 Y127.071 E54.79037
G1 X118.782 Y126.551 E54.83738
G1 X118.55 Y126.298 E54.85165
G1 X116.431 Y126.3 E54.93975
G1 X116.187 Y126.526 E54.95357
G1 X115.254 Y127.081 E54.99871
G1 X114.158 Y127.3 E55.04517
G1 X101.61 Y127.3 E55.56686
G1 X100.678 Y127.071 E55.60676
G1 X99.678 Y126.553 E55.65358
G1 X98.976 Y125.8 E55.69638
G1 X98.419 Y124.864 E55.74167
G1 X98.2 Y123.766 E55.78821
G1 X98.2 Y111.11 E56.31439
G1 X98.429 Y110.178 E56.35429
G1 X98.947 Y109.178 E56.40111
G1 X99.7 Y108.476 E56.44391
G0 F3000 X99.942 Y108.798
G1 F600 X100.784 Y108.297 E56.48465
G1 X101.772 Y108.1 E56.52653
G1 X114.236 Y108.1 E57.04472
G1 X115.071 Y108.305 E57.08047
G1 X115.971 Y108.771 E57.12261
G1 X116.274 Y109.102 E57.14126
G1 X118.727 Y109.1 E57.24325
G1 X119.054 Y108.796 E57.26181
G1 X119.893 Y108.297 E57.30239
G1 X120.881 Y108.1 E57.34428
G1 X133.344 Y108.1 E57.86243
G1 X134.179 Y108.305 E57.89818
G1 X135.075 Y108.769 E57.94013
G1 X135.702 Y109.442 E57.97837
G1 X136.203 Y110.284 E58.0191
G1 X136.4 Y111.272 E58.06099
G1 X136.4 Y123.844 E58.58367
G1 X136.195 Y124.679 E58.61942
G1 X135.731 Y125.575 E58.66137
G1 X135.058 Y126.202 E58.69961
G1 X134.216 Y126.703 E58.74034
G1 X133.228 Y126.9 E58.78223
G1 X120.764 Y126.9 E59.30042
G1 X119.929 Y126.695 E59.33617
G1 X119.029 Y126.229 E59.3783
G1 X118.726 Y125.898 E59.39696
G1 X116.274 Y125.9 E59.4989
G1 X115.947 Y126.204 E59.51746
G1 X115.108 Y126.703 E59.55805
G1 X114.12 Y126.9 E59.59993
G1 X101.656 Y126.9 E60.11813
G1 X100.821 Y126.695 E60.15387
G1 X99.925 Y126.231 E60.19582
G1 X99.298 Y125.558 E60.23406
G1 X98.797 Y124.716 E60.2748
G1 X98.6 Y123.728 E60.31668
G1 X98.6 Y111.156 E60.83937
G1 X98.805 Y110.321 E60.87511
G1 X99.269 Y109.425 E60.91706
G1 X99.942 Y108.798 E60.9553
G0 F3000 X100.184 Y109.12
G1 F600 X100.932 Y108.675 E60.99149
G1 X101.81 Y108.5 E61.02871
G1 X114.19 Y108.5 E61.54341
G1 X114.928 Y108.681 E61.575
G1 X115.724 Y109.093 E61.61227
G1 X116.098 Y109.502 E61.63531
G1 X118.884 Y109.5 E61.75114
G1 X119.293 Y109.12 E61.77435
G1 X120.041 Y108.675 E61.81053
G1 X120.919 Y108.5 E61.84775
G1 X133.298 Y108.5 E62.36241
G1 X134.036 Y108.681 E62.394
G1 X134.828 Y109.091 E62.43108
G1 X135.38 Y109.684 E62.46477
G1 X135.825 Y110.432 E62.50095
G1 X136 Y111.31 E62.53817
G1 X136 Y123.798 E63.05736
G1 X135.819 Y124.536 E63.08895
G1 X135.409 Y125.328 E63.12603
G1 X134.816 Y125.88 E63.15971
G1 X134.068 Y126.325 E63.1959
G1 X133.19 Y126.5 E63.23312
G1 X120.81 Y126.5 E63.74782
G1 X120.072 Y126.319 E63.77941
G1 X119.276 Y125.907 E63.81668
G1 X118.902 Y125.498 E63.83972
G1 X116.117 Y125.5 E63.95551
G1 X115.708 Y125.88 E63.97872
G1 X114.96 Y126.325 E64.0149
G1 X114.082 Y126.5 E64.05212
G1 X101.702 Y126.5 E64.56682
G1 X100.964 Y126.319 E64.59842
G1 X100.172 Y125.909 E64.63549
G1 X99.62 Y125.316 E64.66918
G1 X99.175 Y124.568 E64.70536
G1 X99 Y123.69 E64.74258
G1 X99 Y111.202 E65.26177
G1 X99.181 Y110.464 E65.29336
G1 X99.591 Y109.672 E65.33044
G1 X100.184 Y109.12 E65.36413
G0 F3000 X100.423 Y109.444
G1 F600 X101.08 Y109.053 E65.39591
G1 X101.848 Y108.9 E65.42847
G1 X114.14 Y108.9 E65.93951
G1 X114.789 Y109.059 E65.96729
G1 X115.477 Y109.415 E65.9995
G1 X115.922 Y109.902 E66.02692
G1 X119.041 Y109.9 E66.1566
G1 X119.532 Y109.444 E66.18446
G1 X120.189 Y109.053 E66.21624
G1 X120.957 Y108.9 E66.2488
G1 X133.248 Y108.9 E66.7598
G1 X133.897 Y109.059 E66.78758
G1 X134.583 Y109.414 E66.81969
G1 X135.056 Y109.923 E66.84858
G1 X135.447 Y110.58 E66.88037
G1 X135.6 Y111.348 E66.91292
G1 X135.6 Y123.748 E67.42846
G1 X135.441 Y124.397 E67.45624
G1 X135.086 Y125.083 E67.48835
G1 X134.577 Y125.556 E67.51724
G1 X133.92 Y125.947 E67.54902
G1 X133.152 Y126.1 E67.58158
G1 X120.86 Y126.1 E68.09262
G1 X120.211 Y125.941 E68.1204
G1 X119.523 Y125.585 E68.15261
G1 X119.078 Y125.098 E68.18004
