;FLAVOR:Marlin
;TIME:16731
;Filament used: 12.0037m
;Layer height: 0.2
;MINX:21.713
;MINY:21.713
;MINZ:0.25
;MAXX:213.287
;MAXY:213.292
;MAXZ:3.05
;Generated with Cura_SteamEngine 5.3.0
M140 S85
M105
M190 S85
M104 S240
M105
M109 S240
M82 ;absolute extrusion mode
START_PRINT
G92 E0
G92 E0
G1 F1500 E-8
;LAYER_COUNT:15
;LAYER:0
M107
G0 F6000 X74.765 Y128.557 Z0.25
;TYPE:SKIRT
G1 F1500 E0
G1 F1200 X128.56 Y74.762 E3.16294
G1 X128.922 Y74.522 E3.181
G1 X129.327 Y74.393 E3.19867
G1 X129.678 Y74.407 E3.21327
G1 X130.114 Y74.518 E3.23198
G1 X130.485 Y74.765 E3.25051
G1 X144.37 Y88.65 E4.06689
G1 X144.511 Y88.509 E4.07518
G1 X130.623 Y74.62 E4.89177
G1 X130.383 Y74.258 E4.90983
G1 X130.254 Y73.853 E4.9275
G1 X130.268 Y73.502 E4.94211
G1 X130.379 Y73.066 E4.96081
G1 X130.626 Y72.695 E4.97934
G1 X181.239 Y22.082 E7.95519
G1 X181.601 Y21.842 E7.97325
G1 X182.006 Y21.713 E7.99092
G1 X182.357 Y21.727 E8.00553
G1 X182.793 Y21.838 E8.02423
G1 X183.164 Y22.085 E8.04276
G1 X212.918 Y51.839 E9.79218
G1 X213.158 Y52.201 E9.81024
G1 X213.287 Y52.606 E9.82791
G1 X213.273 Y52.957 E9.84252
G1 X213.162 Y53.393 E9.86122
G1 X212.915 Y53.764 E9.87975
G1 X53.761 Y212.918 E19.2374
G1 X53.397 Y213.159 E19.25555
G1 X52.976 Y213.292 E19.2739
G1 X52.664 Y213.277 E19.28689
G1 X52.205 Y213.162 E19.30656
G1 X51.838 Y212.917 E19.32491
G1 X22.082 Y183.161 E21.07445
G1 X21.842 Y182.799 E21.0925
G1 X21.713 Y182.394 E21.11017
G1 X21.727 Y182.043 E21.12478
G1 X21.838 Y181.607 E21.14348
G1 X22.085 Y181.236 E21.16201
G1 X72.698 Y130.623 E24.13786
G1 X73.06 Y130.383 E24.15592
G1 X73.465 Y130.254 E24.17359
G1 X73.816 Y130.268 E24.1882
G1 X74.252 Y130.379 E24.2069
G1 X74.623 Y130.626 E24.22543
G1 X88.509 Y144.511 E25.04185
G1 X88.65 Y144.37 E25.05014
G1 X74.762 Y130.482 E25.8667
G1 X74.522 Y130.12 E25.88476
G1 X74.393 Y129.715 E25.90243
G1 X74.407 Y129.364 E25.91703
G1 X74.518 Y128.928 E25.93574
G1 X74.765 Y128.557 E25.95427
G0 F6000 X75.074 Y128.814
G1 F1200 X128.814 Y75.074 E29.11397
G1 X129.098 Y74.886 E29.12813
G1 X129.382 Y74.795 E29.14053
G1 X129.579 Y74.795 E29.14872
G1 X129.951 Y74.89 E29.16468
G1 X130.228 Y75.074 E29.17851
G1 X144.37 Y89.216 E30.01001
G1 X145.077 Y88.509 E30.05157
G1 X130.935 Y74.366 E30.8831
G1 X130.747 Y74.082 E30.89726
G1 X130.656 Y73.798 E30.90966
G1 X130.656 Y73.601 E30.91785
G1 X130.751 Y73.229 E30.93381
G1 X130.935 Y72.952 E30.94764
G1 X181.493 Y22.394 E33.92025
G1 X181.777 Y22.206 E33.93441
G1 X182.061 Y22.115 E33.94681
G1 X182.258 Y22.115 E33.955
G1 X182.63 Y22.21 E33.97096
G1 X182.907 Y22.394 E33.98479
G1 X212.606 Y52.093 E35.73098
G1 X212.794 Y52.377 E35.74514
G1 X212.885 Y52.661 E35.75754
G1 X212.885 Y52.858 E35.76573
G1 X212.79 Y53.23 E35.78169
G1 X212.606 Y53.507 E35.79551
G1 X53.507 Y212.606 E45.14992
G1 X53.223 Y212.794 E45.16408
G1 X52.921 Y212.889 E45.17725
G1 X52.761 Y212.889 E45.1839
G1 X52.37 Y212.791 E45.20066
G1 X52.093 Y212.606 E45.21451
G1 X22.394 Y182.907 E46.96069
G1 X22.206 Y182.623 E46.97485
G1 X22.115 Y182.339 E46.98725
G1 X22.115 Y182.142 E46.99544
G1 X22.21 Y181.77 E47.01141
G1 X22.394 Y181.493 E47.02523
G1 X72.952 Y130.935 E49.99785
G1 X73.236 Y130.747 E50.01201
G1 X73.52 Y130.656 E50.02441
G1 X73.717 Y130.656 E50.0326
G1 X74.089 Y130.751 E50.04856
G1 X74.366 Y130.935 E50.06238
G1 X88.509 Y145.077 E50.89391
G1 X89.216 Y144.37 E50.93548
G1 X75.074 Y130.228 E51.76697
G1 X74.886 Y129.944 E51.78113
G1 X74.795 Y129.66 E51.79353
G1 X74.795 Y129.463 E51.80172
G1 X74.89 Y129.091 E51.81768
G1 X75.074 Y128.814 E51.83151
G0 F6000 X75.357 Y129.097
G1 F1200 X129.097 Y75.357 E54.99122
G1 X129.308 Y75.227 E55.00152
G1 X129.481 Y75.183 E55.00894
G1 X129.788 Y75.261 E55.02211
G1 X129.945 Y75.357 E55.02976
G1 X144.37 Y89.782 E55.8779
G1 X145.643 Y88.509 E55.95274
G1 X131.218 Y74.083 E56.80091
G1 X131.088 Y73.872 E56.81121
G1 X131.044 Y73.699 E56.81863
G1 X131.122 Y73.392 E56.8318
G1 X131.218 Y73.235 E56.83945
G1 X181.776 Y22.677 E59.81207
G1 X181.987 Y22.547 E59.82237
G1 X182.16 Y22.503 E59.82979
G1 X182.467 Y22.581 E59.84296
G1 X182.624 Y22.677 E59.85061
G1 X212.323 Y52.376 E61.5968
G1 X212.453 Y52.587 E61.60711
G1 X212.497 Y52.76 E61.61453
G1 X212.419 Y53.067 E61.6277
G1 X212.323 Y53.224 E61.63535
G1 X53.224 Y212.323 E70.98976
G1 X53.013 Y212.453 E71.00006
G1 X52.84 Y212.497 E71.00748
G1 X52.533 Y212.419 E71.02065
G1 X52.376 Y212.323 E71.0283
G1 X22.677 Y182.624 E72.77449
G1 X22.547 Y182.413 E72.78479
G1 X22.503 Y182.24 E72.79222
G1 X22.581 Y181.933 E72.80539
G1 X22.677 Y181.776 E72.81304
G1 X73.235 Y131.218 E75.78565
G1 X73.446 Y131.088 E75.79596
G1 X73.619 Y131.044 E75.80338
G1 X73.926 Y131.122 E75.81655
G1 X74.083 Y131.218 E75.8242
G1 X88.509 Y145.643 E76.67236
G1 X89.782 Y144.37 E76.74721
G1 X75.357 Y129.945 E77.59534
G1 X75.227 Y129.734 E77.60565
G1 X75.183 Y129.561 E77.61307
G1 X75.261 Y129.254 E77.62624
G1 X75.357 Y129.097 E77.63389
G0 F6000 X75.64 Y129.38
G1 F1200 X129.38 Y75.64 E80.7936
G1 X129.491 Y75.583 E80.79878
G1 X129.662 Y75.64 E80.80628
G1 X144.37 Y90.348 E81.67105
G1 X146.209 Y88.509 E81.77918
G1 X131.501 Y73.8 E82.64398
G1 X131.444 Y73.689 E82.64917
G1 X131.501 Y73.518 E82.65666
G1 X182.059 Y22.96 E85.62928
G1 X182.17 Y22.903 E85.63447
G1 X182.341 Y22.96 E85.64196
G1 X212.04 Y52.659 E87.38815
G1 X212.097 Y52.77 E87.39334
G1 X212.04 Y52.941 E87.40083
G1 X52.941 Y212.04 E96.75524
G1 X52.83 Y212.097 E96.76043
G1 X52.659 Y212.04 E96.76792
G1 X22.96 Y182.341 E98.51411
G1 X22.903 Y182.23 E98.5193
G1 X22.96 Y182.059 E98.52679
G1 X73.518 Y131.501 E101.49941
G1 X73.629 Y131.444 E101.5046
G1 X73.8 Y131.501 E101.51209
G1 X88.509 Y146.209 E102.37689
G1 X90.348 Y144.37 E102.48502
G1 X75.64 Y129.662 E103.34979
G1 X75.583 Y129.551 E103.35498
G1 X75.64 Y129.38 E103.36248
G1 F1500 E95.36248
;MESH:ParatiaCortaKatia.stl
G0 F6000 X75.17 Y129.85
G0 X74.696 Y131.738
G0 X52.8 Y211.049
;TYPE:WALL-INNER
G1 F1500 E103.36248
G1 F1200 X211.049 Y52.8 E112.66691
G1 X182.2 Y23.951 E114.36312
G1 X132.492 Y73.66 E117.28579
G1 X146.932 Y88.101 E118.13484
G1 X147.025 Y88.233 E118.14155
G1 X147.086 Y88.424 E118.14989
G1 X147.059 Y88.705 E118.16162
G1 X146.965 Y88.885 E118.17006
G1 X144.742 Y91.108 E118.30077
G1 X144.566 Y91.198 E118.30899
G1 X144.285 Y91.225 E118.32072
G1 X144.094 Y91.164 E118.32906
G1 X143.945 Y91.055 E118.33673
G1 X129.522 Y76.631 E119.18478
G1 X76.631 Y129.521 E122.29454
G1 X91.071 Y143.962 E123.14359
G1 X91.164 Y144.094 E123.1503
G1 X91.225 Y144.285 E123.15863
G1 X91.198 Y144.566 E123.17037
G1 X91.104 Y144.746 E123.17881
G1 X88.881 Y146.969 E123.30952
G1 X88.705 Y147.059 E123.31774
G1 X88.424 Y147.086 E123.32947
G1 X88.233 Y147.025 E123.33781
G1 X88.084 Y146.916 E123.34548
G1 X73.66 Y132.492 E124.19356
G1 X23.951 Y182.2 E127.11623
G1 X52.8 Y211.049 E128.81244
G0 F6000 X52.8 Y211.615
;TYPE:WALL-OUTER
G1 F1200 X211.615 Y52.8 E138.15015
G1 X182.2 Y23.385 E139.87964
G1 X131.926 Y73.66 E142.83559
G1 X146.649 Y88.385 E143.7013
G1 X146.69 Y88.48 E143.70561
G1 X146.653 Y88.628 E143.71195
G1 X144.501 Y90.782 E143.83854
G1 X144.341 Y90.829 E143.84547
G1 X144.228 Y90.772 E143.85073
G1 X129.522 Y76.065 E144.71542
G1 X76.065 Y129.521 E147.85846
G1 X90.788 Y144.246 E148.72417
G1 X90.829 Y144.341 E148.72847
G1 X90.792 Y144.489 E148.73481
G1 X88.64 Y146.643 E148.8614
G1 X88.48 Y146.69 E148.86834
G1 X88.367 Y146.633 E148.8736
G1 X73.66 Y131.926 E149.73831
G1 X23.385 Y182.2 E152.69426
G1 X52.8 Y211.615 E154.42375
G0 F6000 X52.8 Y211.233
G0 X52.616 Y210.722
G0 X52.8 Y210.539
;TYPE:SKIN
G1 F1200 X24.461 Y182.2 E156.08997
G1 X73.66 Y133.002 E158.98266
G1 X87.872 Y147.211 E159.81818
G1 X88.132 Y147.374 E159.83094
G1 X88.373 Y147.443 E159.84136
G1 X88.743 Y147.423 E159.85677
G1 X89.072 Y147.285 E159.8716
G1 X91.416 Y144.939 E160.00948
G1 X91.562 Y144.604 E160.02467
G1 X91.585 Y144.24 E160.03983
G1 X91.513 Y143.993 E160.05053
G1 X91.333 Y143.712 E160.0644
G1 X77.141 Y129.521 E160.89881
G1 X129.521 Y77.141 E163.97855
G1 X143.733 Y91.35 E164.81408
G1 X143.993 Y91.513 E164.82683
G1 X144.234 Y91.582 E164.83726
G1 X144.604 Y91.562 E164.85266
G1 X144.927 Y91.424 E164.86726
G1 X147.277 Y89.078 E165.00532
G1 X147.423 Y88.743 E165.02051
G1 X147.446 Y88.379 E165.03567
G1 X147.374 Y88.132 E165.04637
G1 X147.194 Y87.851 E165.06024
G1 X133.002 Y73.66 E165.89465
G1 X182.2 Y24.461 E168.78733
G1 X210.539 Y52.8 E170.45356
G1 X52.8 Y210.539 E179.72801
G0 F6000 X52.897 Y210.157
G1 F1200 X24.842 Y182.102 E181.37753
G0 F6000 X25.124 Y181.819
G1 F1200 X53.18 Y209.874 E183.02709
G0 F6000 X53.462 Y209.592
G1 F1200 X25.407 Y181.536 E184.67664
G0 F6000 X25.69 Y181.254
G1 F1200 X53.745 Y209.309 E186.32617
G0 F6000 X54.028 Y209.026
G1 F1200 X25.973 Y180.971 E187.9757
G0 F6000 X26.256 Y180.688
G1 F1200 X54.311 Y208.743 E189.62522
G0 F6000 X54.594 Y208.46
G1 F1200 X26.539 Y180.405 E191.27475
G0 F6000 X26.821 Y180.122
G1 F1200 X54.877 Y208.177 E192.92431
G0 F6000 X55.159 Y207.895
G1 F1200 X27.104 Y179.839 E194.57386
G0 F6000 X27.387 Y179.557
G1 F1200 X55.442 Y207.612 E196.22339
G0 F6000 X55.725 Y207.329
G1 F1200 X27.67 Y179.274 E197.87292
G0 F6000 X27.953 Y178.991
G1 F1200 X56.008 Y207.046 E199.52244
G0 F6000 X56.291 Y206.763
G1 F1200 X28.236 Y178.708 E201.17197
G0 F6000 X28.519 Y178.425
G1 F1200 X56.574 Y206.48 E202.82149
G0 F6000 X56.857 Y206.197
G1 F1200 X28.801 Y178.142 E204.47105
G0 F6000 X29.084 Y177.859
G1 F1200 X57.139 Y205.915 E206.12061
G0 F6000 X57.422 Y205.632
G1 F1200 X29.367 Y177.577 E207.77013
G0 F6000 X29.65 Y177.294
G1 F1200 X57.705 Y205.349 E209.41966
G0 F6000 X57.988 Y205.066
G1 F1200 X29.933 Y177.011 E211.06919
G0 F6000 X30.216 Y176.728
G1 F1200 X58.271 Y204.783 E212.71871
G0 F6000 X58.554 Y204.5
G1 F1200 X30.498 Y176.445 E214.36827
G0 F6000 X30.781 Y176.162
G1 F1200 X58.836 Y204.218 E216.01782
G0 F6000 X59.119 Y203.935
G1 F1200 X31.064 Y175.88 E217.66735
G0 F6000 X31.347 Y175.597
G1 F1200 X59.402 Y203.652 E219.31688
G0 F6000 X59.685 Y203.369
G1 F1200 X31.63 Y175.314 E220.9664
G0 F6000 X31.913 Y175.031
G1 F1200 X59.968 Y203.086 E222.61593
G0 F6000 X60.251 Y202.803
G1 F1200 X32.195 Y174.748 E224.26549
G0 F6000 X32.478 Y174.465
G1 F1200 X60.533 Y202.521 E225.91504
G0 F6000 X60.816 Y202.238
G1 F1200 X32.761 Y174.183 E227.56457
G0 F6000 X33.044 Y173.9
G1 F1200 X61.099 Y201.955 E229.21409
G0 F6000 X61.382 Y201.672
G1 F1200 X33.327 Y173.617 E230.86362
G0 F6000 X33.61 Y173.334
G1 F1200 X61.665 Y201.389 E232.51315
G0 F6000 X61.948 Y201.106
G1 F1200 X33.893 Y173.051 E234.16267
G0 F6000 X34.175 Y172.768
G1 F1200 X62.231 Y200.823 E235.81223
G0 F6000 X62.513 Y200.541
G1 F1200 X34.458 Y172.485 E237.46179
G0 F6000 X34.741 Y172.203
G1 F1200 X62.796 Y200.258 E239.11131
G0 F6000 X63.079 Y199.975
G1 F1200 X35.024 Y171.92 E240.76084
G0 F6000 X35.307 Y171.637
G1 F1200 X63.362 Y199.692 E242.41037
G0 F6000 X63.645 Y199.409
G1 F1200 X35.59 Y171.354 E244.05989
G0 F6000 X35.872 Y171.071
G1 F1200 X63.928 Y199.126 E245.70945
G0 F6000 X64.21 Y198.844
G1 F1200 X36.155 Y170.788 E247.359
G0 F6000 X36.438 Y170.506
G1 F1200 X64.493 Y198.561 E249.00853
G0 F6000 X64.776 Y198.278
G1 F1200 X36.721 Y170.223 E250.65806
G0 F6000 X37.004 Y169.94
G1 F1200 X65.059 Y197.995 E252.30758
G0 F6000 X65.342 Y197.712
G1 F1200 X37.287 Y169.657 E253.95711
G0 F6000 X37.569 Y169.374
G1 F1200 X65.625 Y197.429 E255.60667
G0 F6000 X65.908 Y197.147
G1 F1200 X37.852 Y169.091 E257.25625
G0 F6000 X38.135 Y168.809
G1 F1200 X66.19 Y196.864 E258.90578
G0 F6000 X66.473 Y196.581
G1 F1200 X38.418 Y168.526 E260.5553
G0 F6000 X38.701 Y168.243
G1 F1200 X66.756 Y196.298 E262.20483
G0 F6000 X67.039 Y196.015
G1 F1200 X38.984 Y167.96 E263.85436
G0 F6000 X39.267 Y167.677
G1 F1200 X67.322 Y195.732 E265.50388
G0 F6000 X67.605 Y195.449
G1 F1200 X39.549 Y167.394 E267.15344
G0 F6000 X39.832 Y167.111
G1 F1200 X67.887 Y195.167 E268.80299
G0 F6000 X68.17 Y194.884
G1 F1200 X40.115 Y166.829 E270.45252
G0 F6000 X40.398 Y166.546
G1 F1200 X68.453 Y194.601 E272.10205
G0 F6000 X68.736 Y194.318
G1 F1200 X40.681 Y166.263 E273.75157
G0 F6000 X40.964 Y165.98
G1 F1200 X69.019 Y194.035 E275.4011
G0 F6000 X69.302 Y193.752
G1 F1200 X41.246 Y165.697 E277.05066
G0 F6000 X41.529 Y165.414
G1 F1200 X69.584 Y193.47 E278.70021
G0 F6000 X69.867 Y193.187
G1 F1200 X41.812 Y165.132 E280.34974
G0 F6000 X42.095 Y164.849
G1 F1200 X70.15 Y192.904 E281.99927
G0 F6000 X70.433 Y192.621
G1 F1200 X42.378 Y164.566 E283.64879
G0 F6000 X42.661 Y164.283
G1 F1200 X70.716 Y192.338 E285.29832
G0 F6000 X70.999 Y192.055
G1 F1200 X42.944 Y164 E286.94785
G0 F6000 X43.226 Y163.717
G1 F1200 X71.282 Y191.773 E288.59743
G0 F6000 X71.564 Y191.49
G1 F1200 X43.509 Y163.435 E290.24696
G0 F6000 X43.792 Y163.152
G1 F1200 X71.847 Y191.207 E291.89648
G0 F6000 X72.13 Y190.924
G1 F1200 X44.075 Y162.869 E293.54601
G0 F6000 X44.358 Y162.586
G1 F1200 X72.413 Y190.641 E295.19554
G0 F6000 X72.696 Y190.358
G1 F1200 X44.641 Y162.303 E296.84506
G0 F6000 X44.923 Y162.02
G1 F1200 X72.979 Y190.075 E298.49462
G0 F6000 X73.261 Y189.793
G1 F1200 X45.206 Y161.737 E300.14417
G0 F6000 X45.489 Y161.455
G1 F1200 X73.544 Y189.51 E301.7937
G0 F6000 X73.827 Y189.227
G1 F1200 X45.772 Y161.172 E303.44323
G0 F6000 X46.055 Y160.889
G1 F1200 X74.11 Y188.944 E305.09275
G0 F6000 X74.393 Y188.661
G1 F1200 X46.338 Y160.606 E306.74228
G0 F6000 X46.62 Y160.323
G1 F1200 X74.676 Y188.378 E308.39184
G0 F6000 X74.958 Y188.096
G1 F1200 X46.903 Y160.04 E310.04139
G0 F6000 X47.186 Y159.758
G1 F1200 X75.241 Y187.813 E311.69092
G0 F6000 X75.524 Y187.53
G1 F1200 X47.469 Y159.475 E313.34045
G0 F6000 X47.752 Y159.192
G1 F1200 X75.807 Y187.247 E314.98997
G0 F6000 X76.09 Y186.964
G1 F1200 X48.035 Y158.909 E316.6395
G0 F6000 X48.318 Y158.626
G1 F1200 X76.373 Y186.681 E318.28902
G0 F6000 X76.656 Y186.399
G1 F1200 X48.6 Y158.343 E319.93861
G0 F6000 X48.883 Y158.06
G1 F1200 X76.938 Y186.116 E321.58817
G0 F6000 X77.221 Y185.833
G1 F1200 X49.166 Y157.778 E323.23769
G0 F6000 X49.449 Y157.495
G1 F1200 X77.504 Y185.55 E324.88722
G0 F6000 X77.787 Y185.267
G1 F1200 X49.732 Y157.212 E326.53675
G0 F6000 X50.015 Y156.929
G1 F1200 X78.07 Y184.984 E328.18627
G0 F6000 X78.353 Y184.701
G1 F1200 X50.297 Y156.646 E329.83583
G0 F6000 X50.58 Y156.363
G1 F1200 X78.635 Y184.419 E331.48538
G0 F6000 X78.918 Y184.136
G1 F1200 X50.863 Y156.081 E333.13491
G0 F6000 X51.146 Y155.798
G1 F1200 X79.201 Y183.853 E334.78444
G0 F6000 X79.484 Y183.57
G1 F1200 X51.429 Y155.515 E336.43396
G0 F6000 X51.712 Y155.232
G1 F1200 X79.767 Y183.287 E338.08349
G0 F6000 X80.05 Y183.004
G1 F1200 X51.994 Y154.949 E339.73305
G0 F6000 X52.277 Y154.666
G1 F1200 X80.332 Y182.722 E341.3826
G0 F6000 X80.615 Y182.439
G1 F1200 X52.56 Y154.384 E343.03213
G0 F6000 X52.843 Y154.101
G1 F1200 X80.898 Y182.156 E344.68165
G0 F6000 X81.181 Y181.873
G1 F1200 X53.126 Y153.818 E346.33118
G0 F6000 X53.409 Y153.535
G1 F1200 X81.464 Y181.59 E347.98071
G0 F6000 X81.747 Y181.307
G1 F1200 X53.692 Y153.252 E349.63023
G0 F6000 X53.974 Y152.969
G1 F1200 X82.03 Y181.024 E351.27979
G0 F6000 X82.312 Y180.742
G1 F1200 X54.257 Y152.686 E352.92935
G0 F6000 X54.54 Y152.404
G1 F1200 X82.595 Y180.459 E354.57887
G0 F6000 X82.878 Y180.176
G1 F1200 X54.823 Y152.121 E356.2284
G0 F6000 X55.106 Y151.838
G1 F1200 X83.161 Y179.893 E357.87792
G0 F6000 X83.444 Y179.61
G1 F1200 X55.389 Y151.555 E359.52745
G0 F6000 X55.671 Y151.272
G1 F1200 X83.727 Y179.327 E361.17701
G0 F6000 X84.009 Y179.045
G1 F1200 X55.954 Y150.989 E362.82656
G0 F6000 X56.237 Y150.707
G1 F1200 X84.292 Y178.762 E364.47609
G0 F6000 X84.575 Y178.479
G1 F1200 X56.52 Y150.424 E366.12562
G0 F6000 X56.803 Y150.141
G1 F1200 X84.858 Y178.196 E367.77514
G0 F6000 X85.141 Y177.913
G1 F1200 X57.086 Y149.858 E369.42467
G0 F6000 X57.368 Y149.575
G1 F1200 X85.424 Y177.63 E371.07422
G0 F6000 X85.706 Y177.348
G1 F1200 X57.651 Y149.292 E372.72378
G0 F6000 X57.934 Y149.01
G1 F1200 X85.989 Y177.065 E374.37331
G0 F6000 X86.272 Y176.782
G1 F1200 X58.217 Y148.727 E376.02283
G0 F6000 X58.5 Y148.444
G1 F1200 X86.555 Y176.499 E377.67236
G0 F6000 X86.838 Y176.216
G1 F1200 X58.783 Y148.161 E379.32189
G0 F6000 X59.066 Y147.878
G1 F1200 X87.121 Y175.933 E380.97141
G0 F6000 X87.404 Y175.65
G1 F1200 X59.348 Y147.595 E382.62097
G0 F6000 X59.631 Y147.312
