;FLAVOR:Marlin
;TIME:9513
;Filament used: 6.04149m
;Layer height: 0.2
;MINX:76.984
;MINY:93.902
;MINZ:0.25
;MAXX:158.016
;MAXY:141.098
;MAXZ:20.05
;Generated with Cura_SteamEngine 5.3.0
M140 S85
M105
M190 S85
M104 S240
M105
M109 S240
M82 ;absolute extrusion mode
START_PRINT
G92 E0
G92 E0
G1 F1500 E-8
;LAYER_COUNT:100
;LAYER:0
M107
G0 F6000 X77.755 Y94.219 Z0.25
;TYPE:SKIRT
G1 F1500 E0
G1 F1200 X78.029 Y94.048 E0.01343
G1 X78.534 Y93.902 E0.03528
G1 X156.499 Y93.908 E3.27669
G1 X156.998 Y94.071 E3.29852
G1 X157.307 Y94.253 E3.31343
G1 X157.718 Y94.713 E3.33907
G1 X157.878 Y94.981 E3.35205
G1 X158.016 Y95.468 E3.37309
G1 X158.016 Y139.577 E5.20693
G1 X157.864 Y140.06 E5.22798
G1 X157.691 Y140.361 E5.24242
G1 X157.239 Y140.787 E5.26824
G1 X156.981 Y140.949 E5.28091
G1 X156.466 Y141.098 E5.3032
G1 X78.501 Y141.092 E8.5446
G1 X78.002 Y140.929 E8.56643
G1 X77.693 Y140.747 E8.58134
G1 X77.282 Y140.287 E8.60698
G1 X77.122 Y140.019 E8.61996
G1 X76.984 Y139.532 E8.64101
G1 X76.984 Y95.423 E10.47484
G1 X77.136 Y94.94 E10.4959
G1 X77.309 Y94.638 E10.51037
G1 X77.755 Y94.219 E10.53581
G0 F6000 X78.029 Y94.51
G1 F1200 X78.192 Y94.417 E10.54361
G1 X78.59 Y94.302 E10.56083
G1 X156.436 Y94.308 E13.79729
G1 X156.874 Y94.451 E13.81645
G1 X157.048 Y94.564 E13.82508
G1 X157.42 Y94.98 E13.84828
G1 X157.507 Y95.138 E13.85578
G1 X157.616 Y95.524 E13.87245
G1 X157.616 Y139.514 E15.70134
G1 X157.482 Y139.94 E15.71991
G1 X157.374 Y140.111 E15.72832
G1 X156.965 Y140.496 E15.75167
G1 X156.818 Y140.58 E15.75871
G1 X156.41 Y140.698 E15.77637
G1 X78.564 Y140.692 E19.01283
G1 X78.126 Y140.549 E19.03198
G1 X77.952 Y140.436 E19.04061
G1 X77.58 Y140.02 E19.06381
G1 X77.493 Y139.862 E19.07131
G1 X77.384 Y139.476 E19.08799
G1 X77.384 Y95.486 E20.91688
G1 X77.518 Y95.06 E20.93544
G1 X77.626 Y94.889 E20.94385
G1 X78.029 Y94.51 E20.96685
G0 F6000 X78.303 Y94.801
G1 F1200 X78.646 Y94.702 E20.9817
G1 X156.373 Y94.708 E24.21321
G1 X156.75 Y94.831 E24.2297
G1 X157.122 Y95.247 E24.2529
G1 X157.216 Y95.58 E24.26728
G1 X157.216 Y139.451 E26.09123
G1 X157.1 Y139.82 E26.10731
G1 X156.697 Y140.199 E26.13031
G1 X156.354 Y140.298 E26.14515
G1 X78.627 Y140.292 E29.37666
G1 X78.25 Y140.169 E29.39315
G1 X77.878 Y139.753 E29.41635
G1 X77.784 Y139.42 E29.43074
G1 X77.784 Y95.549 E31.25468
G1 X77.9 Y95.18 E31.27076
G1 X78.303 Y94.801 E31.29376
G0 F6000 X78.509 Y95.156
G1 F1200 X78.646 Y95.102 E31.29989
G1 X156.373 Y95.108 E34.5314
G1 X156.522 Y95.175 E34.53819
G1 X156.765 Y95.447 E34.55336
G1 X156.816 Y95.58 E34.55928
G1 X156.816 Y139.451 E36.38322
G1 X156.753 Y139.597 E36.38983
G1 X156.491 Y139.844 E36.4048
G1 X156.354 Y139.898 E36.41093
G1 X78.627 Y139.892 E39.64244
G1 X78.478 Y139.825 E39.64923
G1 X78.235 Y139.553 E39.6644
G1 X78.184 Y139.42 E39.67032
G1 X78.184 Y95.549 E41.49426
G1 X78.247 Y95.403 E41.50087
G1 X78.509 Y95.156 E41.51584
G1 F1500 E33.51584
;MESH:Wheel_holder.STL
G0 F6000 X79.185 Y96.104
G0 X156.016 Y139.097
;TYPE:WALL-INNER
G1 F1500 E41.51584
G1 F1200 X156.016 Y95.908 E43.31143
G1 X78.985 Y95.904 E46.51401
G1 X78.984 Y139.092 E48.30956
G1 X156.016 Y139.097 E51.51218
G0 F6000 X156.39 Y139.39
;TYPE:WALL-OUTER
G1 F1200 X156.416 Y139.324 E51.51513
G1 X156.416 Y95.654 E53.33071
G1 X156.258 Y95.508 E53.33966
G1 X78.755 Y95.503 E56.56186
G1 X78.585 Y95.628 E56.57063
G1 X78.585 Y139.342 E58.38805
G1 X78.717 Y139.492 E58.39635
G1 X156.245 Y139.498 E61.61959
G1 X156.39 Y139.39 E61.62711
G0 F6000 X155.656 Y138.736
;TYPE:SKIN
G1 F1200 X79.345 Y138.732 E64.79975
G1 X79.346 Y96.265 E66.56533
G1 X155.656 Y96.268 E69.73793
G1 X155.656 Y138.736 E71.50354
G1 F1500 E63.50354
G0 F6000 X155.655 Y138.996
G0 X155.844 Y96.08
G0 X155.456 Y96.008
G0 X155.455 Y96.624
G1 F1500 E71.50354
G1 F1200 X155.299 Y96.468 E71.51271
G0 F6000 X154.734 Y96.468
G1 F1200 X155.455 Y97.189 E71.55511
G0 F6000 X155.455 Y97.755
G1 F1200 X154.168 Y96.468 E71.63078
G0 F6000 X153.602 Y96.468
G1 F1200 X155.455 Y98.321 E71.73973
G0 F6000 X155.455 Y98.886
G1 F1200 X153.036 Y96.468 E71.88192
G0 F6000 X152.471 Y96.468
G1 F1200 X155.455 Y99.452 E72.05737
G0 F6000 X155.455 Y100.018
G1 F1200 X151.905 Y96.468 E72.2661
G0 F6000 X151.339 Y96.468
G1 F1200 X155.455 Y100.583 E72.50807
G0 F6000 X155.455 Y101.149
G1 F1200 X150.774 Y96.468 E72.7833
G0 F6000 X150.208 Y96.468
G1 F1200 X155.455 Y101.715 E73.0918
G0 F6000 X155.455 Y102.28
G1 F1200 X149.642 Y96.468 E73.43356
G0 F6000 X149.077 Y96.468
G1 F1200 X155.455 Y102.846 E73.80856
G0 F6000 X155.455 Y103.412
G1 F1200 X148.511 Y96.468 E74.21684
G0 F6000 X147.945 Y96.468
G1 F1200 X155.455 Y103.977 E74.65837
G0 F6000 X155.455 Y104.543
G1 F1200 X147.38 Y96.468 E75.13315
G0 F6000 X146.814 Y96.468
G1 F1200 X155.455 Y105.109 E75.6412
G0 F6000 X155.455 Y105.674
G1 F1200 X146.248 Y96.468 E76.18251
G0 F6000 X145.683 Y96.468
G1 F1200 X155.455 Y106.24 E76.75707
G0 F6000 X155.455 Y106.806
G1 F1200 X145.117 Y96.468 E77.3649
G0 F6000 X144.551 Y96.468
G1 F1200 X155.455 Y107.372 E78.00602
G0 F6000 X155.455 Y107.937
G1 F1200 X143.986 Y96.468 E78.68035
G0 F6000 X143.42 Y96.468
G1 F1200 X155.455 Y108.503 E79.38796
G0 F6000 X155.455 Y109.069
G1 F1200 X142.854 Y96.468 E80.12885
G0 F6000 X142.288 Y96.467
G1 F1200 X155.455 Y109.634 E80.90302
G0 F6000 X155.455 Y110.2
G1 F1200 X141.722 Y96.467 E81.71047
G0 F6000 X141.156 Y96.467
G1 F1200 X155.455 Y110.766 E82.55119
G0 F6000 X155.455 Y111.331
G1 F1200 X140.591 Y96.467 E83.42514
G0 F6000 X140.025 Y96.467
G1 F1200 X155.455 Y111.897 E84.33237
G0 F6000 X155.455 Y112.463
G1 F1200 X139.459 Y96.467 E85.27287
G0 F6000 X138.894 Y96.467
G1 F1200 X155.455 Y113.028 E86.24659
G0 F6000 X155.455 Y113.594
G1 F1200 X138.328 Y96.467 E87.25359
G0 F6000 X137.762 Y96.467
G1 F1200 X155.455 Y114.16 E88.29388
G0 F6000 X155.455 Y114.725
G1 F1200 X137.197 Y96.467 E89.36738
G0 F6000 X136.631 Y96.467
G1 F1200 X155.455 Y115.291 E90.47415
G0 F6000 X155.455 Y115.857
G1 F1200 X136.065 Y96.467 E91.61421
G0 F6000 X135.5 Y96.467
G1 F1200 X155.455 Y116.423 E92.78752
G0 F6000 X155.455 Y116.988
G1 F1200 X134.934 Y96.467 E93.99408
G0 F6000 X134.368 Y96.467
G1 F1200 X155.455 Y117.554 E95.23391
G0 F6000 X155.455 Y118.12
G1 F1200 X133.802 Y96.467 E96.50702
G0 F6000 X133.237 Y96.467
G1 F1200 X155.455 Y118.685 E97.81336
G0 F6000 X155.455 Y119.251
G1 F1200 X132.671 Y96.467 E99.15297
G0 F6000 X132.105 Y96.467
G1 F1200 X155.455 Y119.817 E100.52586
G0 F6000 X155.455 Y120.382
G1 F1200 X131.54 Y96.467 E101.93197
G0 F6000 X130.974 Y96.467
G1 F1200 X155.455 Y120.948 E103.37136
G0 F6000 X155.455 Y121.514
G1 F1200 X130.408 Y96.467 E104.84403
G0 F6000 X129.842 Y96.467
G1 F1200 X155.455 Y122.079 E106.34994
G0 F6000 X155.455 Y122.645
G1 F1200 X129.276 Y96.467 E107.88914
G0 F6000 X128.711 Y96.467
G1 F1200 X155.455 Y123.211 E109.46158
G0 F6000 X155.455 Y123.776
G1 F1200 X128.145 Y96.467 E111.06728
G0 F6000 X127.579 Y96.467
G1 F1200 X155.455 Y124.342 E112.70625
G0 F6000 X155.455 Y124.908
G1 F1200 X127.014 Y96.467 E114.37847
G0 F6000 X126.448 Y96.467
G1 F1200 X155.455 Y125.473 E116.08394
G0 F6000 X155.455 Y126.039
G1 F1200 X125.882 Y96.467 E117.82269
G0 F6000 X125.316 Y96.467
G1 F1200 X155.455 Y126.605 E119.59472
G0 F6000 X155.455 Y127.171
G1 F1200 X124.751 Y96.467 E121.4
G0 F6000 X124.185 Y96.467
G1 F1200 X155.455 Y127.736 E123.23852
G0 F6000 X155.455 Y128.302
G1 F1200 X123.619 Y96.467 E125.11033
G0 F6000 X123.054 Y96.467
G1 F1200 X155.455 Y128.868 E127.01538
G0 F6000 X155.455 Y129.433
G1 F1200 X122.488 Y96.467 E128.95369
G0 F6000 X121.922 Y96.467
G1 F1200 X155.455 Y129.999 E130.92527
G0 F6000 X155.455 Y130.565
G1 F1200 X121.357 Y96.467 E132.9301
G0 F6000 X120.791 Y96.467
G1 F1200 X155.455 Y131.13 E134.96818
G0 F6000 X155.455 Y131.696
G1 F1200 X120.225 Y96.467 E137.03954
G0 F6000 X119.66 Y96.467
G1 F1200 X155.455 Y132.262 E139.14415
G0 F6000 X155.455 Y132.827
G1 F1200 X119.094 Y96.467 E141.28201
G0 F6000 X118.528 Y96.467
G1 F1200 X155.455 Y133.393 E143.45315
G0 F6000 X155.455 Y133.959
G1 F1200 X117.963 Y96.467 E145.65753
G0 F6000 X117.396 Y96.466
G1 F1200 X155.455 Y134.524 E147.89523
G0 F6000 X155.455 Y135.09
G1 F1200 X116.831 Y96.466 E150.16617
G0 F6000 X116.265 Y96.466
G1 F1200 X155.455 Y135.656 E152.47039
G0 F6000 X155.455 Y136.222
G1 F1200 X115.699 Y96.466 E154.80789
G0 F6000 X115.133 Y96.466
G1 F1200 X155.455 Y136.787 E157.17864
G0 F6000 X155.455 Y137.353
G1 F1200 X114.568 Y96.466 E159.58264
G0 F6000 X114.002 Y96.466
G1 F1200 X155.455 Y137.919 E162.01992
G0 F6000 X155.455 Y138.484
G1 F1200 X113.436 Y96.466 E164.49045
G0 F6000 X112.871 Y96.466
G1 F1200 X154.939 Y138.534 E166.96388
G0 F6000 X154.374 Y138.534
G1 F1200 X112.305 Y96.466 E169.43735
G0 F6000 X111.739 Y96.466
G1 F1200 X153.808 Y138.534 E171.91082
G0 F6000 X153.242 Y138.534
G1 F1200 X111.174 Y96.466 E174.38425
G0 F6000 X110.608 Y96.466
G1 F1200 X152.677 Y138.534 E176.85772
G0 F6000 X152.111 Y138.534
G1 F1200 X110.042 Y96.466 E179.33119
G0 F6000 X109.477 Y96.466
G1 F1200 X151.545 Y138.534 E181.80462
G0 F6000 X150.98 Y138.534
G1 F1200 X108.911 Y96.466 E184.27809
G0 F6000 X108.345 Y96.466
G1 F1200 X150.414 Y138.534 E186.75156
G0 F6000 X149.848 Y138.534
G1 F1200 X107.78 Y96.466 E189.22499
G0 F6000 X107.214 Y96.466
G1 F1200 X149.282 Y138.534 E191.69843
G0 F6000 X148.717 Y138.534
G1 F1200 X106.648 Y96.466 E194.1719
G0 F6000 X106.082 Y96.466
G1 F1200 X148.151 Y138.534 E196.64536
G0 F6000 X147.585 Y138.534
G1 F1200 X105.517 Y96.466 E199.1188
G0 F6000 X104.951 Y96.466
G1 F1200 X147.02 Y138.534 E201.59227
G0 F6000 X146.454 Y138.534
G1 F1200 X104.385 Y96.465 E204.06576
G0 F6000 X103.819 Y96.465
G1 F1200 X145.888 Y138.534 E206.53926
G0 F6000 X145.323 Y138.534
G1 F1200 X103.253 Y96.465 E209.01278
G0 F6000 X102.688 Y96.465
G1 F1200 X144.757 Y138.534 E211.48628
G0 F6000 X144.191 Y138.534
G1 F1200 X102.122 Y96.465 E213.95978
G0 F6000 X101.556 Y96.465
G1 F1200 X143.626 Y138.534 E216.4333
G0 F6000 X143.06 Y138.534
G1 F1200 X100.991 Y96.465 E218.9068
G0 F6000 X100.425 Y96.465
G1 F1200 X142.494 Y138.534 E221.38029
G0 F6000 X141.928 Y138.534
G1 F1200 X99.859 Y96.465 E223.85379
G0 F6000 X99.294 Y96.465
G1 F1200 X141.362 Y138.534 E226.32726
G0 F6000 X140.796 Y138.534
G1 F1200 X98.728 Y96.465 E228.80072
G0 F6000 X98.162 Y96.465
G1 F1200 X140.231 Y138.534 E231.27422
G0 F6000 X139.665 Y138.534
G1 F1200 X97.596 Y96.465 E233.74772
G0 F6000 X97.031 Y96.465
G1 F1200 X139.099 Y138.534 E236.22118
G0 F6000 X138.534 Y138.534
G1 F1200 X96.465 Y96.465 E238.69468
G0 F6000 X95.899 Y96.465
G1 F1200 X137.968 Y138.534 E241.16817
G0 F6000 X137.402 Y138.534
G1 F1200 X95.334 Y96.465 E243.64164
G0 F6000 X94.768 Y96.465
G1 F1200 X136.837 Y138.534 E246.11514
G0 F6000 X136.271 Y138.534
G1 F1200 X94.202 Y96.465 E248.58863
G0 F6000 X93.637 Y96.465
G1 F1200 X135.705 Y138.534 E251.0621
G0 F6000 X135.14 Y138.534
G1 F1200 X93.071 Y96.465 E253.53559
G0 F6000 X92.505 Y96.465
G1 F1200 X134.574 Y138.534 E256.00909
G0 F6000 X134.008 Y138.534
G1 F1200 X91.939 Y96.464 E258.48262
G0 F6000 X91.373 Y96.464
G1 F1200 X133.443 Y138.534 E260.95617
G0 F6000 X132.877 Y138.534
G1 F1200 X90.808 Y96.464 E263.4297
G0 F6000 X90.242 Y96.464
G1 F1200 X132.311 Y138.534 E265.90322
G0 F6000 X131.746 Y138.534
G1 F1200 X89.676 Y96.464 E268.37678
G0 F6000 X89.111 Y96.464
G1 F1200 X131.18 Y138.534 E270.8503
G0 F6000 X130.614 Y138.534
G1 F1200 X88.545 Y96.464 E273.32383
G0 F6000 X87.979 Y96.464
G1 F1200 X130.048 Y138.533 E275.79732
G0 F6000 X129.482 Y138.533
G1 F1200 X87.413 Y96.464 E278.27082
G0 F6000 X86.848 Y96.464
G1 F1200 X128.916 Y138.533 E280.74429
G0 F6000 X128.351 Y138.533
G1 F1200 X86.282 Y96.464 E283.21778
G0 F6000 X85.716 Y96.464
G1 F1200 X127.785 Y138.533 E285.69128
G0 F6000 X127.219 Y138.533
G1 F1200 X85.151 Y96.464 E288.16474
G0 F6000 X84.585 Y96.464
G1 F1200 X126.654 Y138.533 E290.63824
G0 F6000 X126.088 Y138.533
G1 F1200 X84.019 Y96.464 E293.11174
G0 F6000 X83.454 Y96.464
G1 F1200 X125.522 Y138.533 E295.5852
G0 F6000 X124.957 Y138.533
G1 F1200 X82.888 Y96.464 E298.0587
G0 F6000 X82.322 Y96.464
G1 F1200 X124.391 Y138.533 E300.53219
G0 F6000 X123.825 Y138.533
G1 F1200 X81.757 Y96.464 E303.00566
G0 F6000 X81.191 Y96.464
G1 F1200 X123.26 Y138.533 E305.47916
G0 F6000 X122.694 Y138.533
G1 F1200 X80.625 Y96.464 E307.95265
G0 F6000 X80.06 Y96.464
G1 F1200 X122.128 Y138.533 E310.42612
G0 F6000 X121.562 Y138.533
G1 F1200 X79.545 Y96.515 E312.89659
G0 F6000 X79.545 Y97.081
G1 F1200 X120.997 Y138.533 E315.33381
G0 F6000 X120.431 Y138.533
G1 F1200 X79.545 Y97.647 E317.73775
G0 F6000 X79.545 Y98.212
G1 F1200 X119.865 Y138.533 E320.10844
G0 F6000 X119.3 Y138.533
G1 F1200 X79.545 Y98.778 E322.44588
G0 F6000 X79.545 Y99.344
G1 F1200 X118.734 Y138.533 E324.75004
G0 F6000 X118.168 Y138.533
G1 F1200 X79.545 Y99.909 E327.02096
G0 F6000 X79.545 Y100.475
G1 F1200 X117.603 Y138.533 E329.25862
G0 F6000 X117.036 Y138.532
G1 F1200 X79.545 Y101.041 E331.46295
G0 F6000 X79.545 Y101.607
G1 F1200 X116.471 Y138.532 E333.63403
G0 F6000 X115.905 Y138.532
G1 F1200 X79.545 Y102.172 E335.77185
G0 F6000 X79.545 Y102.738
G1 F1200 X115.339 Y138.532 E337.8764
G0 F6000 X114.774 Y138.532
G1 F1200 X79.545 Y103.304 E339.9477
G0 F6000 X79.545 Y103.869
G1 F1200 X114.208 Y138.532 E341.98576
G0 F6000 X113.642 Y138.532
G1 F1200 X79.545 Y104.435 E343.99053
G0 F6000 X79.545 Y105.001
G1 F1200 X113.076 Y138.532 E345.96202
G0 F6000 X112.511 Y138.532
G1 F1200 X79.545 Y105.566 E347.9003
G0 F6000 X79.545 Y106.132
G1 F1200 X111.945 Y138.532 E349.80529
G0 F6000 X111.379 Y138.532
G1 F1200 X79.545 Y106.698 E351.67701
G0 F6000 X79.545 Y107.263
G1 F1200 X110.814 Y138.532 E353.51551
G0 F6000 X110.248 Y138.532
G1 F1200 X79.545 Y107.829 E355.32073
G0 F6000 X79.545 Y108.395
G1 F1200 X109.682 Y138.532 E357.09267
G0 F6000 X109.117 Y138.532
G1 F1200 X79.545 Y108.96 E358.83139
G0 F6000 X79.545 Y109.526
G1 F1200 X108.551 Y138.532 E360.53683
G0 F6000 X107.985 Y138.532
G1 F1200 X79.545 Y110.092 E362.20899
G0 F6000 X79.545 Y110.657
G1 F1200 X107.42 Y138.532 E363.84794
G0 F6000 X106.854 Y138.532
G1 F1200 X79.545 Y111.223 E365.4536
G0 F6000 X79.545 Y111.789
G1 F1200 X106.288 Y138.532 E367.02599
G0 F6000 X105.723 Y138.532
G1 F1200 X79.545 Y112.355 E368.56512
G0 F6000 X79.545 Y112.92
G1 F1200 X105.157 Y138.532 E370.07101
G0 F6000 X104.59 Y138.532
G1 F1200 X79.545 Y113.486 E371.54359
G0 F6000 X79.545 Y114.052
G1 F1200 X104.025 Y138.532 E372.98292
G0 F6000 X103.459 Y138.532
G1 F1200 X79.545 Y114.617 E374.389
G0 F6000 X79.545 Y115.183
G1 F1200 X102.893 Y138.532 E375.7618
G0 F6000 X102.328 Y138.532
G1 F1200 X79.545 Y115.749 E377.10136
G0 F6000 X79.545 Y116.314
G1 F1200 X101.762 Y138.532 E378.40766
G0 F6000 X101.196 Y138.532
G1 F1200 X79.545 Y116.88 E379.68068
G0 F6000 X79.545 Y117.446
G1 F1200 X100.631 Y138.532 E380.92046
G0 F6000 X100.065 Y138.532
G1 F1200 X79.544 Y118.011 E382.12702
G0 F6000 X79.544 Y118.576
G1 F1200 X99.499 Y138.532 E383.30032
G0 F6000 X98.934 Y138.532
G1 F1200 X79.544 Y119.142 E384.44038
G0 F6000 X79.544 Y119.708
G1 F1200 X98.368 Y138.532 E385.54716
G0 F6000 X97.802 Y138.532
G1 F1200 X79.544 Y120.273 E386.62069
G0 F6000 X79.544 Y120.839
G1 F1200 X97.237 Y138.532 E387.66097
G0 F6000 X96.671 Y138.532
G1 F1200 X79.544 Y121.405 E388.66797
G0 F6000 X79.544 Y121.97
G1 F1200 X96.105 Y138.532 E389.64173
G0 F6000 X95.54 Y138.532
G1 F1200 X79.544 Y122.536 E390.58223
G0 F6000 X79.544 Y123.102
G1 F1200 X94.974 Y138.532 E391.48945
G0 F6000 X94.408 Y138.532
G1 F1200 X79.544 Y123.668 E392.3634
G0 F6000 X79.544 Y124.233
G1 F1200 X93.842 Y138.532 E393.2041
G0 F6000 X93.277 Y138.532
G1 F1200 X79.544 Y124.799 E394.01155
G0 F6000 X79.544 Y125.365
G1 F1200 X92.711 Y138.532 E394.78571
G0 F6000 X92.145 Y138.531
G1 F1200 X79.544 Y125.93 E395.5266
G0 F6000 X79.544 Y126.496
G1 F1200 X91.579 Y138.531 E396.23422
G0 F6000 X91.013 Y138.531
G1 F1200 X79.544 Y127.062 E396.90855
G0 F6000 X79.544 Y127.627
G1 F1200 X90.448 Y138.531 E397.54966
G0 F6000 X89.882 Y138.531
G1 F1200 X79.544 Y128.193 E398.1575
G0 F6000 X79.544 Y128.759
G1 F1200 X89.316 Y138.531 E398.73205
G0 F6000 X88.751 Y138.531
G1 F1200 X79.544 Y129.324 E399.27339
G0 F6000 X79.544 Y129.89
G1 F1200 X88.185 Y138.531 E399.78145
G0 F6000 X87.619 Y138.531
G1 F1200 X79.544 Y130.456 E400.25623
G0 F6000 X79.544 Y131.021
