;FLAVOR:Marlin
;TIME:423
;Filament used: 0.175628m
;Layer height: 0.2
;MINX:105.1
;MINY:110.866
;MINZ:0.25
;MAXX:129.9
;MAXY:125.65
;MAXZ:8.05
;Generated with Cura_SteamEngine 5.3.0
M140 S85
M105
M190 S85
M104 S240
M105
M109 S240
M82 ;absolute extrusion mode
START_PRINT
G92 E0
G92 E0
G1 F1500 E-8
;LAYER_COUNT:40
;LAYER:0
M107
G0 F6000 X105.64 Y117.166 Z0.25
;TYPE:SKIRT
G1 F1500 E0
G1 F1200 X106.024 Y116.937 E0.01859
G1 X106.462 Y116.85 E0.03715
G1 X114.173 Y116.85 E0.35774
G1 X114.173 Y112.169 E0.55235
G1 X114.266 Y111.787 E0.5687
G1 X114.456 Y111.421 E0.58584
G1 X114.713 Y111.183 E0.60041
G1 X115.097 Y110.954 E0.61899
G1 X115.535 Y110.867 E0.63756
G1 X119.523 Y110.866 E0.80336
G1 X119.907 Y110.959 E0.81979
G1 X120.273 Y111.149 E0.83693
G1 X120.511 Y111.406 E0.8515
G1 X120.74 Y111.79 E0.87008
G1 X120.827 Y112.228 E0.88865
G1 X120.827 Y116.85 E1.08081
G1 X128.598 Y116.85 E1.40389
G1 X128.98 Y116.943 E1.42024
G1 X129.346 Y117.133 E1.43738
G1 X129.584 Y117.39 E1.45194
G1 X129.813 Y117.774 E1.47053
G1 X129.9 Y118.212 E1.4891
G1 X129.9 Y120.348 E1.5779
G1 X129.807 Y120.73 E1.59425
G1 X129.617 Y121.096 E1.61139
G1 X129.36 Y121.334 E1.62596
G1 X128.976 Y121.563 E1.64454
G1 X128.538 Y121.65 E1.66311
G1 X121.65 Y121.65 E1.94948
G1 X121.65 Y124.348 E2.06165
G1 X121.557 Y124.73 E2.07799
G1 X121.367 Y125.096 E2.09514
G1 X121.11 Y125.334 E2.1097
G1 X120.726 Y125.563 E2.12829
G1 X120.288 Y125.65 E2.14686
G1 X114.652 Y125.65 E2.38117
G1 X114.27 Y125.557 E2.39752
G1 X113.904 Y125.367 E2.41466
G1 X113.666 Y125.11 E2.42923
G1 X113.437 Y124.726 E2.44781
G1 X113.35 Y124.288 E2.46638
G1 X113.35 Y121.65 E2.57606
G1 X106.402 Y121.65 E2.86492
G1 X106.02 Y121.557 E2.88127
G1 X105.654 Y121.367 E2.89841
G1 X105.416 Y121.11 E2.91297
G1 X105.187 Y120.726 E2.93156
G1 X105.1 Y120.288 E2.95013
G1 X105.1 Y118.152 E3.03893
G1 X105.193 Y117.77 E3.05528
G1 X105.383 Y117.404 E3.07242
G1 X105.64 Y117.166 E3.08698
G0 F6000 X105.845 Y117.51
G1 F1200 X106.172 Y117.315 E3.10281
G1 X106.5 Y117.25 E3.11672
G1 X114.573 Y117.25 E3.45235
G1 X114.573 Y112.218 E3.66156
G1 X114.643 Y111.929 E3.67392
G1 X114.78 Y111.666 E3.68625
G1 X114.918 Y111.527 E3.69439
G1 X115.245 Y111.332 E3.71022
G1 X115.573 Y111.267 E3.72412
G1 X119.475 Y111.266 E3.88635
G1 X119.765 Y111.336 E3.89875
G1 X120.028 Y111.473 E3.91108
G1 X120.167 Y111.611 E3.91922
G1 X120.362 Y111.938 E3.93505
G1 X120.427 Y112.266 E3.94896
G1 X120.427 Y117.25 E4.15617
G1 X128.549 Y117.25 E4.49384
G1 X128.838 Y117.32 E4.5062
G1 X129.101 Y117.457 E4.51853
G1 X129.24 Y117.595 E4.52667
G1 X129.435 Y117.922 E4.5425
G1 X129.5 Y118.25 E4.55641
G1 X129.5 Y120.299 E4.64159
G1 X129.43 Y120.588 E4.65396
G1 X129.293 Y120.851 E4.66628
G1 X129.155 Y120.99 E4.67443
G1 X128.828 Y121.185 E4.69026
G1 X128.5 Y121.25 E4.70416
G1 X121.25 Y121.25 E5.00558
G1 X121.25 Y124.299 E5.13234
G1 X121.18 Y124.588 E5.1447
G1 X121.043 Y124.851 E5.15703
G1 X120.905 Y124.99 E5.16518
G1 X120.578 Y125.185 E5.181
G1 X120.25 Y125.25 E5.19491
G1 X114.701 Y125.25 E5.42561
G1 X114.412 Y125.18 E5.43797
G1 X114.149 Y125.043 E5.4503
G1 X114.01 Y124.905 E5.45844
G1 X113.815 Y124.578 E5.47427
G1 X113.75 Y124.25 E5.48817
G1 X113.75 Y121.25 E5.6129
G1 X106.451 Y121.25 E5.91636
G1 X106.162 Y121.18 E5.92872
G1 X105.899 Y121.043 E5.94105
G1 X105.76 Y120.905 E5.94919
G1 X105.565 Y120.578 E5.96502
G1 X105.5 Y120.25 E5.97892
G1 X105.5 Y118.201 E6.06411
G1 X105.57 Y117.912 E6.07647
G1 X105.707 Y117.649 E6.0888
G1 X105.845 Y117.51 E6.09694
G0 F6000 X106.05 Y117.854
G1 F1200 X106.32 Y117.693 E6.11001
G1 X106.5 Y117.65 E6.11771
G1 X114.973 Y117.65 E6.46997
G1 X114.973 Y112.267 E6.69377
G1 X115.032 Y112.023 E6.70421
G1 X115.123 Y111.871 E6.71157
G1 X115.393 Y111.71 E6.72464
G1 X115.573 Y111.667 E6.73234
G1 X119.427 Y111.666 E6.89257
G1 X119.671 Y111.725 E6.90301
G1 X119.823 Y111.816 E6.91037
G1 X119.984 Y112.086 E6.92344
G1 X120.027 Y112.266 E6.93113
G1 X120.027 Y117.65 E7.15497
G1 X128.5 Y117.65 E7.50724
G1 X128.744 Y117.709 E7.51768
G1 X128.896 Y117.8 E7.52504
G1 X129.057 Y118.07 E7.53811
G1 X129.1 Y118.25 E7.54581
G1 X129.1 Y120.25 E7.62896
G1 X129.041 Y120.494 E7.63939
G1 X128.95 Y120.646 E7.64676
G1 X128.68 Y120.807 E7.65983
G1 X128.5 Y120.85 E7.66752
G1 X120.683 Y120.85 E7.99252
G1 X120.807 Y121.07 E8.00302
G1 X120.85 Y121.25 E8.01071
G1 X120.85 Y124.25 E8.13544
G1 X120.791 Y124.494 E8.14587
G1 X120.7 Y124.646 E8.15324
G1 X120.43 Y124.807 E8.16631
G1 X120.25 Y124.85 E8.174
G1 X114.75 Y124.85 E8.40266
G1 X114.506 Y124.791 E8.4131
G1 X114.354 Y124.7 E8.42047
G1 X114.193 Y124.43 E8.43354
G1 X114.15 Y124.25 E8.44123
G1 X114.15 Y121.25 E8.56596
G1 X114.209 Y121.006 E8.57639
G1 X114.305 Y120.85 E8.58401
G1 X106.5 Y120.85 E8.9085
G1 X106.256 Y120.791 E8.91894
G1 X106.104 Y120.7 E8.9263
G1 X105.943 Y120.43 E8.93937
G1 X105.9 Y120.25 E8.94707
G1 X105.9 Y118.25 E9.03022
G1 X105.959 Y118.006 E9.04065
G1 X106.05 Y117.854 E9.04802
G0 F6000 X106.339 Y118.131
G1 F1200 X106.5 Y118.05 E9.05551
G1 X115.373 Y118.05 E9.42441
G1 X115.373 Y112.267 E9.66484
G1 X115.412 Y112.148 E9.67004
G1 X115.573 Y112.067 E9.67754
G1 X119.427 Y112.066 E9.83777
G1 X119.546 Y112.105 E9.84297
G1 X119.627 Y112.266 E9.85047
G1 X119.627 Y118.05 E10.09094
G1 X128.5 Y118.05 E10.45984
G1 X128.619 Y118.089 E10.46504
G1 X128.7 Y118.25 E10.47253
G1 X128.7 Y120.25 E10.55568
G1 X128.661 Y120.369 E10.56089
G1 X128.5 Y120.45 E10.56838
G1 X106.5 Y120.45 E11.48304
G1 X106.381 Y120.411 E11.48824
G1 X106.3 Y120.25 E11.49574
G1 X106.3 Y118.25 E11.57889
G1 X106.339 Y118.131 E11.58409
G1 F1500 E3.58409
G0 F6000 X106.339 Y117.585
G0 X105.847 Y117.597
G0 X105.847 Y120.903
G0 X114.589 Y121.131
G1 F1500 E11.58409
G1 F1200 X114.748 Y121.051 E11.59149
G1 X114.81 Y120.907 E11.59801
G1 X114.91 Y120.866 E11.60251
G1 X115.037 Y120.676 E11.61201
G1 X115.136 Y120.65 E11.61626
G1 X119.853 Y120.65 E11.81237
G1 X119.972 Y120.689 E11.81758
G1 X120.073 Y120.858 E11.82576
G1 X120.169 Y120.889 E11.82996
G1 X120.253 Y121.051 E11.83755
G1 X120.369 Y121.089 E11.84262
G1 X120.45 Y121.25 E11.85011
G1 X120.45 Y124.25 E11.97484
G1 X120.411 Y124.369 E11.98004
G1 X120.25 Y124.45 E11.98754
G1 X114.75 Y124.45 E12.2162
G1 X114.631 Y124.411 E12.22141
G1 X114.55 Y124.25 E12.2289
G1 X114.55 Y121.25 E12.35363
G1 X114.589 Y121.131 E12.35883
G0 F6000 X114.95 Y121.44
G1 F1200 X115.037 Y121.411 E12.36265
G1 X115.115 Y121.282 E12.36891
G1 X115.124 Y121.225 E12.37131
G1 X115.166 Y121.211 E12.37315
G1 X115.23 Y121.131 E12.37741
G1 X115.266 Y121.05 E12.3811
G1 X119.719 Y121.05 E12.56623
G1 X119.75 Y121.126 E12.56964
G1 X119.831 Y121.221 E12.57483
G1 X119.878 Y121.234 E12.57686
G1 X119.886 Y121.283 E12.57893
G1 X119.943 Y121.393 E12.58408
G1 X120.05 Y121.437 E12.58889
G1 X120.05 Y124.05 E12.69752
G1 X114.95 Y124.05 E12.90956
G1 X114.95 Y121.44 E13.01807
G0 F6000 X115.35 Y121.657
G1 F1200 X115.452 Y121.524 E13.02504
G1 X115.471 Y121.465 E13.02761
G1 X115.482 Y121.45 E13.02839
G1 X119.491 Y121.45 E13.19506
G1 X119.498 Y121.461 E13.1956
G1 X119.544 Y121.495 E13.19798
G1 X119.565 Y121.553 E13.20055
G1 X119.65 Y121.651 E13.20594
G1 X119.65 Y123.65 E13.28905
G1 X115.35 Y123.65 E13.46782
G1 X115.35 Y121.657 E13.55068
G0 F6000 X115.75 Y121.85
G1 F1200 X119.25 Y121.85 E13.69619
G1 X119.25 Y123.25 E13.7544
G1 X115.75 Y123.25 E13.89991
G1 X115.75 Y121.85 E13.95812
G0 F6000 X116.15 Y122.25
G1 F1200 X118.85 Y122.25 E14.07037
G1 X118.85 Y122.85 E14.09531
G1 X116.15 Y122.85 E14.20757
G1 X116.15 Y122.25 E14.23251
G1 F1500 E6.23251
;MESH:SwitchZ4_V3.stl
G0 F6000 X116.15 Y119.83
G0 X127.9 Y119.65
;TYPE:WALL-INNER
G1 F1500 E14.23251
G1 F1200 X127.9 Y118.85 E14.26577
G1 X119.427 Y118.85 E14.61804
G1 X118.957 Y118.625 E14.6397
G1 X118.827 Y118.273 E14.6553
G1 X118.827 Y112.867 E14.88006
G1 X116.173 Y112.867 E14.9904
G1 X116.173 Y118.273 E15.21516
G1 X116.042 Y118.625 E15.23077
G1 X115.664 Y118.85 E15.24906
G1 X107.1 Y118.85 E15.60511
G1 X107.1 Y119.65 E15.63837
G1 X127.9 Y119.65 E16.50313
G0 F6000 X128.3 Y120.05
;TYPE:WALL-OUTER
G1 F1200 X128.3 Y118.45 E16.56965
G1 X119.427 Y118.45 E16.93855
G1 X119.27 Y118.375 E16.94578
G1 X119.227 Y118.258 E16.95097
G1 X119.227 Y112.467 E17.19173
G1 X115.773 Y112.467 E17.33533
G1 X115.773 Y118.258 E17.57609
G1 X115.73 Y118.375 E17.58127
G1 X115.608 Y118.448 E17.58718
G1 X106.7 Y118.45 E17.95753
G1 X106.7 Y120.05 E18.02405
G1 X128.3 Y120.05 E18.92208
G0 F6000 X128.03 Y119.78
G0 X107.272 Y119.478
G0 X107.272 Y119.022
G0 X107.5 Y119.25
;TYPE:SKIN
G1 F995.9 X115.723 Y119.249 E19.33403
G0 F6000 X115.723 Y119.55
G0 X119.408 Y119.55
G0 X119.408 Y119.258
G1 F1170.7 X118.66 Y119.289 E19.36594
G1 F1200 X116.375 Y119.289 E19.46094
G1 F1140.1 X115.743 Y119.25 E19.48864
G1 X116.268 Y118.897 E19.51633
G1 F1200 X116.353 Y118.794 E19.52188
G1 X116.533 Y118.31 E19.54335
G1 X116.533 Y113.227 E19.75468
G1 X118.467 Y113.227 E19.83508
G1 X118.467 Y118.311 E20.04645
G1 X118.647 Y118.793 E20.06784
G1 X118.748 Y118.903 E20.07405
G1 F1170.7 X119.408 Y119.258 E20.10599
G0 F6000 X119.434 Y119.25
G1 F1000 X127.5 Y119.25 E20.5084
G0 F6000 X127.5 Y118.95
G0 X127.728 Y119.478
G0 X118.519 Y119.55
G0 X118.519 Y119.085
G1 F1200 X116.732 Y117.297 E20.6135
G0 F6000 X116.732 Y116.732
G1 F1200 X118.267 Y118.267 E20.70375
G0 F6000 X118.267 Y117.701
M104 S235
G1 F1200 X116.732 Y116.166 E20.794
G0 F6000 X116.732 Y115.6
G1 F1200 X118.267 Y117.135 E20.88425
G0 F6000 X118.267 Y116.57
G1 F1200 X116.732 Y115.034 E20.97454
G0 F6000 X116.732 Y114.469
G1 F1200 X118.267 Y116.004 E21.06479
G0 F6000 X118.267 Y115.438
G1 F1200 X116.732 Y113.903 E21.15504
G0 F6000 X116.821 Y113.426
G1 F1200 X118.267 Y114.873 E21.24009
G0 F6000 X118.267 Y114.307
G1 F1200 X117.386 Y113.426 E21.29189
G0 F6000 X117.952 Y113.426
G1 F1200 X118.267 Y113.741 E21.31041
G0 F6000 X118.267 Y112.967
G0 X116.345 Y113.039
G0 X116.273 Y117.863
G0 X116.732 Y117.863
G1 F1200 X117.954 Y119.085 E21.38226
G0 F6000 X117.389 Y119.086
G1 F1200 X116.71 Y118.407 E21.42218
G0 F6000 X116.556 Y118.819
G1 F1200 X116.824 Y119.087 E21.43794
G1 F1500 E13.43794
;MESH:NOMESH
G0 F300 X116.824 Y119.087 Z0.45
G0 F6000 X116.824 Y119.55
G0 X115.266 Y119.83
G0 X115.266 Y121.05
;TIME_ELAPSED:36.900770
;LAYER:1
M140 S80
M106 S42.5
;TYPE:SUPPORT
G1 F1500 E21.43794
G1 F1275 X119.717 Y121.05 E21.58598
G1 X119.796 Y121.196 E21.5915
G1 X119.877 Y121.238 E21.59453
G1 X119.918 Y121.365 E21.59897
G1 X120.05 Y121.433 E21.60391
G1 X120.05 Y124.05 E21.69095
G1 X114.95 Y124.05 E21.86058
G1 X114.95 Y121.434 E21.94759
G1 X115.083 Y121.365 E21.95257
G1 X115.126 Y121.227 E21.95738
G1 X115.193 Y121.188 E21.95996
G1 X115.266 Y121.05 E21.96515
G1 F1500 E13.96515
G0 F7500 X116 Y123.77
G1 F1500 E21.96515
G1 F1275 X115.23 Y123.77 E21.99076
G1 X115.23 Y121.579 E22.06363
G1 X115.304 Y121.54 E22.06642
G1 X115.433 Y121.33 E22.07461
G1 X116 Y121.33 E22.09347
G1 X119.554 Y121.33 E22.21168
G1 X119.701 Y121.542 E22.22026
G1 X119.77 Y121.578 E22.22285
G1 X119.77 Y123.77 E22.29575
G1 X116 Y123.77 E22.42114
G1 X116 Y121.33 E22.5023
G1 F1500 E14.5023
;MESH:SwitchZ4_V3.stl
G0 F7500 X116 Y119.83
G0 X127.9 Y119.65
;TYPE:WALL-INNER
G1 F1500 E22.5023
G1 F1275 X127.9 Y118.85 E22.52891
G1 X119.427 Y118.85 E22.81072
G1 X118.957 Y118.625 E22.82805
G1 X118.827 Y118.273 E22.84053
G1 X118.827 Y112.59 E23.02955
G1 X116.173 Y112.59 E23.11782
G1 X116.173 Y118.273 E23.30684
G1 X116.042 Y118.625 E23.31933
G1 X115.664 Y118.85 E23.33396
G1 X107.1 Y118.85 E23.6188
G1 X107.1 Y119.65 E23.64541
G1 X127.9 Y119.65 E24.33722
G0 F7500 X128.3 Y120.05
;TYPE:WALL-OUTER
G1 F1275 X128.3 Y118.45 E24.39044
G1 X119.427 Y118.45 E24.68555
G1 X119.27 Y118.375 E24.69134
G1 X119.227 Y118.258 E24.69549
G1 X119.227 Y112.19 E24.89731
G1 X115.773 Y112.19 E25.01219
G1 X115.773 Y118.258 E25.21401
G1 X115.73 Y118.375 E25.21816
G1 X115.608 Y118.448 E25.22289
G1 X106.7 Y118.45 E25.51917
G1 X106.7 Y120.05 E25.57239
G1 X128.3 Y120.05 E26.2908
G0 F7500 X128.03 Y119.78
G0 X107.272 Y119.478
G0 X107.272 Y119.022
G0 X107.5 Y119.25
;TYPE:SKIN
G1 F1058.1 X115.723 Y119.249 E26.62037
G0 F7500 X115.723 Y119.55
G0 X119.408 Y119.55
G0 X119.408 Y119.258
G1 F1243.9 X118.66 Y119.289 E26.64589
G1 F1275 X116.375 Y119.289 E26.72189
G1 F1211.4 X115.743 Y119.25 E26.74406
G1 X116.268 Y118.897 E26.7662
G1 F1275 X116.353 Y118.794 E26.77065
G1 X116.533 Y118.31 E26.78782
G1 X116.533 Y112.95 E26.96609
G1 X118.467 Y112.95 E27.03042
G1 X118.467 Y118.311 E27.20873
G1 X118.647 Y118.793 E27.22584
G1 X118.748 Y118.903 E27.23081
G1 F1243.9 X119.408 Y119.258 E27.25636
G0 F7500 X119.434 Y119.25
G1 F1062.5 X127.5 Y119.25 E27.57829
G0 F7500 X127.5 Y118.95
G0 X118.874 Y118.682
G0 X118.584 Y119.003
G1 F1275 X118.501 Y119.085 E27.58217
G0 F7500 X118.377 Y118.644
G1 F1275 X117.935 Y119.086 E27.60296
G0 F7500 X117.369 Y119.087
G1 F1275 X118.266 Y118.19 E27.64515
G0 F7500 X118.266 Y117.624
G1 F1275 X116.802 Y119.088 E27.71401
G0 F7500 X116.587 Y118.737
G1 F1275 X118.266 Y117.058 E27.79299
G0 F7500 X118.266 Y116.493
G1 F1275 X116.732 Y118.026 E27.86512
G0 F7500 X116.732 Y117.461
G1 F1275 X118.266 Y115.927 E27.93727
G0 F7500 X118.266 Y115.361
G1 F1275 X116.732 Y116.895 E28.00943
G0 F7500 X116.732 Y116.329
G1 F1275 X118.266 Y114.795 E28.08158
G0 F7500 X118.266 Y114.23
G1 F1275 X116.732 Y115.763 E28.15371
G0 F7500 X116.732 Y115.198
G1 F1275 X118.266 Y113.664 E28.22587
G0 F7500 X118.215 Y113.149
G1 F1275 X116.732 Y114.632 E28.29562
G0 F7500 X116.732 Y114.066
G1 F1275 X117.649 Y113.149 E28.33876
G0 F7500 X117.084 Y113.149
G1 F1275 X116.732 Y113.501 E28.35531
G1 F1500 E20.35531
;MESH:NOMESH
G0 F300 X116.732 Y113.501 Z0.65
G0 F7500 X116.732 Y112.69
G0 X116.345 Y112.762
G0 X116.001 Y118.678
G0 X107.272 Y119.022
G0 X107.272 Y119.478
G0 X115.266 Y119.83
G0 X115.266 Y121.05
;TIME_ELAPSED:52.841896
;LAYER:2
M106 S85
;TYPE:SUPPORT
G1 F1500 E28.35531
G1 F1350 X119.717 Y121.05 E28.50335
G1 X119.796 Y121.196 E28.50888
G1 X119.877 Y121.238 E28.51191
G1 X119.918 Y121.365 E28.51635
G1 X120.05 Y121.433 E28.52129
G1 X120.05 Y124.05 E28.60833
G1 X114.95 Y124.05 E28.77796
G1 X114.95 Y121.434 E28.86497
G1 X115.083 Y121.365 E28.86995
G1 X115.126 Y121.227 E28.87476
G1 X115.193 Y121.188 E28.87733
G1 X115.266 Y121.05 E28.88253
G1 F1500 E20.88253
G0 F9000 X116 Y123.77
G1 F1500 E28.88253
G1 F1350 X115.23 Y123.77 E28.90814
G1 X115.23 Y121.579 E28.98101
G1 X115.304 Y121.54 E28.98379
G1 X115.433 Y121.33 E28.99199
G1 X116 Y121.33 E29.01085
G1 X119.554 Y121.33 E29.12905
G1 X119.701 Y121.542 E29.13764
G1 X119.77 Y121.578 E29.14022
G1 X119.77 Y123.77 E29.21313
G1 X116 Y123.77 E29.33852
G1 X116 Y121.33 E29.41968
G1 F1500 E21.41968
;MESH:SwitchZ4_V3.stl
G0 F9000 X116 Y119.83
G0 X127.9 Y119.65
;TYPE:WALL-INNER
G1 F1500 E29.41968
G1 F1350 X127.9 Y118.85 E29.44628
G1 X119.427 Y118.85 E29.7281
G1 X118.957 Y118.625 E29.74543
G1 X118.827 Y118.273 E29.75791
G1 X118.827 Y112.457 E29.95135
G1 X116.173 Y112.457 E30.03962
G1 X116.173 Y118.273 E30.23306
G1 X116.042 Y118.625 E30.24555
G1 X115.664 Y118.85 E30.26019
G1 X107.1 Y118.85 E30.54503
G1 X107.1 Y119.65 E30.57163
G1 X127.9 Y119.65 E31.26344
G0 F9000 X128.3 Y120.05
;TYPE:WALL-OUTER
G1 F1350 X128.3 Y118.45 E31.31666
G1 X119.427 Y118.45 E31.61178
G1 X119.27 Y118.375 E31.61756
G1 X119.227 Y118.258 E31.62171
G1 X119.227 Y112.057 E31.82796
G1 X115.773 Y112.057 E31.94284
G1 X115.773 Y118.258 E32.14908
G1 X115.73 Y118.375 E32.15323
G1 X115.608 Y118.448 E32.15796
G1 X106.7 Y118.45 E32.45424
G1 X106.7 Y120.05 E32.50746
G1 X128.3 Y120.05 E33.22587
G0 F9000 X128.03 Y119.78
G0 X107.272 Y119.478
G0 X107.272 Y119.022
G0 X107.5 Y119.25
;TYPE:SKIN
G1 F1120.3 X115.723 Y119.249 E33.55544
G0 F9000 X115.723 Y119.55
G0 X119.408 Y119.55
G0 X119.408 Y119.258
G1 F1317.1 X118.66 Y119.289 E33.58096
G1 F1350 X116.375 Y119.289 E33.65696
G1 F1282.7 X115.743 Y119.25 E33.67913
G1 X116.268 Y118.897 E33.70127
G1 F1350 X116.353 Y118.794 E33.70572
G1 X116.533 Y118.31 E33.72289
G1 X116.533 Y112.817 E33.90559
G1 X118.467 Y112.817 E33.96991
G1 X118.467 Y118.311 E34.15265
G1 X118.647 Y118.793 E34.16976
G1 X118.748 Y118.903 E34.17472
G1 F1317.1 X119.408 Y119.258 E34.20027
G0 F9000 X119.434 Y119.25
G1 F1125 X127.5 Y119.25 E34.52221
G0 F9000 X127.5 Y118.95
G0 X127.728 Y119.478
G0 X118.519 Y119.55
