;FLAVOR:Marlin
;TIME:4634
;Filament used: 2.69539m
;Layer height: 0.2
;MINX:98.064
;MINY:77.001
;MINZ:0.25
;MAXX:136.938
;MAXY:158
;MAXZ:15.05
;Generated with Cura_SteamEngine 5.3.0
M140 S85
M105
M190 S85
M104 S240
M105
M109 S240
M82 ;absolute extrusion mode
START_PRINT
G92 E0
G92 E0
G1 F1500 E-8
;LAYER_COUNT:75
;LAYER:0
M107
G0 F6000 X102.346 Y84.246 Z0.25
;TYPE:SKIRT
G1 F1500 E0
G1 F1200 X102.836 Y83.662 E0.03169
G1 X103.629 Y82.81 E0.08009
G1 X104.296 Y82.17 E0.11852
G1 X104.783 Y81.735 E0.14566
G1 X105.263 Y81.338 E0.17156
G1 X105.769 Y80.943 E0.19825
G1 X106.296 Y80.556 E0.22543
G1 X106.841 Y80.188 E0.25277
G1 X107.386 Y79.844 E0.27957
G1 X107.933 Y79.523 E0.30594
G1 X108.485 Y79.224 E0.33204
G1 X109.065 Y78.934 E0.359
G1 X109.657 Y78.66 E0.38612
G1 X110.25 Y78.409 E0.41289
G1 X110.86 Y78.174 E0.44007
G1 X111.464 Y77.966 E0.46663
G1 X112.088 Y77.773 E0.49378
G1 X112.703 Y77.607 E0.52026
G1 X113.342 Y77.456 E0.54756
G1 X113.961 Y77.333 E0.5738
G1 X114.588 Y77.226 E0.60025
G1 X115.241 Y77.135 E0.62766
G1 X115.865 Y77.072 E0.65373
G1 X116.532 Y77.024 E0.68153
G1 X117.15 Y77.005 E0.70724
G1 X117.818 Y77.001 E0.73501
G1 X118.469 Y77.025 E0.7621
G1 X119.069 Y77.065 E0.7871
G1 X119.708 Y77.12 E0.81376
G1 X120.375 Y77.209 E0.84174
G1 X121.004 Y77.311 E0.86823
G1 X121.605 Y77.429 E0.89369
G1 X122.263 Y77.585 E0.92181
G1 X122.882 Y77.75 E0.94844
G1 X123.484 Y77.935 E0.97462
G1 X124.117 Y78.146 E1.00237
G1 X124.701 Y78.365 E1.0283
G1 X125.298 Y78.618 E1.05525
G1 X125.801 Y78.843 E1.07816
G1 X126.478 Y79.174 E1.10949
G1 X127.048 Y79.484 E1.13647
G1 X127.604 Y79.805 E1.16316
G1 X128.153 Y80.148 E1.19007
G1 X128.69 Y80.509 E1.21698
G1 X129.194 Y80.873 E1.24282
G1 X129.718 Y81.276 E1.27031
G1 X130.215 Y81.687 E1.29712
G1 X130.684 Y82.105 E1.32324
G1 X131.156 Y82.547 E1.35012
G1 X131.615 Y83.014 E1.37735
G1 X132.053 Y83.487 E1.40415
G1 X132.483 Y83.978 E1.43128
G1 X132.886 Y84.476 E1.45792
G1 X133.269 Y84.981 E1.48427
G1 X133.641 Y85.509 E1.51112
G1 X134.007 Y86.059 E1.53859
G1 X134.325 Y86.581 E1.564
G1 X134.646 Y87.152 E1.59123
G1 X134.957 Y87.738 E1.61881
G1 X135.238 Y88.318 E1.64561
G1 X135.496 Y88.9 E1.67208
G1 X135.737 Y89.495 E1.69877
G1 X135.953 Y90.091 E1.72512
G1 X136.168 Y90.735 E1.75335
G1 X136.343 Y91.341 E1.77957
G1 X136.511 Y91.998 E1.80777
G1 X136.72 Y93 E1.85032
G1 X136.812 Y93.596 E1.87539
G1 X136.877 Y94.14 E1.89817
G1 X136.918 Y94.682 E1.92077
G1 X136.934 Y95.171 E1.94111
G1 X136.938 Y95.715 E1.96373
G1 X136.918 Y96.217 E1.98462
G1 X136.882 Y96.766 E2.00749
G1 X136.827 Y97.25 E2.02774
G1 X136.754 Y97.785 E2.05019
G1 X136.664 Y98.276 E2.07094
G1 X136.557 Y98.785 E2.09257
G1 X136.433 Y99.29 E2.11419
G1 X136.283 Y99.8 E2.13629
G1 X136.117 Y100.301 E2.15823
G1 X135.747 Y101.311 E2.20295
G1 X135.235 Y102.78 E2.26763
G1 X135.03 Y103.417 E2.29545
G1 X134.771 Y104.275 E2.33271
G1 X134.527 Y105.14 E2.37008
G1 X134.304 Y106.002 E2.40709
G1 X134.099 Y106.868 E2.44409
G1 X133.912 Y107.74 E2.48117
G1 X133.741 Y108.632 E2.51893
G1 X133.585 Y109.503 E2.55572
G1 X133.444 Y110.388 E2.59298
G1 X133.324 Y111.262 E2.62966
G1 X133.22 Y112.153 E2.66695
G1 X133.136 Y113.036 E2.70383
G1 X133.073 Y113.914 E2.74042
G1 X133.027 Y114.73 E2.7744
G1 X132.989 Y115.712 E2.81526
G1 X132.972 Y116.604 E2.85235
G1 X132.971 Y118.479 E2.93031
G1 X132.99 Y119.296 E2.96428
G1 X133.025 Y120.28 E3.00522
G1 X133.072 Y121.08 E3.03854
G1 X133.137 Y121.965 E3.07543
G1 X133.221 Y122.852 E3.11247
G1 X133.324 Y123.732 E3.14931
G1 X133.446 Y124.618 E3.18649
G1 X133.586 Y125.501 E3.22366
G1 X133.756 Y126.461 E3.26419
G1 X133.913 Y127.254 E3.2978
G1 X134.136 Y128.281 E3.34149
G1 X134.314 Y129.03 E3.3735
G1 X134.528 Y129.86 E3.40914
G1 X134.771 Y130.723 E3.44641
G1 X135.031 Y131.586 E3.48388
G1 X135.286 Y132.386 E3.51879
G1 X135.515 Y133.05 E3.54799
G1 X136.19 Y134.914 E3.63042
G1 X136.454 Y135.793 E3.66857
G1 X136.59 Y136.361 E3.69285
G1 X136.682 Y136.822 E3.7124
G1 X136.778 Y137.391 E3.73639
G1 X136.84 Y137.849 E3.7556
G1 X136.895 Y138.424 E3.77962
G1 X136.925 Y138.894 E3.7992
G1 X136.937 Y139.457 E3.82261
G1 X136.935 Y139.934 E3.84244
G1 X136.909 Y140.464 E3.8645
G1 X136.865 Y140.927 E3.88384
G1 X136.787 Y141.59 E3.91159
G1 X136.704 Y142.083 E3.93238
G1 X136.611 Y142.554 E3.95234
G1 X136.461 Y143.21 E3.98032
G1 X136.3 Y143.814 E4.00631
G1 X136.126 Y144.4 E4.03172
G1 X135.909 Y145.052 E4.06029
G1 X135.691 Y145.631 E4.08601
G1 X135.429 Y146.256 E4.11419
G1 X135.169 Y146.831 E4.14042
G1 X134.9 Y147.381 E4.16588
G1 X134.573 Y147.987 E4.1945
G1 X134.258 Y148.531 E4.22064
G1 X133.908 Y149.092 E4.24813
G1 X133.552 Y149.62 E4.27461
G1 X133.184 Y150.129 E4.30072
G1 X132.778 Y150.662 E4.32857
G1 X132.371 Y151.155 E4.35515
G1 X131.952 Y151.632 E4.38155
G1 X131.526 Y152.085 E4.4074
G1 X131.049 Y152.555 E4.43524
G1 X130.577 Y152.995 E4.46207
G1 X130.101 Y153.411 E4.48835
G1 X129.586 Y153.827 E4.51588
G1 X129.078 Y154.214 E4.54243
G1 X128.554 Y154.586 E4.56914
G1 X128.009 Y154.945 E4.59628
G1 X127.456 Y155.284 E4.62324
G1 X126.908 Y155.594 E4.64942
G1 X126.329 Y155.901 E4.67667
G1 X125.747 Y156.182 E4.70354
G1 X125.171 Y156.439 E4.72976
G1 X124.567 Y156.685 E4.75687
G1 X123.956 Y156.91 E4.78394
G1 X123.356 Y157.106 E4.81019
G1 X122.732 Y157.292 E4.83726
G1 X122.11 Y157.453 E4.86397
G1 X121.472 Y157.597 E4.89116
G1 X120.847 Y157.714 E4.9176
G1 X120.198 Y157.815 E4.9449
G1 X119.568 Y157.889 E4.97128
G1 X118.943 Y157.946 E4.99737
G1 X118.276 Y157.987 E5.02515
G1 X117.643 Y158 E5.05147
G1 X116.982 Y157.996 E5.07896
G1 X116.352 Y157.965 E5.10518
G1 X115.691 Y157.913 E5.13275
G1 X115.066 Y157.843 E5.15889
G1 X114.442 Y157.752 E5.18511
G1 X113.795 Y157.642 E5.2124
G1 X113.204 Y157.518 E5.2375
G1 X112.576 Y157.362 E5.2644
G1 X111.923 Y157.181 E5.29258
G1 X111.354 Y157.002 E5.31738
G1 X110.723 Y156.781 E5.34517
G1 X110.111 Y156.54 E5.37252
G1 X109.537 Y156.291 E5.39853
G1 X108.916 Y155.999 E5.42706
G1 X108.346 Y155.705 E5.45373
G1 X107.794 Y155.401 E5.47992
G1 X107.243 Y155.069 E5.50667
G1 X106.669 Y154.703 E5.53497
G1 X106.171 Y154.353 E5.56028
G1 X105.63 Y153.954 E5.58823
G1 X105.153 Y153.571 E5.61366
G1 X104.64 Y153.141 E5.64149
G1 X104.173 Y152.715 E5.66777
G1 X103.571 Y152.126 E5.70278
G1 X103.006 Y151.526 E5.73705
G1 X102.484 Y150.921 E5.77027
G1 X102.016 Y150.334 E5.80148
G1 X101.258 Y149.264 E5.856
G1 X100.836 Y148.602 E5.88864
G1 X100.611 Y148.218 E5.90714
G1 X100.223 Y147.512 E5.94063
G1 X99.867 Y146.793 E5.97399
G1 X99.685 Y146.394 E5.99222
G1 X99.377 Y145.658 E6.02539
G1 X99.085 Y144.867 E6.06045
G1 X98.833 Y144.091 E6.09437
G1 X98.616 Y143.318 E6.12775
G1 X98.424 Y142.52 E6.16187
G1 X98.302 Y141.896 E6.18831
G1 X98.143 Y140.699 E6.23851
G1 X98.082 Y140.016 E6.26702
G1 X98.065 Y139.421 E6.29177
G1 X98.066 Y138.808 E6.31725
G1 X98.085 Y138.37 E6.33548
G1 X98.162 Y137.555 E6.36951
G1 X98.247 Y136.917 E6.39627
G1 X98.348 Y136.362 E6.41973
G1 X98.502 Y135.684 E6.44863
G1 X98.633 Y135.207 E6.4692
G1 X98.869 Y134.451 E6.50212
G1 X99.286 Y133.331 E6.55181
G1 X99.57 Y132.535 E6.58695
G1 X100.01 Y131.204 E6.64523
G1 X100.37 Y130.002 E6.6974
G1 X100.549 Y129.355 E6.72531
G1 X100.721 Y128.682 E6.75419
G1 X101.04 Y127.312 E6.81267
G1 X101.342 Y125.827 E6.87567
G1 X101.547 Y124.603 E6.92727
G1 X101.769 Y123.033 E6.99319
G1 X101.845 Y122.372 E7.02085
G1 X101.955 Y121.144 E7.07211
G1 X102.002 Y120.435 E7.10165
G1 X102.043 Y119.625 E7.13537
G1 X102.085 Y118.187 E7.19518
G1 X102.086 Y116.689 E7.25746
G1 X102.038 Y115.216 E7.31873
G1 X101.994 Y114.469 E7.34984
G1 X101.884 Y113.1 E7.40694
G1 X101.802 Y112.283 E7.44108
G1 X101.728 Y111.65 E7.46758
G1 X101.519 Y110.204 E7.52832
G1 X101.281 Y108.855 E7.58527
G1 X101.148 Y108.171 E7.61424
G1 X101.008 Y107.511 E7.64229
G1 X100.706 Y106.241 E7.69656
G1 X100.537 Y105.594 E7.72437
G1 X100.324 Y104.835 E7.75714
G1 X99.939 Y103.569 E7.81215
G1 X99.69 Y102.81 E7.84536
G1 X99.262 Y101.596 E7.89888
G1 X98.795 Y100.322 E7.95529
G1 X98.604 Y99.697 E7.98247
G1 X98.448 Y99.093 E8.0084
G1 X98.32 Y98.493 E8.03391
G1 X98.212 Y97.87 E8.0602
G1 X98.139 Y97.293 E8.08438
G1 X98.084 Y96.599 E8.11332
G1 X98.065 Y96.01 E8.13782
G1 X98.064 Y95.375 E8.16422
G1 X98.083 Y94.937 E8.18245
G1 X98.165 Y94.069 E8.21869
G1 X98.288 Y93.214 E8.25461
G1 X98.469 Y92.293 E8.29363
G1 X98.664 Y91.494 E8.32782
G1 X98.881 Y90.739 E8.36048
G1 X99.153 Y89.94 E8.39557
G1 X99.431 Y89.199 E8.42848
G1 X99.74 Y88.483 E8.4609
G1 X99.931 Y88.071 E8.47978
G1 X100.316 Y87.314 E8.51509
G1 X100.703 Y86.62 E8.54813
G1 X100.924 Y86.262 E8.56562
G1 X101.374 Y85.564 E8.60014
G1 X101.841 Y84.904 E8.63376
G1 X102.346 Y84.246 E8.66824
G0 F6000 X102.653 Y84.503
G1 F1200 X103.129 Y83.935 E8.69905
G1 X103.922 Y83.083 E8.74744
G1 X104.562 Y82.468 E8.78435
G1 X105.038 Y82.043 E8.81088
G1 X105.509 Y81.653 E8.8363
G1 X106.006 Y81.265 E8.86251
G1 X106.52 Y80.887 E8.88904
G1 X107.054 Y80.526 E8.91584
G1 X107.588 Y80.189 E8.94209
G1 X108.124 Y79.875 E8.96792
G1 X108.676 Y79.576 E8.99402
G1 X109.234 Y79.297 E9.01995
G1 X109.813 Y79.028 E9.0465
G1 X110.394 Y78.782 E9.07273
G1 X110.991 Y78.552 E9.09933
G1 X111.582 Y78.348 E9.12532
G1 X112.192 Y78.159 E9.15187
G1 X112.795 Y77.996 E9.17784
G1 X113.42 Y77.848 E9.20454
G1 X114.028 Y77.727 E9.23032
G1 X114.643 Y77.622 E9.25626
G1 X115.281 Y77.533 E9.28304
G1 X115.894 Y77.471 E9.30865
G1 X116.545 Y77.424 E9.33579
G1 X117.152 Y77.405 E9.36104
G1 X117.804 Y77.401 E9.38815
G1 X118.442 Y77.424 E9.41469
G1 X119.035 Y77.464 E9.4394
G1 X119.674 Y77.519 E9.46606
G1 X120.311 Y77.604 E9.49278
G1 X120.927 Y77.704 E9.51873
G1 X121.528 Y77.822 E9.54419
G1 X122.16 Y77.972 E9.5712
G1 X122.779 Y78.137 E9.59783
G1 X123.367 Y78.317 E9.62339
G1 X123.976 Y78.52 E9.65008
G1 X124.545 Y78.734 E9.67536
G1 X125.135 Y78.983 E9.70198
G1 X125.625 Y79.202 E9.7243
G1 X126.287 Y79.526 E9.75494
G1 X126.848 Y79.83 E9.78147
G1 X127.392 Y80.144 E9.80758
G1 X127.93 Y80.48 E9.83395
G1 X128.456 Y80.834 E9.86031
G1 X128.95 Y81.19 E9.88563
G1 X129.463 Y81.584 E9.91252
G1 X129.949 Y81.986 E9.93874
G1 X130.411 Y82.397 E9.96445
G1 X130.871 Y82.827 E9.99063
G1 X131.322 Y83.286 E10.01738
G1 X131.752 Y83.75 E10.04368
G1 X132.172 Y84.23 E10.0702
G1 X132.567 Y84.718 E10.0963
G1 X132.942 Y85.212 E10.12209
G1 X133.308 Y85.73 E10.14846
G1 X133.665 Y86.267 E10.17527
G1 X133.983 Y86.789 E10.20068
G1 X134.293 Y87.339 E10.22693
G1 X134.597 Y87.912 E10.25389
G1 X134.872 Y88.48 E10.28013
G1 X135.125 Y89.05 E10.30606
G1 X135.361 Y89.632 E10.33217
G1 X135.574 Y90.218 E10.35809
G1 X135.784 Y90.846 E10.38562
G1 X135.955 Y91.44 E10.41132
G1 X136.123 Y92.097 E10.43951
G1 X136.325 Y93.061 E10.48046
G1 X136.415 Y93.643 E10.50495
G1 X136.478 Y94.17 E10.52701
G1 X136.518 Y94.695 E10.5489
G1 X136.534 Y95.174 E10.56883
G1 X136.538 Y95.7 E10.5907
G1 X136.519 Y96.191 E10.61113
G1 X136.485 Y96.721 E10.63321
G1 X136.431 Y97.196 E10.65308
G1 X136.361 Y97.713 E10.67477
G1 X136.273 Y98.194 E10.6951
G1 X136.169 Y98.689 E10.71613
G1 X136.049 Y99.177 E10.73703
G1 X135.903 Y99.674 E10.75856
G1 X135.741 Y100.163 E10.77998
G1 X135.371 Y101.173 E10.8247
G1 X134.857 Y102.648 E10.88964
G1 X134.649 Y103.294 E10.91785
G1 X134.388 Y104.159 E10.95542
G1 X134.142 Y105.032 E10.99313
G1 X133.917 Y105.902 E11.03049
G1 X133.71 Y106.776 E11.06783
G1 X133.521 Y107.656 E11.10525
G1 X133.348 Y108.556 E11.14335
G1 X133.191 Y109.433 E11.18039
G1 X133.049 Y110.325 E11.21794
G1 X132.928 Y111.208 E11.255
G1 X132.823 Y112.107 E11.29263
G1 X132.738 Y112.998 E11.32984
G1 X132.674 Y113.885 E11.36681
G1 X132.627 Y114.715 E11.40138
G1 X132.589 Y115.697 E11.44223
G1 X132.572 Y116.596 E11.47962
G1 X132.571 Y118.479 E11.5579
G1 X132.59 Y119.31 E11.59246
G1 X132.625 Y120.294 E11.6334
G1 X132.673 Y121.109 E11.66734
G1 X132.739 Y122.003 E11.70461
G1 X132.824 Y122.898 E11.74199
G1 X132.928 Y123.787 E11.7792
G1 X133.051 Y124.681 E11.81672
G1 X133.192 Y125.571 E11.85418
G1 X133.362 Y126.531 E11.89471
G1 X133.522 Y127.339 E11.92896
G1 X133.747 Y128.374 E11.97299
G1 X133.927 Y129.13 E12.0053
G1 X134.143 Y129.968 E12.04128
G1 X134.388 Y130.838 E12.07886
G1 X134.65 Y131.708 E12.11663
G1 X134.908 Y132.517 E12.15194
G1 X135.139 Y133.186 E12.18136
G1 X135.807 Y135.029 E12.26286
G1 X136.065 Y135.886 E12.30007
G1 X136.201 Y136.454 E12.32435
G1 X136.288 Y136.889 E12.3428
G1 X136.382 Y137.445 E12.36624
G1 X136.442 Y137.887 E12.38479
G1 X136.496 Y138.45 E12.4083
G1 X136.525 Y138.903 E12.42717
G1 X136.537 Y139.455 E12.45013
G1 X136.535 Y139.914 E12.46921
G1 X136.509 Y140.444 E12.49127
G1 X136.468 Y140.881 E12.50952
G1 X136.393 Y141.524 E12.53643
G1 X136.312 Y142.005 E12.55671
G1 X136.221 Y142.465 E12.57621
G1 X136.074 Y143.107 E12.60359
G1 X135.916 Y143.7 E12.6291
G1 X135.746 Y144.274 E12.65399
G1 X135.534 Y144.911 E12.68191
G1 X135.322 Y145.476 E12.70699
G1 X135.064 Y146.091 E12.73472
G1 X134.809 Y146.656 E12.76049
G1 X134.548 Y147.191 E12.78524
G1 X134.227 Y147.787 E12.81339
G1 X133.919 Y148.319 E12.83894
G1 X133.576 Y148.869 E12.86589
G1 X133.228 Y149.386 E12.8918
G1 X132.866 Y149.887 E12.9175
G1 X132.47 Y150.407 E12.94467
G1 X132.07 Y150.891 E12.97078
G1 X131.66 Y151.358 E12.99662
G1 X131.245 Y151.8 E13.02182
G1 X130.776 Y152.263 E13.04922
G1 X130.314 Y152.694 E13.07549
G1 X129.85 Y153.1 E13.10112
G1 X129.343 Y153.509 E13.12821
G1 X128.846 Y153.888 E13.15419
G1 X128.334 Y154.252 E13.18031
G1 X127.8 Y154.604 E13.2069
G1 X127.259 Y154.936 E13.23329
G1 X126.721 Y155.241 E13.259
G1 X126.155 Y155.541 E13.28563
G1 X125.584 Y155.817 E13.312
G1 X125.02 Y156.069 E13.33768
G1 X124.429 Y156.31 E13.36422
G1 X123.832 Y156.53 E13.39067
G1 X123.241 Y156.723 E13.41652
G1 X122.632 Y156.905 E13.44294
G1 X122.022 Y157.063 E13.46914
G1 X121.398 Y157.204 E13.49574
G1 X120.785 Y157.319 E13.52167
G1 X120.151 Y157.418 E13.54835
G1 X119.532 Y157.491 E13.57426
G1 X118.918 Y157.547 E13.59989
G1 X118.268 Y157.587 E13.62697
G1 X117.645 Y157.6 E13.65288
G1 X117.001 Y157.596 E13.67965
G1 X116.383 Y157.566 E13.70537
G1 X115.736 Y157.516 E13.73235
G1 X115.123 Y157.447 E13.758
G1 X114.509 Y157.358 E13.78379
G1 X113.877 Y157.25 E13.81045
G1 X113.301 Y157.13 E13.83491
G1 X112.683 Y156.976 E13.86139
G1 X112.043 Y156.799 E13.889
G1 X111.486 Y156.624 E13.91327
G1 X110.855 Y156.403 E13.94107
G1 X110.27 Y156.173 E13.9672
G1 X109.707 Y155.929 E13.99271
G1 X109.099 Y155.643 E14.02065
G1 X108.539 Y155.355 E14.04683
G1 X108 Y155.058 E14.07241
G1 X107.458 Y154.732 E14.09871
G1 X106.899 Y154.375 E14.12628
G1 X106.408 Y154.031 E14.15121
G1 X105.88 Y153.642 E14.17847
G1 X105.41 Y153.265 E14.20352
G1 X104.91 Y152.845 E14.23067
G1 X104.443 Y152.419 E14.25695
G1 X103.862 Y151.852 E14.2907
G1 X103.309 Y151.264 E14.32426
G1 X102.797 Y150.672 E14.3568
G1 X102.329 Y150.085 E14.38802
G1 X101.595 Y149.049 E14.4408
G1 X101.181 Y148.4 E14.47281
G1 X100.962 Y148.025 E14.49086
G1 X100.574 Y147.319 E14.52435
G1 X100.231 Y146.627 E14.55646
G1 X100.054 Y146.239 E14.5742
G1 X99.752 Y145.519 E14.60666
G1 X99.465 Y144.744 E14.64102
G1 X99.218 Y143.983 E14.67428
G1 X99.005 Y143.225 E14.70701
G1 X98.817 Y142.443 E14.74045
G1 X98.695 Y141.819 E14.76689
G1 X98.541 Y140.663 E14.81537
G1 X98.482 Y140.004 E14.84288
G1 X98.465 Y139.422 E14.86709
G1 X98.466 Y138.825 E14.89191
G1 X98.485 Y138.387 E14.91013
G1 X98.559 Y137.608 E14.94267
G1 X98.641 Y136.989 E14.96863
G1 X98.742 Y136.434 E14.99208
G1 X98.888 Y135.79 E15.01953
G1 X99.015 Y135.326 E15.03953
G1 X99.244 Y134.591 E15.07154
G1 X99.661 Y133.471 E15.12123
G1 X99.947 Y132.67 E15.15659
G1 X100.39 Y131.329 E15.2153
G1 X100.756 Y130.109 E15.26826
G1 X100.935 Y129.462 E15.29617
G1 X101.109 Y128.781 E15.32539
G1 X101.43 Y127.403 E15.38421
G1 X101.737 Y125.893 E15.44828
G1 X101.942 Y124.669 E15.49987
G1 X102.165 Y123.089 E15.56621
G1 X102.242 Y122.418 E15.59429
G1 X102.354 Y121.17 E15.64639
G1 X102.401 Y120.461 E15.67593
G1 X102.443 Y119.637 E15.71023
G1 X102.485 Y118.199 E15.77004
G1 X102.486 Y116.689 E15.83282
G1 X102.438 Y115.203 E15.89463
G1 X102.393 Y114.437 E15.92654
G1 X102.283 Y113.068 E15.98364
G1 X102.2 Y112.243 E16.01811
G1 X102.124 Y111.593 E16.04532
G1 X101.915 Y110.147 E16.10606
G1 X101.675 Y108.786 E16.16352
G1 X101.541 Y108.095 E16.19278
G1 X101.399 Y107.428 E16.22113
