;FLAVOR:Marlin
;TIME:403
;Filament used: 0.161396m
;Layer height: 0.2
;MINX:106.7
;MINY:111.95
;MINZ:0.25
;MAXX:128.3
;MAXY:124.915
;MAXZ:8.05
;Generated with Cura_SteamEngine 5.3.0
M140 S85
M105
M190 S85
M104 S240
M105
M109 S240
M82 ;absolute extrusion mode
START_PRINT
G92 E0
G92 E0
G1 F1500 E-8
;LAYER_COUNT:40
;LAYER:0
M107
;MESH:SwitchZ4_V3.stl
G0 F6000 X127.9 Y119.65 Z0.25
;TYPE:WALL-INNER
G1 F1500 E0
G1 F1200 X127.9 Y118.85 E0.03326
G1 X119.427 Y118.85 E0.38553
G1 X118.957 Y118.625 E0.40719
G1 X118.827 Y118.273 E0.42279
G1 X118.827 Y112.867 E0.64755
G1 X116.173 Y112.867 E0.75789
G1 X116.173 Y118.273 E0.98264
G1 X116.042 Y118.625 E0.99826
G1 X115.664 Y118.85 E1.01655
G1 X107.1 Y118.85 E1.3726
G1 X107.1 Y119.65 E1.40586
G1 X127.9 Y119.65 E2.27062
G0 F6000 X128.3 Y120.05
;TYPE:WALL-OUTER
G1 F1200 X128.3 Y118.45 E2.33714
G1 X119.427 Y118.45 E2.70604
G1 X119.27 Y118.375 E2.71327
G1 X119.227 Y118.258 E2.71845
G1 X119.227 Y112.467 E2.95921
G1 X115.773 Y112.467 E3.10282
G1 X115.773 Y118.258 E3.34358
G1 X115.73 Y118.375 E3.34876
G1 X115.608 Y118.448 E3.35467
G1 X106.7 Y118.45 E3.72502
G1 X106.7 Y120.05 E3.79154
G1 X128.3 Y120.05 E4.68957
G0 F6000 X128.03 Y119.78
G0 X107.272 Y119.478
G0 X107.272 Y119.022
G0 X107.5 Y119.25
;TYPE:SKIN
G1 F995.9 X115.723 Y119.249 E5.10152
G0 F6000 X115.723 Y119.55
G0 X119.408 Y119.55
G0 X119.408 Y119.258
G1 F1170.7 X118.66 Y119.289 E5.13343
G1 F1200 X116.375 Y119.289 E5.22842
G1 F1140.1 X115.743 Y119.25 E5.25613
G1 X116.268 Y118.897 E5.28382
G1 F1200 X116.353 Y118.794 E5.28937
G1 X116.533 Y118.31 E5.31084
G1 X116.533 Y113.227 E5.52216
G1 X118.467 Y113.227 E5.60257
G1 X118.467 Y118.311 E5.81394
G1 X118.647 Y118.793 E5.83533
G1 X118.748 Y118.903 E5.84154
G1 F1170.7 X119.408 Y119.258 E5.87347
G0 F6000 X119.434 Y119.25
G1 F1000 X127.5 Y119.25 E6.27589
G0 F6000 X127.5 Y118.95
G0 X127.728 Y119.478
G0 X118.519 Y119.55
G0 X118.519 Y119.085
G1 F1200 X116.732 Y117.297 E6.38099
G0 F6000 X116.732 Y116.732
G1 F1200 X118.267 Y118.267 E6.47124
G0 F6000 X118.267 Y117.701
M104 S235
G1 F1200 X116.732 Y116.166 E6.56149
G0 F6000 X116.732 Y115.6
G1 F1200 X118.267 Y117.135 E6.65174
G0 F6000 X118.267 Y116.57
G1 F1200 X116.732 Y115.034 E6.74202
G0 F6000 X116.732 Y114.469
G1 F1200 X118.267 Y116.004 E6.83228
G0 F6000 X118.267 Y115.438
G1 F1200 X116.732 Y113.903 E6.92253
G0 F6000 X116.821 Y113.426
G1 F1200 X118.267 Y114.873 E7.00758
G0 F6000 X118.267 Y114.307
G1 F1200 X117.386 Y113.426 E7.05938
G0 F6000 X117.952 Y113.426
G1 F1200 X118.267 Y113.741 E7.0779
G0 F6000 X118.267 Y112.967
G0 X116.345 Y113.039
G0 X116.273 Y117.863
G0 X116.732 Y117.863
G1 F1200 X117.954 Y119.085 E7.14975
G0 F6000 X117.389 Y119.086
G1 F1200 X116.71 Y118.407 E7.18967
G0 F6000 X116.556 Y118.819
G1 F1200 X116.824 Y119.087 E7.20543
G1 F1500 E-0.79457
;MESH:NOMESH
G0 F300 X116.824 Y119.087 Z0.45
G0 F6000 X116.824 Y119.55
G0 X115.266 Y119.83
G0 X115.266 Y121.05
;TIME_ELAPSED:16.507318
;LAYER:1
M140 S80
M106 S42.5
;TYPE:SUPPORT
G1 F1500 E7.20543
G1 F1275 X119.717 Y121.05 E7.35347
G1 X119.796 Y121.196 E7.35899
G1 X119.877 Y121.238 E7.36202
G1 X119.918 Y121.365 E7.36646
G1 X120.05 Y121.433 E7.3714
G1 X120.05 Y124.05 E7.45844
G1 X114.95 Y124.05 E7.62807
G1 X114.95 Y121.434 E7.71508
G1 X115.083 Y121.365 E7.72006
G1 X115.126 Y121.227 E7.72487
G1 X115.193 Y121.188 E7.72745
G1 X115.266 Y121.05 E7.73264
G1 F1500 E-0.26736
G0 F7500 X116 Y123.77
G1 F1500 E7.73264
G1 F1275 X115.23 Y123.77 E7.75825
G1 X115.23 Y121.579 E7.83112
G1 X115.304 Y121.54 E7.8339
G1 X115.433 Y121.33 E7.8421
G1 X116 Y121.33 E7.86096
G1 X119.554 Y121.33 E7.97917
G1 X119.701 Y121.542 E7.98775
G1 X119.77 Y121.578 E7.99033
G1 X119.77 Y123.77 E8.06324
G1 X116 Y123.77 E8.18863
G1 X116 Y121.33 E8.26979
G1 F1500 E0.26979
;MESH:SwitchZ4_V3.stl
G0 F7500 X116 Y119.83
G0 X127.9 Y119.65
;TYPE:WALL-INNER
G1 F1500 E8.26979
G1 F1275 X127.9 Y118.85 E8.29639
G1 X119.427 Y118.85 E8.57821
G1 X118.957 Y118.625 E8.59554
G1 X118.827 Y118.273 E8.60802
G1 X118.827 Y112.59 E8.79704
G1 X116.173 Y112.59 E8.88531
G1 X116.173 Y118.273 E9.07433
G1 X116.042 Y118.625 E9.08682
G1 X115.664 Y118.85 E9.10145
G1 X107.1 Y118.85 E9.38629
G1 X107.1 Y119.65 E9.4129
G1 X127.9 Y119.65 E10.10471
G0 F7500 X128.3 Y120.05
;TYPE:WALL-OUTER
G1 F1275 X128.3 Y118.45 E10.15792
G1 X119.427 Y118.45 E10.45304
G1 X119.27 Y118.375 E10.45883
G1 X119.227 Y118.258 E10.46297
G1 X119.227 Y112.19 E10.6648
G1 X115.773 Y112.19 E10.77968
G1 X115.773 Y118.258 E10.9815
G1 X115.73 Y118.375 E10.98565
G1 X115.608 Y118.448 E10.99037
G1 X106.7 Y118.45 E11.28666
G1 X106.7 Y120.05 E11.33987
G1 X128.3 Y120.05 E12.05829
G0 F7500 X128.03 Y119.78
G0 X107.272 Y119.478
G0 X107.272 Y119.022
G0 X107.5 Y119.25
;TYPE:SKIN
G1 F1058.1 X115.723 Y119.249 E12.38786
G0 F7500 X115.723 Y119.55
G0 X119.408 Y119.55
G0 X119.408 Y119.258
G1 F1243.9 X118.66 Y119.289 E12.41338
G1 F1275 X116.375 Y119.289 E12.48938
G1 F1211.4 X115.743 Y119.25 E12.51154
G1 X116.268 Y118.897 E12.53369
G1 F1275 X116.353 Y118.794 E12.53813
G1 X116.533 Y118.31 E12.55531
G1 X116.533 Y112.95 E12.73358
G1 X118.467 Y112.95 E12.79791
G1 X118.467 Y118.311 E12.97621
G1 X118.647 Y118.793 E12.99333
G1 X118.748 Y118.903 E12.99829
G1 F1243.9 X119.408 Y119.258 E13.02384
G0 F7500 X119.434 Y119.25
G1 F1062.5 X127.5 Y119.25 E13.34577
G0 F7500 X127.5 Y118.95
G0 X118.874 Y118.682
G0 X118.584 Y119.003
G1 F1275 X118.501 Y119.085 E13.34966
G0 F7500 X118.377 Y118.644
G1 F1275 X117.935 Y119.086 E13.37045
G0 F7500 X117.369 Y119.087
G1 F1275 X118.266 Y118.19 E13.41264
G0 F7500 X118.266 Y117.624
G1 F1275 X116.802 Y119.088 E13.4815
G0 F7500 X116.587 Y118.737
G1 F1275 X118.266 Y117.058 E13.56047
G0 F7500 X118.266 Y116.493
G1 F1275 X116.732 Y118.026 E13.63261
G0 F7500 X116.732 Y117.461
G1 F1275 X118.266 Y115.927 E13.70476
G0 F7500 X118.266 Y115.361
G1 F1275 X116.732 Y116.895 E13.77692
G0 F7500 X116.732 Y116.329
G1 F1275 X118.266 Y114.795 E13.84907
G0 F7500 X118.266 Y114.23
G1 F1275 X116.732 Y115.763 E13.9212
G0 F7500 X116.732 Y115.198
G1 F1275 X118.266 Y113.664 E13.99336
G0 F7500 X118.215 Y113.149
G1 F1275 X116.732 Y114.632 E14.06311
G0 F7500 X116.732 Y114.066
G1 F1275 X117.649 Y113.149 E14.10624
G0 F7500 X117.084 Y113.149
G1 F1275 X116.732 Y113.501 E14.1228
G1 F1500 E6.1228
;MESH:NOMESH
G0 F300 X116.732 Y113.501 Z0.65
G0 F7500 X116.732 Y112.69
G0 X116.345 Y112.762
G0 X116.001 Y118.678
G0 X107.272 Y119.022
G0 X107.272 Y119.478
G0 X115.266 Y119.83
G0 X115.266 Y121.05
;TIME_ELAPSED:32.448444
;LAYER:2
M106 S85
;TYPE:SUPPORT
G1 F1500 E14.1228
G1 F1350 X119.717 Y121.05 E14.27084
G1 X119.796 Y121.196 E14.27636
G1 X119.877 Y121.238 E14.2794
G1 X119.918 Y121.365 E14.28384
G1 X120.05 Y121.433 E14.28878
G1 X120.05 Y124.05 E14.37582
G1 X114.95 Y124.05 E14.54544
G1 X114.95 Y121.434 E14.63245
G1 X115.083 Y121.365 E14.63744
G1 X115.126 Y121.227 E14.64224
G1 X115.193 Y121.188 E14.64482
G1 X115.266 Y121.05 E14.65001
G1 F1500 E6.65001
G0 F9000 X116 Y123.77
G1 F1500 E14.65001
G1 F1350 X115.23 Y123.77 E14.67562
G1 X115.23 Y121.579 E14.7485
G1 X115.304 Y121.54 E14.75128
G1 X115.433 Y121.33 E14.75948
G1 X116 Y121.33 E14.77834
G1 X119.554 Y121.33 E14.89654
G1 X119.701 Y121.542 E14.90512
G1 X119.77 Y121.578 E14.90771
G1 X119.77 Y123.77 E14.98062
G1 X116 Y123.77 E15.10601
G1 X116 Y121.33 E15.18716
G1 F1500 E7.18716
;MESH:SwitchZ4_V3.stl
G0 F9000 X116 Y119.83
G0 X127.9 Y119.65
;TYPE:WALL-INNER
G1 F1500 E15.18716
G1 F1350 X127.9 Y118.85 E15.21377
G1 X119.427 Y118.85 E15.49558
G1 X118.957 Y118.625 E15.51292
G1 X118.827 Y118.273 E15.5254
G1 X118.827 Y112.457 E15.71884
G1 X116.173 Y112.457 E15.80711
G1 X116.173 Y118.273 E16.00055
G1 X116.042 Y118.625 E16.01304
G1 X115.664 Y118.85 E16.02767
G1 X107.1 Y118.85 E16.31251
G1 X107.1 Y119.65 E16.33912
G1 X127.9 Y119.65 E17.03093
G0 F9000 X128.3 Y120.05
;TYPE:WALL-OUTER
G1 F1350 X128.3 Y118.45 E17.08415
G1 X119.427 Y118.45 E17.37927
G1 X119.27 Y118.375 E17.38505
G1 X119.227 Y118.258 E17.3892
G1 X119.227 Y112.057 E17.59544
G1 X115.773 Y112.057 E17.71032
G1 X115.773 Y118.258 E17.91657
G1 X115.73 Y118.375 E17.92072
G1 X115.608 Y118.448 E17.92545
G1 X106.7 Y118.45 E18.22173
G1 X106.7 Y120.05 E18.27494
G1 X128.3 Y120.05 E18.99336
G0 F9000 X128.03 Y119.78
G0 X107.272 Y119.478
G0 X107.272 Y119.022
G0 X107.5 Y119.25
;TYPE:SKIN
G1 F1120.3 X115.723 Y119.249 E19.32293
G0 F9000 X115.723 Y119.55
G0 X119.408 Y119.55
G0 X119.408 Y119.258
G1 F1317.1 X118.66 Y119.289 E19.34845
G1 F1350 X116.375 Y119.289 E19.42445
G1 F1282.7 X115.743 Y119.25 E19.44661
G1 X116.268 Y118.897 E19.46876
G1 F1350 X116.353 Y118.794 E19.4732
G1 X116.533 Y118.31 E19.49038
G1 X116.533 Y112.817 E19.67308
G1 X118.467 Y112.817 E19.7374
G1 X118.467 Y118.311 E19.92013
G1 X118.647 Y118.793 E19.93725
G1 X118.748 Y118.903 E19.94221
G1 F1317.1 X119.408 Y119.258 E19.96776
G0 F9000 X119.434 Y119.25
G1 F1125 X127.5 Y119.25 E20.28969
G0 F9000 X127.5 Y118.95
G0 X127.728 Y119.478
G0 X118.519 Y119.55
G0 X118.519 Y119.085
G1 F1350 X116.732 Y117.297 E20.37377
G0 F9000 X116.732 Y116.732
G1 F1350 X118.267 Y118.267 E20.44597
G0 F9000 X118.267 Y117.701
G1 F1350 X116.732 Y116.166 E20.51817
G0 F9000 X116.732 Y115.6
G1 F1350 X118.267 Y117.135 E20.59038
G0 F9000 X118.267 Y116.57
G1 F1350 X116.732 Y115.034 E20.6626
G0 F9000 X116.732 Y114.469
G1 F1350 X118.267 Y116.004 E20.7348
G0 F9000 X118.267 Y115.438
G1 F1350 X116.732 Y113.903 E20.807
G0 F9000 X116.732 Y113.337
G1 F1350 X118.267 Y114.873 E20.87923
G0 F9000 X118.267 Y114.307
G1 F1350 X116.976 Y113.016 E20.93995
G0 F9000 X117.542 Y113.016
G1 F1350 X118.267 Y113.741 E20.97406
G0 F9000 X118.267 Y113.175
G1 F1350 X118.108 Y113.016 E20.98154
G0 F9000 X118.108 Y112.557
G0 X116.345 Y112.629
G0 X116.273 Y117.863
G0 X116.732 Y117.863
G1 F1350 X117.954 Y119.085 E21.03901
G0 F9000 X117.389 Y119.086
G1 F1350 X116.71 Y118.407 E21.07095
G0 F9000 X116.556 Y118.819
G1 F1350 X116.824 Y119.087 E21.08356
G1 F1500 E13.08356
;MESH:NOMESH
G0 F300 X116.824 Y119.087 Z0.85
G0 F9000 X116.824 Y119.55
G0 X115.266 Y119.83
G0 X115.266 Y121.05
;TIME_ELAPSED:47.755444
;LAYER:3
M106 S127.5
;TYPE:SUPPORT
G1 F1500 E21.08356
G1 F1350 X119.717 Y121.05 E21.2316
G1 X119.796 Y121.196 E21.23712
G1 X119.877 Y121.238 E21.24016
G1 X119.918 Y121.365 E21.24459
G1 X120.05 Y121.433 E21.24953
G1 X120.05 Y124.05 E21.33657
G1 X114.95 Y124.05 E21.5062
G1 X114.95 Y121.434 E21.59321
G1 X115.083 Y121.365 E21.59819
G1 X115.126 Y121.227 E21.603
G1 X115.193 Y121.188 E21.60558
G1 X115.266 Y121.05 E21.61077
G1 F1500 E13.61077
G0 F9000 X116 Y123.77
G1 F1500 E21.61077
G1 F1350 X115.23 Y123.77 E21.63638
G1 X115.23 Y121.579 E21.70925
G1 X115.304 Y121.54 E21.71204
G1 X115.433 Y121.33 E21.72023
G1 X116 Y121.33 E21.73909
G1 X119.554 Y121.33 E21.8573
G1 X119.701 Y121.542 E21.86588
G1 X119.77 Y121.578 E21.86847
G1 X119.77 Y123.77 E21.94137
G1 X116 Y123.77 E22.06676
G1 X116 Y121.33 E22.14792
G1 F1500 E14.14792
;MESH:SwitchZ4_V3.stl
G0 F9000 X116 Y119.83
G0 X127.9 Y119.65
;TYPE:WALL-INNER
G1 F1500 E22.14792
G1 F1350 X127.9 Y118.85 E22.17453
G1 X119.427 Y118.85 E22.45634
G1 X118.957 Y118.625 E22.47367
G1 X118.827 Y118.273 E22.48615
G1 X118.827 Y112.382 E22.68209
G1 X116.173 Y112.382 E22.77036
G1 X116.173 Y118.273 E22.9663
G1 X116.042 Y118.625 E22.97879
G1 X115.664 Y118.85 E22.99342
G1 X107.1 Y118.85 E23.27826
G1 X107.1 Y119.65 E23.30487
G1 X127.9 Y119.65 E23.99668
G0 F9000 X128.3 Y120.05
;TYPE:WALL-OUTER
G1 F1350 X128.3 Y118.45 E24.04989
G1 X119.427 Y118.45 E24.34501
G1 X119.27 Y118.375 E24.3508
G1 X119.227 Y118.258 E24.35494
G1 X119.227 Y111.982 E24.56368
G1 X115.773 Y111.982 E24.67857
G1 X115.773 Y118.258 E24.88731
G1 X115.73 Y118.375 E24.89145
G1 X115.608 Y118.448 E24.89618
G1 X106.7 Y118.45 E25.19246
G1 X106.7 Y120.05 E25.24568
G1 X128.3 Y120.05 E25.9641
G0 F9000 X128.03 Y119.78
G0 X107.272 Y119.478
G0 X107.272 Y119.022
G0 X107.5 Y119.25
;TYPE:SKIN
G1 F1120.3 X115.723 Y119.249 E26.29366
G0 F9000 X115.723 Y119.55
G0 X119.408 Y119.55
G0 X119.408 Y119.258
G1 F1317.1 X118.66 Y119.289 E26.31918
G1 F1350 X116.375 Y119.289 E26.39518
G1 F1282.7 X115.743 Y119.25 E26.41735
G1 X116.268 Y118.897 E26.4395
G1 F1350 X116.353 Y118.794 E26.44394
G1 X116.533 Y118.31 E26.46111
G1 X116.533 Y112.742 E26.64631
G1 X118.467 Y112.742 E26.71063
G1 X118.467 Y118.311 E26.89586
G1 X118.647 Y118.793 E26.91297
G1 X118.748 Y118.903 E26.91794
G1 F1317.1 X119.408 Y119.258 E26.94348
G0 F9000 X119.434 Y119.25
G1 F1125 X127.5 Y119.25 E27.26542
G0 F9000 X127.5 Y118.95
G0 X118.874 Y118.682
G0 X118.584 Y119.003
G1 F1350 X118.501 Y119.085 E27.2693
G0 F9000 X118.377 Y118.644
G1 F1350 X117.935 Y119.086 E27.29009
G0 F9000 X117.369 Y119.087
G1 F1350 X118.266 Y118.19 E27.33228
G0 F9000 X118.266 Y117.624
G1 F1350 X116.802 Y119.088 E27.40114
G0 F9000 X116.587 Y118.737
G1 F1350 X118.266 Y117.058 E27.48012
G0 F9000 X118.266 Y116.493
G1 F1350 X116.732 Y118.026 E27.55225
G0 F9000 X116.732 Y117.461
G1 F1350 X118.266 Y115.927 E27.6244
G0 F9000 X118.266 Y115.361
G1 F1350 X116.732 Y116.895 E27.69656
G0 F9000 X116.732 Y116.329
G1 F1350 X118.266 Y114.795 E27.76871
G0 F9000 X118.266 Y114.23
G1 F1350 X116.732 Y115.763 E27.84084
G0 F9000 X116.732 Y115.198
G1 F1350 X118.266 Y113.664 E27.913
G0 F9000 X118.266 Y113.098
G1 F1350 X116.732 Y114.632 E27.98515
G0 F9000 X116.732 Y114.066
G1 F1350 X117.857 Y112.941 E28.03807
G0 F9000 X117.292 Y112.941
G1 F1350 X116.732 Y113.501 E28.06441
G1 F1500 E20.06441
;MESH:NOMESH
G0 F300 X116.732 Y113.501 Z1.05
G0 F9000 X116.273 Y113.501
G0 X116.001 Y118.678
G0 X107.272 Y119.022
G0 X107.272 Y119.478
G0 X115.266 Y119.83
G0 X115.266 Y121.05
;TIME_ELAPSED:63.289121
;LAYER:4
;TYPE:SUPPORT
G1 F1500 E28.06441
G1 F1350 X119.717 Y121.05 E28.21245
G1 X119.796 Y121.196 E28.21797
G1 X119.877 Y121.238 E28.22101
G1 X119.918 Y121.365 E28.22544
G1 X120.05 Y121.433 E28.23038
G1 X120.05 Y124.05 E28.31743
G1 X114.95 Y124.05 E28.48705
G1 X114.95 Y121.434 E28.57406
G1 X115.083 Y121.365 E28.57904
G1 X115.126 Y121.227 E28.58385
G1 X115.193 Y121.188 E28.58643
G1 X115.266 Y121.05 E28.59162
G1 F1500 E20.59162
G0 F9000 X116 Y123.77
G1 F1500 E28.59162
G1 F1350 X115.23 Y123.77 E28.61723
G1 X115.23 Y121.579 E28.69011
G1 X115.304 Y121.54 E28.69289
G1 X115.433 Y121.33 E28.70109
G1 X116 Y121.33 E28.71994
G1 X119.554 Y121.33 E28.83815
G1 X119.701 Y121.542 E28.84673
G1 X119.77 Y121.578 E28.84932
G1 X119.77 Y123.77 E28.92223
G1 X116 Y123.77 E29.04762
G1 X116 Y121.33 E29.12877
G1 F1500 E21.12877
;MESH:SwitchZ4_V3.stl
G0 F9000 X116 Y119.83
G0 X127.9 Y119.65
;TYPE:WALL-INNER
G1 F1500 E29.12877
G1 F1350 X127.9 Y118.85 E29.15538
G1 X119.427 Y118.85 E29.43719
G1 X118.957 Y118.625 E29.45452
G1 X118.827 Y118.273 E29.467
G1 X118.827 Y112.352 E29.66394
G1 X116.173 Y112.352 E29.75221
G1 X116.173 Y118.273 E29.94914
G1 X116.042 Y118.625 E29.96163
G1 X115.664 Y118.85 E29.97627
G1 X107.1 Y118.85 E30.26111
G1 X107.1 Y119.65 E30.28771
G1 X127.9 Y119.65 E30.97952
G0 F9000 X128.3 Y120.05
;TYPE:WALL-OUTER
G1 F1350 X128.3 Y118.45 E31.03274
G1 X119.427 Y118.45 E31.32786
G1 X119.27 Y118.375 E31.33364
G1 X119.227 Y118.258 E31.33779
G1 X119.227 Y111.952 E31.54753
G1 X115.773 Y111.952 E31.66241
G1 X115.773 Y118.258 E31.87215
G1 X115.73 Y118.375 E31.87629
G1 X115.608 Y118.448 E31.88102
G1 X106.7 Y118.45 E32.1773
G1 X106.7 Y120.05 E32.23052
G1 X128.3 Y120.05 E32.94894
G0 F9000 X128.03 Y119.78
G0 X107.272 Y119.478
G0 X107.272 Y119.022
G0 X107.5 Y119.25
;TYPE:SKIN
G1 F1120.3 X115.723 Y119.249 E33.2785
G0 F9000 X115.723 Y119.55
G0 X119.408 Y119.55
G0 X119.408 Y119.258
G1 F1317.1 X118.66 Y119.289 E33.30403
G1 F1350 X116.375 Y119.289 E33.38003
G1 F1282.7 X115.743 Y119.25 E33.40219
G1 X116.268 Y118.897 E33.42434
G1 F1350 X116.353 Y118.794 E33.42878
G1 X116.533 Y118.31 E33.44596
G1 X116.533 Y112.712 E33.63215
G1 X118.467 Y112.712 E33.69647
G1 X118.467 Y118.311 E33.88269
G1 X118.647 Y118.793 E33.89981
G1 X118.748 Y118.903 E33.90477
G1 F1317.1 X119.408 Y119.258 E33.93032
G0 F9000 X119.434 Y119.25
G1 F1125 X127.5 Y119.25 E34.25225
G0 F9000 X127.5 Y118.95
G0 X127.728 Y119.478
G0 X118.519 Y119.55
G0 X118.519 Y119.085
G1 F1350 X116.732 Y117.297 E34.33633
G0 F9000 X116.732 Y116.732
G1 F1350 X118.267 Y118.267 E34.40853
G0 F9000 X118.267 Y117.701
G1 F1350 X116.732 Y116.166 E34.48074
