;FLAVOR:Marlin
;TIME:1266
;Filament used: 0.673744m
;Layer height: 0.2
;MINX:100.6
;MINY:99.1
;MINZ:0.25
;MAXX:134.397
;MAXY:136.754
;MAXZ:8.45
;Generated with Cura_SteamEngine 5.3.0
M140 S95
M105
M190 S95
M104 S249
M105
M109 S249
M82 ;absolute extrusion mode
START_PRINT
G92 E0
G92 E0
G1 F1500 E-5
;LAYER_COUNT:42
;LAYER:0
M107
G0 F6000 X105.276 Y104.328 Z0.25
;TYPE:SKIRT
G1 F1500 E0
G1 F1200 X105.74 Y103.863 E0.02731
G1 X106.211 Y103.422 E0.05414
G1 X106.697 Y103.003 E0.08081
G1 X107.202 Y102.599 E0.1077
G1 X107.72 Y102.217 E0.13446
G1 X108.285 Y101.833 E0.16286
G1 X108.796 Y101.513 E0.18793
G1 X109.353 Y101.194 E0.21462
G1 X109.921 Y100.896 E0.24128
G1 X110.491 Y100.622 E0.26758
G1 X111.139 Y100.344 E0.29689
G1 X111.735 Y100.115 E0.32344
G1 X112.344 Y99.906 E0.35021
G1 X112.919 Y99.733 E0.37517
G1 X113.54 Y99.572 E0.40184
G1 X114.171 Y99.43 E0.42873
G1 X114.801 Y99.317 E0.45534
G1 X115.438 Y99.226 E0.48209
G1 X116.07 Y99.161 E0.50851
G1 X116.713 Y99.118 E0.5353
G1 X117.419 Y99.1 E0.56466
G1 X117.988 Y99.105 E0.58832
G1 X118.623 Y99.136 E0.61475
G1 X119.26 Y99.191 E0.64133
G1 X119.892 Y99.268 E0.6678
G1 X120.534 Y99.374 E0.69486
G1 X121.219 Y99.514 E0.72392
G1 X121.798 Y99.656 E0.74871
G1 X122.418 Y99.831 E0.77549
G1 X123.02 Y100.026 E0.8018
G1 X123.673 Y100.268 E0.83075
G1 X124.235 Y100.5 E0.85603
G1 X124.854 Y100.785 E0.88436
G1 X125.386 Y101.053 E0.90913
G1 X125.961 Y101.368 E0.93639
G1 X126.542 Y101.723 E0.96469
G1 X127.078 Y102.076 E0.99138
G1 X127.57 Y102.428 E1.01653
G1 X128.108 Y102.846 E1.04485
G1 X128.603 Y103.26 E1.07168
G1 X129.08 Y103.691 E1.09841
G1 X129.541 Y104.14 E1.12516
G1 X129.953 Y104.573 E1.15001
G1 X130.408 Y105.091 E1.17868
G1 X130.816 Y105.59 E1.20548
G1 X131.176 Y106.068 E1.23035
G1 X131.541 Y106.597 E1.25707
G1 X131.914 Y107.176 E1.28571
G1 X132.224 Y107.704 E1.31117
G1 X132.543 Y108.299 E1.33923
G1 X132.826 Y108.877 E1.36599
G1 X133.08 Y109.452 E1.39212
G1 X133.324 Y110.067 E1.41963
G1 X133.538 Y110.672 E1.44631
G1 X133.728 Y111.284 E1.47295
G1 X133.898 Y111.91 E1.49992
G1 X134.039 Y112.53 E1.52636
G1 X134.153 Y113.119 E1.5513
G1 X134.258 Y113.805 E1.58015
G1 X134.327 Y114.439 E1.60667
G1 X134.376 Y115.086 E1.63364
G1 X134.397 Y115.676 E1.65819
G1 X134.397 Y116.367 E1.68692
G1 X134.373 Y116.974 E1.71217
G1 X134.318 Y117.651 E1.74041
G1 X134.249 Y118.251 E1.76552
G1 X134.145 Y118.929 E1.79404
G1 X134.025 Y119.544 E1.82009
G1 X133.893 Y120.116 E1.84449
G1 X133.7 Y120.808 E1.87436
G1 X133.507 Y121.419 E1.901
G1 X133.289 Y122.025 E1.92778
G1 X133.066 Y122.581 E1.95268
G1 X132.803 Y123.173 E1.97962
G1 X132.5 Y123.785 E2.00801
G1 X132.212 Y124.317 E2.03316
G1 X131.887 Y124.867 E2.05972
G1 X131.515 Y125.445 E2.0883
G1 X131.17 Y125.938 E2.11331
G1 X130.753 Y126.486 E2.14194
G1 X130.347 Y126.98 E2.16853
G1 X129.949 Y127.43 E2.1935
G1 X129.507 Y127.894 E2.22014
G1 X129.009 Y128.376 E2.24896
G1 X128.53 Y128.805 E2.27569
G1 X128.069 Y129.187 E2.30058
G1 X127.526 Y129.605 E2.32907
G1 X127.034 Y129.954 E2.35415
G1 X126.46 Y130.328 E2.38264
G1 X125.908 Y130.658 E2.40937
G1 X125.342 Y130.97 E2.43624
G1 X124.767 Y131.256 E2.46294
G1 X124.181 Y131.522 E2.4897
G1 X123.585 Y131.767 E2.51649
G1 X122.982 Y131.986 E2.54316
G1 X122.257 Y132.214 E2.57476
G1 X122.254 Y134.496 E2.66963
G1 X122.132 Y134.914 E2.68774
G1 X121.743 Y135.642 E2.72205
G1 X121.481 Y135.961 E2.73922
G1 X120.521 Y136.635 E2.78798
G1 X119.999 Y136.754 E2.81024
G1 X115.004 Y136.754 E3.01791
G1 X114.473 Y136.63 E3.04058
G1 X113.518 Y135.945 E3.08944
G1 X113.185 Y135.585 E3.10983
G1 X112.806 Y134.67 E3.151
G1 X112.746 Y134.366 E3.16389
G1 X112.743 Y132.214 E3.25336
G1 X112.252 Y132.064 E3.2747
G1 X111.642 Y131.852 E3.30155
G1 X111.043 Y131.617 E3.3283
G1 X110.457 Y131.361 E3.35489
G1 X109.873 Y131.081 E3.38182
G1 X109.307 Y130.78 E3.40847
G1 X108.764 Y130.467 E3.43452
G1 X108.205 Y130.114 E3.46201
G1 X107.673 Y129.749 E3.48883
G1 X107.159 Y129.366 E3.51548
G1 X106.667 Y128.973 E3.54166
G1 X106.174 Y128.541 E3.56892
G1 X105.7 Y128.099 E3.59586
G1 X105.251 Y127.642 E3.6225
G1 X104.815 Y127.166 E3.64933
G1 X104.402 Y126.678 E3.67591
G1 X104.002 Y126.17 E3.70279
G1 X103.633 Y125.66 E3.72897
G1 X103.268 Y125.112 E3.75634
G1 X102.933 Y124.565 E3.78301
G1 X102.618 Y124.007 E3.80965
G1 X102.319 Y123.429 E3.8367
G1 X102.049 Y122.847 E3.86338
G1 X101.802 Y122.257 E3.88997
G1 X101.574 Y121.652 E3.91685
G1 X101.37 Y121.044 E3.94351
G1 X101.191 Y120.431 E3.97006
G1 X101.035 Y119.802 E3.997
G1 X100.901 Y119.17 E4.02386
G1 X100.793 Y118.536 E4.0506
G1 X100.708 Y117.9 E4.07728
G1 X100.648 Y117.259 E4.10405
G1 X100.611 Y116.615 E4.13086
G1 X100.6 Y115.973 E4.15756
G1 X100.614 Y115.327 E4.18442
G1 X100.652 Y114.688 E4.21104
G1 X100.714 Y114.048 E4.23777
G1 X100.8 Y113.406 E4.2647
G1 X100.919 Y112.732 E4.29315
G1 X101.045 Y112.144 E4.31816
G1 X101.2 Y111.534 E4.34432
G1 X101.387 Y110.907 E4.37152
G1 X101.592 Y110.297 E4.39828
G1 X101.821 Y109.691 E4.42521
G1 X102.09 Y109.063 E4.45362
G1 X102.345 Y108.52 E4.47856
G1 X102.642 Y107.944 E4.5055
G1 X102.958 Y107.388 E4.53209
G1 X103.296 Y106.842 E4.55879
G1 X103.656 Y106.305 E4.58566
G1 X104.037 Y105.784 E4.6125
G1 X104.432 Y105.287 E4.63889
G1 X104.849 Y104.793 E4.66577
G1 X105.276 Y104.328 E4.69202
G0 F6000 X105.571 Y104.599
G1 F1200 X105.144 Y105.064 E4.71826
G1 X104.737 Y105.545 E4.74446
G1 X104.35 Y106.033 E4.77035
G1 X103.979 Y106.541 E4.79651
G1 X103.628 Y107.065 E4.82273
G1 X103.306 Y107.586 E4.84819
G1 X102.99 Y108.142 E4.87478
G1 X102.701 Y108.703 E4.90102
G1 X102.452 Y109.233 E4.92536
G1 X102.189 Y109.848 E4.95317
G1 X101.966 Y110.438 E4.97939
G1 X101.766 Y111.034 E5.00553
G1 X101.588 Y111.633 E5.03151
G1 X101.433 Y112.243 E5.05768
G1 X101.31 Y112.816 E5.08204
G1 X101.194 Y113.475 E5.10986
G1 X101.11 Y114.101 E5.13612
G1 X101.05 Y114.726 E5.16223
G1 X101.013 Y115.351 E5.18826
G1 X101 Y115.981 E5.21445
G1 X101.011 Y116.608 E5.24052
G1 X101.047 Y117.236 E5.26668
G1 X101.106 Y117.862 E5.29282
G1 X101.189 Y118.483 E5.31887
G1 X101.295 Y119.103 E5.34502
G1 X101.426 Y119.719 E5.3712
G1 X101.579 Y120.334 E5.39755
G1 X101.754 Y120.931 E5.42341
G1 X101.953 Y121.525 E5.44946
G1 X102.176 Y122.116 E5.47572
G1 X102.418 Y122.692 E5.50169
G1 X102.682 Y123.261 E5.52777
G1 X102.973 Y123.823 E5.55408
G1 X103.281 Y124.368 E5.58011
G1 X103.609 Y124.903 E5.6062
G1 X103.966 Y125.438 E5.63294
G1 X104.326 Y125.935 E5.65846
G1 X104.716 Y126.43 E5.68465
G1 X105.12 Y126.907 E5.71064
G1 X105.546 Y127.372 E5.73686
G1 X105.985 Y127.818 E5.76288
G1 X106.447 Y128.249 E5.78915
G1 X106.917 Y128.66 E5.81511
G1 X107.409 Y129.053 E5.84129
G1 X107.912 Y129.429 E5.8674
G1 X108.431 Y129.784 E5.89354
G1 X108.964 Y130.12 E5.91973
G1 X109.507 Y130.433 E5.94579
G1 X110.061 Y130.728 E5.97188
G1 X110.63 Y131 E5.9981
G1 X111.203 Y131.251 E6.02411
G1 X111.788 Y131.48 E6.05023
G1 X112.383 Y131.686 E6.07641
G1 X113.175 Y131.927 E6.11083
G1 X113.143 Y132.089 E6.11769
G1 X113.146 Y134.365 E6.21232
G1 X113.176 Y134.517 E6.21876
G1 X113.528 Y135.367 E6.25701
G1 X113.784 Y135.644 E6.27269
G1 X114.642 Y136.259 E6.31658
G1 X115.048 Y136.354 E6.33391
G1 X119.954 Y136.354 E6.53788
G1 X120.356 Y136.262 E6.55503
G1 X121.206 Y135.665 E6.59821
G1 X121.407 Y135.42 E6.61139
G1 X121.76 Y134.76 E6.6425
G1 X121.854 Y134.439 E6.65641
G1 X121.857 Y132.099 E6.7537
G1 X121.822 Y131.92 E6.76128
G1 X122.259 Y131.798 E6.78014
G1 X122.86 Y131.605 E6.80639
G1 X123.448 Y131.391 E6.8324
G1 X124.029 Y131.152 E6.85852
G1 X124.601 Y130.892 E6.88464
G1 X125.164 Y130.612 E6.91078
G1 X125.715 Y130.308 E6.93695
G1 X126.254 Y129.985 E6.96307
G1 X126.815 Y129.619 E6.99092
G1 X127.294 Y129.279 E7.01534
G1 X127.825 Y128.87 E7.04321
G1 X128.275 Y128.497 E7.06751
G1 X128.742 Y128.078 E7.09359
G1 X129.217 Y127.618 E7.12108
G1 X129.659 Y127.154 E7.14773
G1 X130.047 Y126.715 E7.17208
G1 X130.444 Y126.232 E7.19808
G1 X130.851 Y125.696 E7.22606
G1 X131.187 Y125.216 E7.25042
G1 X131.55 Y124.651 E7.27834
G1 X131.868 Y124.113 E7.30432
G1 X132.148 Y123.595 E7.3288
G1 X132.444 Y122.996 E7.35658
G1 X132.701 Y122.418 E7.38288
G1 X132.918 Y121.876 E7.40715
G1 X133.131 Y121.284 E7.43331
G1 X133.319 Y120.688 E7.45929
G1 X133.503 Y120.026 E7.48786
G1 X133.632 Y119.467 E7.51171
G1 X133.752 Y118.852 E7.53776
G1 X133.854 Y118.19 E7.56561
G1 X133.921 Y117.605 E7.59009
G1 X133.974 Y116.942 E7.61774
G1 X133.997 Y116.351 E7.64233
G1 X133.997 Y115.69 E7.66981
G1 X133.976 Y115.1 E7.69436
G1 X133.928 Y114.469 E7.72066
G1 X133.86 Y113.849 E7.7466
G1 X133.76 Y113.195 E7.7741
G1 X133.646 Y112.606 E7.79904
G1 X133.508 Y111.999 E7.82492
G1 X133.342 Y111.389 E7.85121
G1 X133.156 Y110.791 E7.87724
G1 X132.947 Y110.2 E7.90331
G1 X132.708 Y109.6 E7.93016
G1 X132.46 Y109.039 E7.95566
G1 X132.184 Y108.475 E7.98176
G1 X131.879 Y107.907 E8.00857
G1 X131.569 Y107.379 E8.03402
G1 X131.205 Y106.814 E8.06197
G1 X130.856 Y106.309 E8.08749
G1 X130.496 Y105.831 E8.11237
G1 X130.098 Y105.344 E8.13851
G1 X129.663 Y104.849 E8.16591
G1 X129.251 Y104.416 E8.19076
G1 X128.801 Y103.978 E8.21687
G1 X128.335 Y103.556 E8.24301
G1 X127.852 Y103.153 E8.26916
G1 X127.325 Y102.744 E8.29689
G1 X126.845 Y102.401 E8.32142
G1 X126.322 Y102.057 E8.34745
G1 X125.753 Y101.71 E8.37516
G1 X125.194 Y101.404 E8.40165
G1 X124.674 Y101.142 E8.42586
G1 X124.068 Y100.863 E8.45359
G1 X123.521 Y100.638 E8.47818
G1 X122.881 Y100.401 E8.50656
G1 X122.295 Y100.211 E8.53217
G1 X121.69 Y100.041 E8.5583
G1 X121.124 Y99.902 E8.58253
G1 X120.454 Y99.766 E8.61095
G1 X119.827 Y99.663 E8.63737
G1 X119.212 Y99.588 E8.66313
G1 X118.589 Y99.535 E8.68912
G1 X117.969 Y99.505 E8.71493
G1 X117.415 Y99.5 E8.73796
G1 X116.723 Y99.518 E8.76674
G1 X116.097 Y99.56 E8.79283
G1 X115.479 Y99.624 E8.81866
G1 X114.858 Y99.713 E8.84474
G1 X114.242 Y99.824 E8.87076
G1 X113.628 Y99.962 E8.89693
G1 X113.02 Y100.12 E8.92304
G1 X112.459 Y100.289 E8.9474
G1 X111.865 Y100.493 E8.97351
G1 X111.282 Y100.717 E8.99948
G1 X110.664 Y100.983 E9.02745
G1 X110.094 Y101.257 E9.05375
G1 X109.539 Y101.548 E9.0798
G1 X108.995 Y101.86 E9.10587
G1 X108.498 Y102.172 E9.13027
G1 X107.945 Y102.548 E9.15807
G1 X107.439 Y102.921 E9.18421
G1 X106.947 Y103.315 E9.21041
G1 X106.472 Y103.725 E9.2365
G1 X106.013 Y104.155 E9.26265
G1 X105.571 Y104.599 E9.28869
G0 F6000 X105.854 Y104.881
G1 F1200 X106.286 Y104.447 E9.31415
G1 X106.734 Y104.028 E9.33966
G1 X107.198 Y103.627 E9.36515
G1 X107.676 Y103.243 E9.39064
G1 X108.17 Y102.879 E9.41616
G1 X108.711 Y102.511 E9.44336
G1 X109.195 Y102.207 E9.46712
G1 X109.725 Y101.902 E9.49254
G1 X110.267 Y101.617 E9.518
G1 X110.822 Y101.35 E9.54361
G1 X111.425 Y101.09 E9.57091
G1 X111.995 Y100.871 E9.5963
G1 X112.575 Y100.672 E9.62179
G1 X113.121 Y100.507 E9.6455
G1 X113.715 Y100.352 E9.67103
G1 X114.313 Y100.218 E9.6965
G1 X114.915 Y100.109 E9.72194
G1 X115.52 Y100.022 E9.74735
G1 X116.124 Y99.959 E9.7726
G1 X116.734 Y99.918 E9.79802
G1 X117.411 Y99.9 E9.82617
G1 X117.95 Y99.905 E9.84858
G1 X118.556 Y99.934 E9.87381
G1 X119.164 Y99.985 E9.89917
G1 X119.762 Y100.058 E9.92422
G1 X120.374 Y100.158 E9.95
G1 X121.029 Y100.291 E9.97779
G1 X121.582 Y100.426 E10.00145
G1 X122.172 Y100.592 E10.02694
G1 X122.742 Y100.776 E10.05184
G1 X123.369 Y101.008 E10.07963
G1 X123.901 Y101.226 E10.10354
G1 X124.494 Y101.499 E10.13068
G1 X125.002 Y101.755 E10.15433
G1 X125.545 Y102.052 E10.18006
G1 X126.102 Y102.391 E10.20717
G1 X126.613 Y102.727 E10.23259
G1 X127.08 Y103.06 E10.25644
G1 X127.596 Y103.46 E10.28358
G1 X128.067 Y103.853 E10.30909
G1 X128.522 Y104.264 E10.33458
G1 X128.961 Y104.692 E10.36007
G1 X129.373 Y105.125 E10.38492
G1 X129.788 Y105.597 E10.41105
G1 X130.176 Y106.072 E10.43655
G1 X130.536 Y106.55 E10.46143
G1 X130.869 Y107.031 E10.48575
G1 X131.224 Y107.582 E10.513
G1 X131.534 Y108.11 E10.53845
G1 X131.825 Y108.651 E10.56399
G1 X132.094 Y109.201 E10.58945
G1 X132.342 Y109.762 E10.61495
G1 X132.57 Y110.333 E10.64051
G1 X132.774 Y110.91 E10.66596
G1 X132.956 Y111.494 E10.69139
G1 X133.118 Y112.088 E10.71699
G1 X133.253 Y112.682 E10.74231
G1 X133.367 Y113.271 E10.76725
G1 X133.462 Y113.893 E10.79341
G1 X133.529 Y114.5 E10.8188
G1 X133.576 Y115.114 E10.8444
G1 X133.597 Y115.704 E10.86895
G1 X133.597 Y116.336 E10.89522
G1 X133.575 Y116.911 E10.91915
G1 X133.524 Y117.56 E10.94621
G1 X133.459 Y118.129 E10.97002
G1 X133.359 Y118.776 E10.99724
G1 X133.242 Y119.377 E11.0227
G1 X133.113 Y119.936 E11.04655
G1 X132.938 Y120.567 E11.07377
G1 X132.754 Y121.149 E11.09915
G1 X132.547 Y121.727 E11.12467
G1 X132.335 Y122.256 E11.14837
G1 X132.085 Y122.819 E11.17398
G1 X131.796 Y123.405 E11.20114
G1 X131.524 Y123.909 E11.22495
G1 X131.213 Y124.435 E11.25036
G1 X130.859 Y124.987 E11.27762
G1 X130.532 Y125.454 E11.30133
G1 X130.135 Y125.978 E11.32866
G1 X129.747 Y126.45 E11.35406
G1 X129.369 Y126.878 E11.3778
G1 X128.927 Y127.342 E11.40444
G1 X128.475 Y127.78 E11.43061
G1 X128.019 Y128.189 E11.45608
G1 X127.581 Y128.553 E11.47975
G1 X127.062 Y128.953 E11.507
G1 X126.596 Y129.284 E11.53076
G1 X126.048 Y129.642 E11.55797
G1 X125.522 Y129.958 E11.58349
G1 X124.985 Y130.254 E11.60898
G1 X124.436 Y130.528 E11.63449
G1 X123.877 Y130.782 E11.66002
G1 X123.311 Y131.015 E11.68546
G1 X122.737 Y131.224 E11.71086
G1 X122.151 Y131.413 E11.73646
G1 X121.561 Y131.578 E11.76193
G1 X121.29 Y131.644 E11.77353
G1 X121.357 Y131.75 E11.77874
G1 X121.457 Y132.098 E11.79379
G1 X121.454 Y134.383 E11.88879
G1 X121.407 Y134.571 E11.89685
G1 X121.054 Y135.231 E11.92797
G1 X120.931 Y135.369 E11.93565
G1 X120.191 Y135.889 E11.97325
G1 X119.908 Y135.954 E11.98533
G1 X115.096 Y135.954 E12.18539
G1 X114.809 Y135.887 E12.19764
G1 X114.05 Y135.343 E12.23646
G1 X113.871 Y135.149 E12.24744
G1 X113.546 Y134.364 E12.28276
G1 X113.543 Y132.088 E12.37739
G1 X113.683 Y131.64 E12.3969
G1 X113.1 Y131.486 E12.42197
G1 X112.514 Y131.308 E12.44743
G1 X111.934 Y131.107 E12.47295
G1 X111.363 Y130.884 E12.49844
G1 X110.802 Y130.639 E12.52389
G1 X110.249 Y130.375 E12.54936
G1 X109.707 Y130.087 E12.57488
G1 X109.177 Y129.781 E12.60033
G1 X108.657 Y129.454 E12.62586
G1 X108.151 Y129.108 E12.65135
G1 X107.659 Y128.741 E12.67687
G1 X107.18 Y128.358 E12.70237
G1 X106.72 Y127.957 E12.72774
G1 X106.27 Y127.537 E12.75333
G1 X105.841 Y127.101 E12.77876
G1 X105.425 Y126.648 E12.80433
G1 X105.03 Y126.182 E12.82973
G1 X104.65 Y125.7 E12.85524
G1 X104.299 Y125.216 E12.8801
G1 X103.95 Y124.694 E12.90621
G1 X103.629 Y124.171 E12.93172
G1 X103.328 Y123.639 E12.95713
G1 X103.045 Y123.092 E12.98274
G1 X102.787 Y122.537 E13.00818
G1 X102.55 Y121.974 E13.03358
G1 X102.332 Y121.398 E13.05918
G1 X102.138 Y120.818 E13.08461
G1 X101.967 Y120.237 E13.10979
G1 X101.817 Y119.636 E13.13554
G1 X101.689 Y119.035 E13.16109
G1 X101.585 Y118.43 E13.18661
G1 X101.504 Y117.824 E13.21203
G1 X101.446 Y117.213 E13.23755
G1 X101.411 Y116.601 E13.26303
G1 X101.4 Y115.989 E13.28848
G1 X101.412 Y115.375 E13.31401
G1 X101.448 Y114.764 E13.33946
G1 X101.506 Y114.154 E13.36494
G1 X101.588 Y113.544 E13.39052
G1 X101.701 Y112.9 E13.41771
G1 X101.821 Y112.341 E13.44148
G1 X101.971 Y111.747 E13.46695
G1 X102.145 Y111.161 E13.49236
G1 X102.34 Y110.579 E13.51788
G1 X102.557 Y110.005 E13.54339
G1 X102.814 Y109.403 E13.57061
G1 X103.057 Y108.886 E13.59436
G1 X103.338 Y108.34 E13.61989
G1 X103.654 Y107.784 E13.64648
G1 X103.961 Y107.287 E13.67076
G1 X104.302 Y106.777 E13.69627
G1 X104.664 Y106.281 E13.7218
G1 X105.042 Y105.803 E13.74714
G1 X105.439 Y105.334 E13.77268
G1 X105.854 Y104.881 E13.79822
G0 F6000 X106.138 Y105.163
G1 F1200 X106.559 Y104.739 E13.82307
G1 X106.995 Y104.331 E13.84789
G1 X107.449 Y103.939 E13.87283
G1 X107.914 Y103.565 E13.89764
G1 X108.395 Y103.21 E13.92249
G1 X108.924 Y102.85 E13.9491
G1 X109.395 Y102.554 E13.97222
G1 X109.912 Y102.256 E13.99703
G1 X110.441 Y101.977 E14.0219
G1 X110.981 Y101.717 E14.04681
G1 X111.569 Y101.463 E14.07344
G1 X112.124 Y101.249 E14.09817
G1 X112.691 Y101.055 E14.12309
G1 X113.223 Y100.894 E14.1462
G1 X113.802 Y100.742 E14.17109
G1 X114.385 Y100.612 E14.19592
G1 X114.972 Y100.505 E14.22073
G1 X115.562 Y100.42 E14.24551
G1 X116.151 Y100.358 E14.27013
G1 X116.745 Y100.318 E14.29488
G1 X117.407 Y100.3 E14.32242
G1 X117.931 Y100.305 E14.3442
