;FLAVOR:Marlin
;TIME:3595
;Filament used: 1.82272m
;Layer height: 0.2
;MINX:105.786
;MINY:94.8
;MINZ:0.25
;MAXX:128.8
;MAXY:141.064
;MAXZ:25.05
;Generated with Cura_SteamEngine 5.3.0
M140 S85
M105
M190 S85
M104 S240
M105
M109 S240
M82 ;absolute extrusion mode
START_PRINT
G92 E0
G92 E0
G1 F1500 E-8
;LAYER_COUNT:125
;LAYER:0
M107
G0 F6000 X106.611 Y96.799 Z0.25
;TYPE:SKIRT
G1 F1500 E0
G1 F1200 X106.98 Y96.488 E0.02006
G1 X107.647 Y96.219 E0.04996
G1 X109.245 Y96.217 E0.1164
G1 X109.915 Y96.483 E0.14637
G1 X110.283 Y96.793 E0.16638
G1 X110.698 Y97.345 E0.19509
G1 X110.895 Y98.03 E0.22472
G1 X110.943 Y98.599 E0.24846
G1 X110.945 Y110.842 E0.75747
G1 X110.973 Y111.122 E0.76917
G1 X111.029 Y111.369 E0.7797
G1 X111.115 Y111.605 E0.79014
G1 X111.24 Y111.844 E0.80135
G1 X111.418 Y112.1 E0.81431
G1 X111.648 Y112.323 E0.82763
G1 X111.851 Y112.474 E0.83815
G1 X112.12 Y112.622 E0.85092
G1 X112.369 Y112.724 E0.8621
G1 X112.697 Y112.787 E0.87599
G1 X112.999 Y112.807 E0.88857
G1 X123.802 Y112.816 E1.33771
G1 X124.335 Y112.895 E1.36011
G1 X124.655 Y113.011 E1.37426
G1 X124.893 Y112.719 E1.38992
G1 X125.321 Y112.465 E1.41062
G1 X125.736 Y112.377 E1.42825
G1 X126.677 Y112.354 E1.46739
G1 X127.28 Y112.549 E1.49374
G1 X127.617 Y112.825 E1.51185
G1 X128.486 Y113.854 E1.56784
G1 X128.617 Y114.13 E1.58054
G1 X128.728 Y114.566 E1.59925
G1 X128.715 Y115.173 E1.62449
G1 X128.624 Y115.514 E1.63916
G1 X128.577 Y115.626 E1.64421
G1 X128.731 Y115.985 E1.66045
G1 X128.8 Y116.532 E1.68338
G1 X128.536 Y117.726 E1.73422
G1 X128.356 Y118.131 E1.75264
G1 X128.087 Y118.454 E1.77012
G1 X127.793 Y118.626 E1.78428
G1 X127.332 Y118.786 E1.80457
G1 X126.466 Y118.806 E1.84058
G1 X126.659 Y119.015 E1.85241
G1 X126.888 Y119.399 E1.871
G1 X126.975 Y119.837 E1.88956
G1 X126.976 Y120.701 E1.92548
G1 X126.912 Y121.115 E1.9429
G1 X126.646 Y121.611 E1.9663
G1 X124.161 Y124.095 E2.11238
G1 X123.665 Y124.361 E2.13578
G1 X123.251 Y124.425 E2.15319
G1 X118.049 Y124.425 E2.36947
G1 X117.698 Y124.371 E2.38423
G1 X117.369 Y124.219 E2.3993
G1 X117.522 Y124.548 E2.41438
G1 X117.576 Y124.899 E2.42915
G1 X117.575 Y126.867 E2.51097
G1 X118.59 Y126.128 E2.56317
G1 X119.129 Y126.002 E2.58618
G1 X120.721 Y126.002 E2.65237
G1 X121.26 Y126.128 E2.67538
G1 X122.801 Y127.249 E2.75461
G1 X123.077 Y127.707 E2.77684
G1 X123.574 Y129.239 E2.8438
G1 X123.618 Y129.783 E2.86649
G1 X123.077 Y131.451 E2.93939
G1 X122.801 Y131.909 E2.96163
G1 X121.26 Y133.03 E3.04085
G1 X120.721 Y133.156 E3.06386
G1 X119.129 Y133.156 E3.13005
G1 X118.59 Y133.03 E3.15307
G1 X117.048 Y131.908 E3.23235
G1 X116.787 Y131.469 E3.25358
G1 X114.761 Y133.495 E3.3727
G1 X114.265 Y133.761 E3.3961
G1 X113.851 Y133.825 E3.41352
G1 X112.927 Y133.825 E3.45194
G1 X112.545 Y133.732 E3.46828
G1 X112.179 Y133.542 E3.48543
G1 X111.941 Y133.285 E3.49999
G1 X111.712 Y132.901 E3.51858
G1 X111.625 Y132.463 E3.53714
G1 X111.624 Y131.426 E3.58026
G1 X111.097 Y131.426 E3.60217
G1 X111.092 Y136.416 E3.80963
G1 X111.043 Y136.977 E3.83304
G1 X110.852 Y137.647 E3.862
G1 X110.439 Y138.201 E3.89073
G1 X110.07 Y138.512 E3.9108
G1 X109.403 Y138.781 E3.9407
G1 X107.655 Y138.783 E4.01337
G1 X107.063 Y138.549 E4.03984
G1 X106.666 Y138.272 E4.05996
G1 X106.198 Y137.646 E4.09246
G1 X105.995 Y136.912 E4.12412
G1 X105.96 Y136.503 E4.14119
G1 X105.958 Y98.584 E5.71767
G1 X106.007 Y98.023 E5.74109
G1 X106.198 Y97.352 E5.77009
G1 X106.611 Y96.799 E5.79879
G0 F6000 X106.904 Y97.075
G1 F1200 X107.189 Y96.835 E5.81428
G1 X107.725 Y96.619 E5.8383
G1 X109.169 Y96.617 E5.89834
G1 X109.706 Y96.83 E5.92236
G1 X109.991 Y97.07 E5.93785
G1 X110.334 Y97.527 E5.9616
G1 X110.5 Y98.104 E5.98656
G1 X110.543 Y98.599 E6.00722
G1 X110.545 Y110.862 E6.51706
G1 X110.577 Y111.184 E6.53051
G1 X110.644 Y111.481 E6.54317
G1 X110.751 Y111.772 E6.55606
G1 X110.894 Y112.046 E6.56891
G1 X111.115 Y112.364 E6.58501
G1 X111.388 Y112.628 E6.6008
G1 X111.631 Y112.809 E6.6134
G1 X111.947 Y112.983 E6.62839
G1 X112.258 Y113.11 E6.64236
G1 X112.643 Y113.184 E6.65866
G1 X112.987 Y113.207 E6.67299
G1 X123.743 Y113.212 E7.12018
G1 X124.276 Y113.291 E7.14258
G1 X124.854 Y113.52 E7.16842
G1 X124.93 Y113.306 E7.17787
G1 X125.159 Y113.026 E7.1929
G1 X125.469 Y112.842 E7.20789
G1 X125.78 Y112.776 E7.22111
G1 X126.618 Y112.756 E7.25596
G1 X127.086 Y112.907 E7.2764
G1 X127.337 Y113.113 E7.2899
G1 X128.146 Y114.07 E7.342
G1 X128.229 Y114.229 E7.34946
G1 X128.327 Y114.613 E7.36594
G1 X128.316 Y115.119 E7.38698
G1 X128.238 Y115.411 E7.39954
G1 X128.108 Y115.651 E7.41089
G1 X128.216 Y115.794 E7.41834
G1 X128.341 Y116.091 E7.43174
G1 X128.394 Y116.513 E7.44942
G1 X128.153 Y117.603 E7.49583
G1 X128.014 Y117.915 E7.51003
G1 X127.823 Y118.145 E7.52246
G1 X127.662 Y118.248 E7.53041
G1 X127.26 Y118.387 E7.54809
G1 X126.362 Y118.408 E7.58544
G1 X125.894 Y118.257 E7.60588
G1 X125.643 Y118.051 E7.61938
G1 X124.906 Y117.179 E7.66685
G1 X124.708 Y117.301 E7.67652
G1 X124.345 Y117.435 E7.69261
G1 X124.176 Y117.47 E7.69978
G1 X124.175 Y118.875 E7.7582
G1 X125.624 Y118.875 E7.81844
G1 X125.913 Y118.945 E7.8308
G1 X126.176 Y119.082 E7.84313
G1 X126.315 Y119.22 E7.85127
G1 X126.51 Y119.547 E7.8671
G1 X126.575 Y119.875 E7.881
G1 X126.576 Y120.701 E7.91535
G1 X126.528 Y120.986 E7.92736
G1 X126.323 Y121.368 E7.94539
G1 X123.918 Y123.772 E8.08676
G1 X123.536 Y123.977 E8.10478
G1 X123.251 Y124.025 E8.1168
G1 X118.049 Y124.025 E8.33307
G1 X117.764 Y123.977 E8.34509
G1 X117.382 Y123.772 E8.36311
G1 X114.977 Y121.368 E8.50449
G1 X114.772 Y120.986 E8.52251
G1 X114.724 Y120.701 E8.53453
G1 X114.725 Y119.826 E8.57091
G1 X114.795 Y119.537 E8.58327
G1 X114.932 Y119.274 E8.5956
G1 X115.07 Y119.135 E8.60374
G1 X115.397 Y118.94 E8.61957
G1 X115.725 Y118.875 E8.63347
G1 X117.124 Y118.874 E8.69164
G1 X117.124 Y117.547 E8.74681
G1 X111.527 Y117.543 E8.9795
G1 X111.219 Y117.619 E8.99269
G1 X110.914 Y117.837 E9.00828
G1 X110.793 Y118.048 E9.01839
G1 X110.693 Y118.374 E9.03257
G1 X110.697 Y123.974 E9.26539
G1 X112.025 Y123.975 E9.3206
G1 X112.025 Y122.526 E9.38084
G1 X112.095 Y122.237 E9.39321
G1 X112.232 Y121.974 E9.40554
G1 X112.37 Y121.835 E9.41368
G1 X112.697 Y121.64 E9.42951
G1 X113.025 Y121.575 E9.44341
G1 X113.851 Y121.574 E9.47775
G1 X114.136 Y121.622 E9.48977
G1 X114.518 Y121.827 E9.50779
G1 X116.923 Y124.232 E9.6492
G1 X117.128 Y124.614 E9.66722
G1 X117.176 Y124.899 E9.67924
G1 X117.175 Y127.816 E9.80051
G1 X117.353 Y127.523 E9.81476
G1 X118.76 Y126.499 E9.88711
G1 X119.173 Y126.402 E9.90475
G1 X120.677 Y126.402 E9.96728
G1 X121.09 Y126.499 E9.98492
G1 X122.498 Y127.523 E10.0573
G1 X122.712 Y127.878 E10.07453
G1 X123.179 Y129.316 E10.13739
G1 X123.213 Y129.737 E10.15495
G1 X122.712 Y131.28 E10.2224
G1 X122.498 Y131.635 E10.23963
G1 X121.09 Y132.659 E10.31201
G1 X120.677 Y132.756 E10.32965
G1 X119.173 Y132.756 E10.39218
G1 X118.76 Y132.659 E10.40982
G1 X117.352 Y131.635 E10.4822
G1 X117.138 Y131.28 E10.49943
G1 X116.96 Y130.73 E10.52347
G1 X114.518 Y133.172 E10.66705
G1 X114.136 Y133.377 E10.68507
G1 X113.851 Y133.425 E10.69709
G1 X112.976 Y133.425 E10.73347
G1 X112.687 Y133.355 E10.74583
G1 X112.424 Y133.218 E10.75816
G1 X112.285 Y133.08 E10.7663
G1 X112.09 Y132.753 E10.78213
G1 X112.025 Y132.425 E10.79603
G1 X112.024 Y131.026 E10.85419
G1 X110.697 Y131.026 E10.90936
G1 X110.692 Y136.416 E11.13346
G1 X110.649 Y136.9 E11.15366
G1 X110.487 Y137.467 E11.17817
G1 X110.146 Y137.925 E11.20191
G1 X109.861 Y138.165 E11.2174
G1 X109.325 Y138.381 E11.24143
G1 X107.731 Y138.383 E11.3077
G1 X107.254 Y138.194 E11.32903
G1 X106.948 Y137.981 E11.34453
G1 X106.563 Y137.466 E11.37126
G1 X106.391 Y136.846 E11.39801
G1 X106.359 Y136.469 E11.41374
G1 X106.358 Y98.584 E12.98882
G1 X106.402 Y98.099 E13.00907
G1 X106.563 Y97.533 E13.03353
G1 X106.904 Y97.075 E13.05727
G0 F6000 X107.225 Y97.314
G1 F1200 X107.397 Y97.182 E13.06629
G1 X107.802 Y97.019 E13.08444
G1 X109.093 Y97.017 E13.13811
G1 X109.499 Y97.178 E13.15627
G1 X109.671 Y97.31 E13.16528
G1 X109.97 Y97.709 E13.18601
G1 X110.105 Y98.178 E13.2063
G1 X110.143 Y98.599 E13.22388
G1 X110.145 Y110.881 E13.7345
G1 X110.181 Y111.247 E13.74979
G1 X110.259 Y111.593 E13.76454
G1 X110.384 Y111.933 E13.7796
G1 X110.554 Y112.258 E13.79485
G1 X110.808 Y112.622 E13.8133
G1 X111.132 Y112.936 E13.83206
G1 X111.416 Y113.148 E13.84679
G1 X111.767 Y113.341 E13.86345
G1 X112.147 Y113.496 E13.88051
G1 X112.589 Y113.581 E13.89922
G1 X112.975 Y113.607 E13.91531
G1 X123.685 Y113.608 E14.36058
G1 X124.173 Y113.68 E14.38109
G1 X124.701 Y113.889 E14.40469
G1 X124.956 Y114.073 E14.41777
G1 X125.194 Y114.48 E14.43737
G1 X125.249 Y114.682 E14.44607
G1 X125.248 Y115.571 E14.48303
G1 X125.294 Y115.364 E14.49185
G1 X125.402 Y115.14 E14.50219
G1 X125.524 Y115.011 E14.50957
G1 X125.658 Y114.948 E14.51573
G1 X125.279 Y114.5 E14.54012
G1 X125.194 Y114.168 E14.55437
G1 X125.203 Y113.763 E14.57121
G1 X125.268 Y113.52 E14.58167
G1 X125.363 Y113.37 E14.58905
G1 X125.616 Y113.22 E14.60128
G1 X125.789 Y113.176 E14.6087
G1 X126.56 Y113.158 E14.64077
G1 X126.891 Y113.264 E14.65522
G1 X127.032 Y113.371 E14.66257
G1 X127.841 Y114.328 E14.71467
G1 X127.926 Y114.66 E14.72892
G1 X127.917 Y115.065 E14.74576
G1 X127.852 Y115.308 E14.75622
G1 X127.757 Y115.458 E14.7636
G1 X127.535 Y115.592 E14.77438
G1 X127.86 Y115.977 E14.79533
G1 X127.944 Y116.14 E14.80296
G1 X127.988 Y116.493 E14.81774
G1 X127.762 Y117.517 E14.86134
G1 X127.654 Y117.741 E14.87168
G1 X127.532 Y117.87 E14.87906
G1 X127.19 Y117.988 E14.8941
G1 X126.42 Y118.006 E14.92613
G1 X126.089 Y117.9 E14.94058
G1 X125.948 Y117.793 E14.94793
G1 X125.196 Y116.904 E14.99634
G1 X125.112 Y116.741 E15.00397
G1 X125.069 Y116.474 E15.01521
G1 X124.865 Y116.722 E15.02856
G1 X124.569 Y116.926 E15.04351
G1 X124.206 Y117.06 E15.0596
G1 X123.776 Y117.13 E15.07771
G1 X123.775 Y119.275 E15.16689
G1 X125.575 Y119.275 E15.24172
G1 X125.819 Y119.334 E15.25216
G1 X125.971 Y119.425 E15.25952
G1 X126.132 Y119.695 E15.27259
G1 X126.175 Y119.875 E15.28029
G1 X126.176 Y120.701 E15.31463
G1 X126.145 Y120.855 E15.32116
G1 X126 Y121.125 E15.3339
G1 X123.675 Y123.449 E15.47057
G1 X123.405 Y123.594 E15.48332
G1 X123.251 Y123.625 E15.48985
G1 X118.049 Y123.625 E15.70612
G1 X117.895 Y123.594 E15.71265
G1 X117.625 Y123.449 E15.72539
G1 X115.3 Y121.125 E15.86206
G1 X115.155 Y120.855 E15.87481
G1 X115.124 Y120.701 E15.88134
G1 X115.125 Y119.875 E15.91568
G1 X115.184 Y119.631 E15.92611
G1 X115.275 Y119.479 E15.93348
G1 X115.545 Y119.318 E15.94655
G1 X115.725 Y119.275 E15.95424
G1 X117.524 Y119.274 E16.02904
G1 X117.524 Y117.147 E16.11747
G1 X111.48 Y117.143 E16.36875
G1 X111.048 Y117.25 E16.38725
G1 X110.742 Y117.468 E16.40287
G1 X110.559 Y117.651 E16.41363
G1 X110.423 Y117.887 E16.42496
G1 X110.293 Y118.313 E16.44347
G1 X110.297 Y124.374 E16.69546
G1 X112.425 Y124.375 E16.78393
G1 X112.425 Y122.575 E16.85877
G1 X112.484 Y122.331 E16.8692
G1 X112.575 Y122.179 E16.87657
G1 X112.845 Y122.018 E16.88964
G1 X113.025 Y121.975 E16.89733
G1 X113.851 Y121.974 E16.93167
G1 X114.005 Y122.005 E16.93821
G1 X114.275 Y122.15 E16.95095
G1 X116.6 Y124.475 E17.08765
G1 X116.745 Y124.745 E17.10039
G1 X116.776 Y124.899 E17.10692
G1 X116.775 Y130.101 E17.32319
G1 X116.744 Y130.255 E17.32973
G1 X116.599 Y130.525 E17.34247
G1 X114.275 Y132.849 E17.47911
G1 X114.005 Y132.994 E17.49185
G1 X113.851 Y133.025 E17.49838
G1 X113.025 Y133.025 E17.53272
G1 X112.781 Y132.966 E17.54316
G1 X112.629 Y132.875 E17.55053
G1 X112.468 Y132.605 E17.56359
G1 X112.425 Y132.425 E17.57129
G1 X112.424 Y130.626 E17.64608
G1 X110.297 Y130.626 E17.73451
G1 X110.292 Y136.416 E17.97523
G1 X110.255 Y136.823 E17.99222
G1 X110.122 Y137.287 E18.01229
G1 X109.825 Y137.686 E18.03297
G1 X109.653 Y137.818 E18.04199
G1 X109.248 Y137.981 E18.06014
G1 X107.807 Y137.983 E18.12005
G1 X107.401 Y137.822 E18.1382
G1 X107.229 Y137.69 E18.14722
G1 X106.928 Y137.287 E18.16813
G1 X106.787 Y136.78 E18.19001
G1 X106.758 Y136.435 E18.2044
G1 X106.758 Y98.584 E19.77807
G1 X106.796 Y98.176 E19.7951
G1 X106.928 Y97.713 E19.81512
G1 X107.225 Y97.314 E19.8358
G0 F6000 X107.546 Y97.553
G1 F1200 X107.879 Y97.419 E19.85072
G1 X109.016 Y97.417 E19.89799
G1 X109.351 Y97.55 E19.91298
G1 X109.606 Y97.891 E19.93068
G1 X109.71 Y98.252 E19.9463
G1 X109.743 Y98.599 E19.96079
G1 X109.745 Y110.9 E20.47221
G1 X109.785 Y111.31 E20.48933
G1 X109.875 Y111.708 E20.5063
G1 X110.019 Y112.098 E20.52358
G1 X110.21 Y112.464 E20.54075
G1 X110.503 Y112.883 E20.562
G1 X110.871 Y113.241 E20.58335
G1 X111.201 Y113.487 E20.60046
G1 X111.587 Y113.699 E20.61877
G1 X112.035 Y113.882 E20.63889
G1 X112.536 Y113.978 E20.6601
G1 X112.963 Y114.007 E20.67789
G1 X123.685 Y114.008 E21.12366
G1 X124.069 Y114.069 E21.13982
G1 X124.554 Y114.261 E21.16151
G1 X124.652 Y114.345 E21.16688
G1 X124.849 Y114.682 E21.18311
G1 X124.848 Y116.029 E21.23911
G1 X124.818 Y116.135 E21.24369
G1 X124.638 Y116.393 E21.25677
G1 X124.383 Y116.569 E21.26965
G1 X124.108 Y116.67 E21.28183
G1 X123.658 Y116.744 E21.30079
G1 X123.376 Y116.746 E21.31251
G1 X123.375 Y119.675 E21.43429
G1 X125.575 Y119.675 E21.52575
G1 X125.694 Y119.714 E21.53096
G1 X125.775 Y119.875 E21.53845
G1 X125.776 Y120.701 E21.57279
G1 X125.717 Y120.842 E21.57915
G1 X123.392 Y123.166 E21.71582
G1 X123.251 Y123.225 E21.72217
G1 X118.049 Y123.225 E21.93845
G1 X117.908 Y123.166 E21.9448
G1 X115.583 Y120.842 E22.08147
G1 X115.524 Y120.701 E22.08783
G1 X115.525 Y119.875 E22.12217
G1 X115.564 Y119.756 E22.12738
G1 X115.725 Y119.675 E22.13487
G1 X117.924 Y119.674 E22.22629
G1 X117.924 Y116.747 E22.34798
G1 X111.603 Y116.743 E22.61078
G1 X111.35 Y116.763 E22.62133
G1 X111.036 Y116.841 E22.63478
G1 X110.748 Y116.973 E22.64795
G1 X110.482 Y117.162 E22.66152
G1 X110.238 Y117.406 E22.67587
G1 X110.064 Y117.708 E22.69036
G1 X109.97 Y117.948 E22.70107
G1 X109.913 Y118.2 E22.71182
G1 X109.893 Y118.451 E22.72228
G1 X109.897 Y124.774 E22.98516
G1 X112.825 Y124.775 E23.1069
G1 X112.825 Y122.575 E23.19836
G1 X112.864 Y122.456 E23.20357
G1 X113.025 Y122.375 E23.21106
G1 X113.851 Y122.374 E23.2454
G1 X113.992 Y122.433 E23.25176
G1 X116.317 Y124.758 E23.38846
G1 X116.376 Y124.899 E23.39481
G1 X116.375 Y130.101 E23.61109
G1 X116.316 Y130.242 E23.61744
G1 X113.992 Y132.566 E23.75408
G1 X113.851 Y132.625 E23.76044
G1 X113.025 Y132.625 E23.79478
G1 X112.906 Y132.586 E23.79998
G1 X112.825 Y132.425 E23.80748
G1 X112.824 Y130.226 E23.8989
G1 X109.897 Y130.226 E24.02059
G1 X109.892 Y136.416 E24.27794
G1 X109.86 Y136.746 E24.29173
G1 X109.757 Y137.107 E24.30733
G1 X109.504 Y137.447 E24.32495
G1 X109.171 Y137.581 E24.33988
G1 X107.884 Y137.583 E24.39338
G1 X107.549 Y137.45 E24.40837
G1 X107.294 Y137.109 E24.42607
G1 X107.183 Y136.708 E24.44337
G1 X107.157 Y136.401 E24.45618
G1 X107.158 Y98.584 E26.02843
G1 X107.19 Y98.253 E26.04225
G1 X107.293 Y97.893 E26.05782
G1 X107.546 Y97.553 E26.07544
G1 F1500 E18.07544
G0 F6000 X107.347 Y97.137
G0 X107.729 Y96.955
G0 X109.163 Y96.953
G0 X109.562 Y97.14
G0 X125.645 Y113.654
G1 F1500 E26.07544
G1 F1200 X125.798 Y113.576 E26.08258
G1 X126.569 Y113.558 E26.11464
G1 X126.727 Y113.629 E26.12185
G1 X127.479 Y114.518 E26.17026
G1 X127.526 Y114.651 E26.17612
G1 X127.517 Y115.056 E26.19296
G1 X127.475 Y115.174 E26.19817
G1 X127.322 Y115.252 E26.20531
G1 X126.551 Y115.27 E26.23737
G1 X126.393 Y115.199 E26.24457
G1 X125.641 Y114.31 E26.29299
G1 X125.594 Y114.177 E26.29885
G1 X125.603 Y113.772 E26.31569
G1 X125.645 Y113.654 E26.3209
G1 F1500 E18.3209
G0 F6000 X125.875 Y115.293
G1 F1500 E26.3209
G1 F1200 X126.645 Y115.275 E26.35292
G1 X126.803 Y115.346 E26.36012
G1 X127.555 Y116.235 E26.40853
G1 X127.597 Y116.407 E26.41589
G1 X127.371 Y117.431 E26.45949
G1 X127.308 Y117.539 E26.46469
G1 X127.181 Y117.588 E26.47035
G1 X126.411 Y117.606 E26.50237
G1 X126.253 Y117.535 E26.50957
G1 X125.501 Y116.646 E26.55798
G1 X125.459 Y116.474 E26.56534
G1 X125.685 Y115.45 E26.60894
G1 X125.748 Y115.342 E26.61414
G1 X125.875 Y115.293 E26.6198
G1 F1500 E18.6198
G0 F6000 X126.227 Y119.222
G0 X126.237 Y120.975
G0 X120.75 Y127.24
G1 F1500 E26.6198
G1 F1200 X121.895 Y128.073 E26.67867
G1 X121.967 Y128.173 E26.68379
G1 X122.404 Y129.517 E26.74255
G1 X122.404 Y129.641 E26.7477
G1 X121.967 Y130.985 E26.80646
