;FLAVOR:Marlin
;TIME:8626
;Filament used: 5.46144m
;Layer height: 0.2
;MINX:57.515
;MINY:40.561
;MINZ:0.25
;MAXX:148.737
;MAXY:183.212
;MAXZ:40.05
;Generated with Cura_SteamEngine 5.3.0
M140 S55
M105
M190 S55
M104 S212
M105
M109 S212
M82 ;absolute extrusion mode
START_PRINT
G92 E0
G92 E0
G1 F3000 E-6.5
;LAYER_COUNT:200
;LAYER:0
M107
G0 X59.034 Y43.585 Z0.25
;TYPE:SKIRT
G1 F3000 E0
G1 F600 X57.981 Y45.612 E0.09497
G1 X57.515 Y47.508 E0.17614
G1 X57.515 Y93.259 E2.07824
G1 X57.953 Y95.446 E2.17097
G1 X59.065 Y97.318 E2.2615
G1 X60.539 Y98.893 E2.35118
G1 X62.566 Y99.946 E2.44615
G1 X64.462 Y100.412 E2.52732
G1 X80.35 Y100.412 E3.18787
G1 X82.352 Y99.95 E3.27329
G1 X83.682 Y99.201 E3.33675
G1 X85.091 Y98.186 E3.40894
G1 X86.427 Y96.5 E3.49838
G1 X87.089 Y94.988 E3.567
G1 X87.484 Y93.35 E3.63705
G1 X87.483 Y81.287 E4.13858
G1 X86.711 Y78.977 E4.23984
G1 X86.165 Y78.135 E4.28156
G1 X84.905 Y76.618 E4.36355
G1 X83.328 Y75.503 E4.44384
G1 X79.115 Y71.291 E4.69152
G1 X79.115 Y69.684 E4.75833
G1 X83.329 Y65.47 E5.0061
G1 X85.18 Y64.166 E5.10023
G1 X86.32 Y62.593 E5.181
G1 X86.98 Y61.428 E5.23667
G1 X87.484 Y59.365 E5.32496
G1 X87.483 Y47.179 E5.83159
G1 X86.577 Y44.751 E5.93934
G1 X85.552 Y43.332 E6.01211
G1 X84.227 Y42.088 E6.08768
G1 X82.257 Y40.998 E6.18128
G1 X80.221 Y40.561 E6.26785
G1 X64.668 Y40.561 E6.91447
G1 X62.481 Y40.999 E7.0072
G1 X60.609 Y42.111 E7.09773
G1 X59.034 Y43.585 E7.18741
G0 F3000 X59.357 Y43.83
G1 F600 X58.357 Y45.755 E7.2776
G1 X57.915 Y47.554 E7.35462
G1 X57.915 Y93.221 E9.25323
G1 X58.331 Y95.3 E9.34138
G1 X59.387 Y97.077 E9.42732
G1 X60.784 Y98.57 E9.51233
G1 X62.709 Y99.57 E9.60251
G1 X64.508 Y100.012 E9.67953
G1 X80.303 Y100.012 E10.33621
G1 X82.206 Y99.573 E10.41741
G1 X83.448 Y98.876 E10.47662
G1 X84.813 Y97.893 E10.54655
G1 X86.082 Y96.291 E10.63152
G1 X86.708 Y94.862 E10.69638
G1 X87.084 Y93.302 E10.7631
G1 X87.083 Y81.351 E11.25996
G1 X86.349 Y79.155 E11.35622
G1 X85.829 Y78.353 E11.39596
G1 X84.633 Y76.916 E11.47369
G1 X83.07 Y75.811 E11.55327
G1 X78.715 Y71.457 E11.8093
G1 X78.715 Y69.518 E11.88992
G1 X83.069 Y65.164 E12.14591
G1 X84.894 Y63.878 E12.23873
G1 X85.996 Y62.358 E12.31679
G1 X86.604 Y61.281 E12.36821
G1 X87.084 Y59.315 E12.45235
G1 X87.083 Y47.252 E12.95387
G1 X86.22 Y44.939 E13.05651
G1 X85.253 Y43.6 E13.12517
G1 X83.989 Y42.413 E13.19726
G1 X82.114 Y41.376 E13.28635
G1 X80.179 Y40.961 E13.36862
G1 X64.706 Y40.961 E14.01192
G1 X62.627 Y41.377 E14.10006
G1 X60.85 Y42.433 E14.186
G1 X59.357 Y43.83 E14.27101
G0 F3000 X59.68 Y44.075
G1 F600 X61.091 Y42.755 E14.35134
G1 X62.773 Y41.756 E14.43267
G1 X64.745 Y41.361 E14.51629
G1 X80.137 Y41.361 E15.15621
G1 X81.971 Y41.754 E15.23419
G1 X83.751 Y42.738 E15.31875
G1 X84.954 Y43.868 E15.38737
G1 X85.863 Y45.127 E15.45193
G1 X86.683 Y47.325 E15.54947
G1 X86.684 Y59.265 E16.04587
G1 X86.228 Y61.133 E16.12582
G1 X85.672 Y62.123 E16.17302
G1 X84.608 Y63.59 E16.24837
G1 X82.809 Y64.858 E16.33987
G1 X78.315 Y69.352 E16.6041
G1 X78.315 Y71.623 E16.69852
G1 X82.812 Y76.119 E16.9629
G1 X84.361 Y77.214 E17.04176
G1 X85.493 Y78.571 E17.11523
G1 X85.987 Y79.333 E17.15299
G1 X86.683 Y81.415 E17.24426
G1 X86.684 Y93.254 E17.73647
G1 X86.327 Y94.736 E17.79984
G1 X85.736 Y96.085 E17.86107
G1 X84.537 Y97.598 E17.94133
G1 X83.214 Y98.551 E18.00912
G1 X82.062 Y99.196 E18.06401
G1 X80.256 Y99.612 E18.14106
G1 X64.555 Y99.612 E18.79384
G1 X62.851 Y99.193 E18.86679
G1 X61.029 Y98.247 E18.95214
G1 X59.709 Y96.836 E19.03247
G1 X58.71 Y95.154 E19.11381
G1 X58.315 Y93.182 E19.19742
G1 X58.315 Y47.601 E21.09246
G1 X58.734 Y45.897 E21.16541
G1 X59.68 Y44.075 E21.25076
G0 F3000 X60.003 Y44.32
G1 F600 X61.332 Y43.077 E21.32642
G1 X62.919 Y42.134 E21.40317
G1 X64.783 Y41.761 E21.4822
G1 X80.095 Y41.761 E22.1188
G1 X81.83 Y42.133 E22.19257
G1 X83.511 Y43.062 E22.27242
G1 X84.655 Y44.136 E22.33766
G1 X85.506 Y45.315 E22.39811
G1 X86.283 Y47.398 E22.49054
G1 X86.284 Y59.215 E22.98183
G1 X85.852 Y60.985 E23.05758
G1 X85.323 Y61.927 E23.1025
G1 X84.325 Y63.299 E23.17303
G1 X82.551 Y64.55 E23.26328
G1 X77.915 Y69.186 E23.53586
G1 X77.915 Y71.789 E23.64408
G1 X82.554 Y76.427 E23.91681
G1 X84.087 Y77.511 E23.99487
G1 X85.157 Y78.789 E24.06416
G1 X85.625 Y79.511 E24.09994
G1 X86.283 Y81.479 E24.18621
G1 X86.284 Y93.206 E24.67376
G1 X85.945 Y94.612 E24.73389
G1 X85.392 Y95.875 E24.79121
G1 X84.259 Y97.305 E24.86706
G1 X82.98 Y98.226 E24.93259
G1 X81.918 Y98.818 E24.98314
G1 X80.209 Y99.212 E25.05606
G1 X64.601 Y99.212 E25.70496
G1 X62.994 Y98.817 E25.77376
G1 X61.274 Y97.924 E25.85433
G1 X60.031 Y96.595 E25.92999
G1 X59.088 Y95.008 E26.00674
G1 X58.715 Y93.144 E26.08577
G1 X58.715 Y47.647 E27.97731
G1 X59.11 Y46.04 E28.04611
G1 X60.003 Y44.32 E28.12669
G0 F3000 X60.326 Y44.565
G1 F600 X61.573 Y43.399 E28.19766
G1 X63.065 Y42.512 E28.26983
G1 X64.821 Y42.161 E28.34428
G1 X80.053 Y42.161 E28.97755
G1 X81.689 Y42.512 E29.04712
G1 X83.271 Y43.386 E29.12226
G1 X84.356 Y44.404 E29.18411
G1 X85.149 Y45.503 E29.24046
G1 X85.883 Y47.471 E29.32778
G1 X85.884 Y59.165 E29.81396
G1 X85.476 Y60.837 E29.88552
G1 X84.974 Y61.731 E29.92814
G1 X84.041 Y63.009 E29.99393
G1 X82.293 Y64.242 E30.08286
G1 X77.515 Y69.02 E30.36379
G1 X77.515 Y71.955 E30.48581
G1 X82.296 Y76.735 E30.76689
G1 X83.816 Y77.81 E30.84429
G1 X84.821 Y79.007 E30.90927
G1 X85.263 Y79.689 E30.94306
G1 X85.883 Y81.543 E31.02434
G1 X85.884 Y93.158 E31.50723
G1 X85.564 Y94.486 E31.56402
G1 X85.047 Y95.666 E31.61758
G1 X83.979 Y97.014 E31.68909
G1 X82.785 Y97.877 E31.75034
G1 X81.774 Y98.44 E31.79845
G1 X80.162 Y98.812 E31.86723
G1 X64.647 Y98.812 E32.51227
G1 X63.137 Y98.441 E32.57691
G1 X61.519 Y97.601 E32.6527
G1 X60.353 Y96.354 E32.72368
G1 X59.466 Y94.862 E32.79585
G1 X59.115 Y93.106 E32.8703
G1 X59.115 Y47.693 E34.75835
G1 X59.486 Y46.183 E34.823
G1 X60.326 Y44.565 E34.89879
G0 F3000 X60.649 Y44.81
G1 F600 X61.814 Y43.721 E34.96509
G1 X63.211 Y42.89 E35.03267
G1 X64.859 Y42.561 E35.10254
G1 X80.011 Y42.561 E35.73248
G1 X81.548 Y42.891 E35.79784
G1 X83.031 Y43.71 E35.86827
G1 X84.057 Y44.672 E35.92675
G1 X84.792 Y45.691 E35.97898
G1 X85.483 Y47.544 E36.06121
G1 X85.484 Y59.115 E36.54227
G1 X85.1 Y60.689 E36.60963
G1 X84.625 Y61.535 E36.64997
G1 X83.757 Y62.719 E36.711
G1 X82.035 Y63.934 E36.79862
G1 X77.115 Y68.854 E37.0879
G1 X77.115 Y72.121 E37.22373
G1 X82.038 Y77.043 E37.51315
G1 X83.543 Y78.107 E37.58978
G1 X84.485 Y79.225 E37.65056
G1 X84.901 Y79.867 E37.68236
G1 X85.483 Y81.607 E37.75864
G1 X85.484 Y93.11 E38.23688
G1 X85.182 Y94.362 E38.29043
G1 X84.703 Y95.456 E38.34008
G1 X83.7 Y96.722 E38.40723
G1 X82.59 Y97.527 E38.46424
G1 X81.627 Y98.063 E38.51006
G1 X80.115 Y98.412 E38.57457
G1 X64.694 Y98.412 E39.2157
G1 X63.279 Y98.064 E39.27629
G1 X61.764 Y97.278 E39.34724
G1 X60.675 Y96.113 E39.41355
G1 X59.844 Y94.716 E39.48113
G1 X59.515 Y93.068 E39.55099
G1 X59.515 Y47.74 E41.43551
G1 X59.863 Y46.325 E41.49609
G1 X60.649 Y44.81 E41.56705
G0 F3000 X60.972 Y45.055
G1 F600 X62.053 Y44.045 E41.62856
G1 X63.359 Y43.268 E41.69174
G1 X64.897 Y42.961 E41.75694
G1 X79.969 Y42.961 E42.38356
G1 X81.407 Y43.27 E42.44471
G1 X82.794 Y44.036 E42.51059
G1 X83.756 Y44.937 E42.56539
G1 X84.435 Y45.879 E42.61366
G1 X85.083 Y47.617 E42.69078
G1 X85.084 Y59.065 E43.16673
G1 X84.723 Y60.543 E43.22999
G1 X84.302 Y61.298 E43.26593
G1 X83.472 Y62.43 E43.32429
G1 X81.777 Y63.626 E43.41053
G1 X76.715 Y68.688 E43.70816
G1 X76.715 Y72.287 E43.85779
G1 X81.78 Y77.351 E44.15556
G1 X83.27 Y78.405 E44.23144
G1 X84.179 Y79.483 E44.29006
G1 X84.539 Y80.044 E44.31778
G1 X85.083 Y81.671 E44.3891
G1 X85.084 Y93.062 E44.86268
G1 X84.801 Y94.236 E44.91289
G1 X84.358 Y95.247 E44.95878
G1 X83.421 Y96.43 E45.02152
G1 X82.355 Y97.203 E45.07627
G1 X81.482 Y97.686 E45.11775
G1 X80.068 Y98.012 E45.17808
G1 X64.74 Y98.012 E45.81534
G1 X63.422 Y97.688 E45.87177
G1 X62.009 Y96.955 E45.93795
G1 X60.999 Y95.874 E45.99946
G1 X60.222 Y94.568 E46.06264
G1 X59.915 Y93.03 E46.12784
G1 X59.915 Y47.786 E48.00887
G1 X60.239 Y46.468 E48.0653
G1 X60.972 Y45.055 E48.13147
G0 F3000 X61.295 Y45.3
G1 F600 X62.292 Y44.369 E48.18819
G1 X63.507 Y43.646 E48.24697
G1 X64.935 Y43.361 E48.30751
G1 X79.927 Y43.361 E48.9308
G1 X81.266 Y43.649 E48.98775
G1 X82.557 Y44.362 E49.04906
G1 X83.452 Y45.2 E49.10004
G1 X84.079 Y46.07 E49.14462
G1 X84.683 Y47.69 E49.2165
G1 X84.684 Y59.015 E49.68734
G1 X84.347 Y60.396 E49.74644
G1 X83.979 Y61.061 E49.77804
G1 X83.187 Y62.141 E49.83372
G1 X81.519 Y63.318 E49.91859
G1 X76.315 Y68.522 E50.22457
G1 X76.315 Y72.453 E50.388
G1 X81.522 Y77.659 E50.69412
G1 X82.998 Y78.703 E50.76929
G1 X83.842 Y79.699 E50.82356
G1 X84.176 Y80.22 E50.84929
G1 X84.683 Y81.735 E50.91571
G1 X84.684 Y93.014 E51.38464
G1 X84.419 Y94.112 E51.4316
G1 X84.014 Y95.037 E51.47358
G1 X83.142 Y96.138 E51.53197
G1 X82.12 Y96.879 E51.58446
G1 X81.338 Y97.308 E51.62154
G1 X80.021 Y97.612 E51.67773
G1 X64.786 Y97.612 E52.31113
G1 X63.565 Y97.312 E52.3634
G1 X62.254 Y96.632 E52.4248
G1 X61.323 Y95.635 E52.48152
G1 X60.6 Y94.42 E52.5403
G1 X60.315 Y92.992 E52.60084
G1 X60.315 Y47.832 E54.47837
G1 X60.615 Y46.611 E54.53065
G1 X61.295 Y45.3 E54.59205
G0 F3000 X61.618 Y45.545
G1 F600 X62.531 Y44.693 E54.64397
G1 X63.655 Y44.024 E54.69835
G1 X64.973 Y43.761 E54.75422
G1 X79.885 Y43.761 E55.37419
G1 X81.125 Y44.028 E55.42693
G1 X82.32 Y44.688 E55.48368
G1 X83.148 Y45.463 E55.53083
G1 X83.723 Y46.261 E55.57173
G1 X84.283 Y47.763 E55.63837
G1 X84.284 Y58.965 E56.1041
G1 X83.97 Y60.25 E56.15909
G1 X83.656 Y60.824 E56.18629
G1 X82.902 Y61.852 E56.2393
G1 X81.261 Y63.01 E56.3228
G1 X75.915 Y68.356 E56.63712
G1 X75.915 Y72.619 E56.81436
G1 X81.264 Y77.967 E57.12883
G1 X82.726 Y79.001 E57.20328
G1 X83.537 Y79.958 E57.25543
G1 X83.813 Y80.395 E57.27692
G1 X84.283 Y81.799 E57.33847
G1 X84.284 Y92.966 E57.80274
G1 X84.038 Y93.986 E57.84637
G1 X83.669 Y94.828 E57.88459
G1 X82.861 Y95.848 E57.93869
G1 X81.927 Y96.528 E57.98672
G1 X81.193 Y96.931 E58.02153
G1 X79.974 Y97.212 E58.07354
G1 X64.832 Y97.212 E58.70307
G1 X63.708 Y96.936 E58.75119
G1 X62.499 Y96.309 E58.80781
G1 X61.647 Y95.396 E58.85973
G1 X60.978 Y94.272 E58.91411
G1 X60.715 Y92.954 E58.96999
G1 X60.715 Y47.878 E60.84403
G1 X60.991 Y46.754 E60.89215
G1 X61.618 Y45.545 E60.94877
G0 F3000 X61.94 Y45.792
G1 F600 X62.773 Y45.015 E60.99613
G1 X63.803 Y44.402 E61.04596
G1 X65.011 Y44.161 E61.09718
G1 X79.843 Y44.161 E61.71382
G1 X80.984 Y44.407 E61.76235
G1 X82.083 Y45.014 E61.81454
G1 X82.847 Y45.729 E61.85805
G1 X83.366 Y46.449 E61.89495
G1 X83.883 Y47.836 E61.95649
G1 X83.884 Y58.915 E62.4171
G1 X83.593 Y60.105 E62.46803
G1 X83.305 Y60.632 E62.493
G1 X82.619 Y61.562 E62.54105
G1 X81.003 Y62.702 E62.62327
G1 X75.515 Y68.19 E62.94594
G1 X75.515 Y72.785 E63.13698
G1 X81.006 Y78.275 E63.4598
G1 X82.457 Y79.301 E63.53368
G1 X83.199 Y80.172 E63.58125
G1 X83.45 Y80.569 E63.60078
G1 X83.883 Y81.863 E63.65751
G1 X83.884 Y92.918 E64.11712
G1 X83.657 Y93.86 E64.15741
G1 X83.324 Y94.619 E64.19187
G1 X82.581 Y95.557 E64.24162
G1 X81.734 Y96.177 E64.28526
G1 X81.048 Y96.554 E64.3178
G1 X79.927 Y96.812 E64.36563
G1 X64.879 Y96.812 E64.99125
G1 X63.85 Y96.559 E65.0353
G1 X62.746 Y95.987 E65.087
G1 X61.969 Y95.154 E65.13436
G1 X61.356 Y94.124 E65.18419
G1 X61.115 Y92.916 E65.2354
G1 X61.115 Y47.925 E67.10591
G1 X61.368 Y46.896 E67.14997
G1 X61.94 Y45.792 E67.20166
G0 F3000 X62.262 Y46.039
G1 F600 X63.015 Y45.337 E67.24446
G1 X63.951 Y44.78 E67.28974
G1 X65.049 Y44.561 E67.33629
G1 X79.801 Y44.561 E67.94961
G1 X80.843 Y44.786 E67.99393
G1 X81.846 Y45.34 E68.04157
G1 X82.546 Y45.995 E68.08142
G1 X83.009 Y46.637 E68.11433
G1 X83.483 Y47.909 E68.17077
G1 X83.484 Y58.865 E68.62626
G1 X83.216 Y59.959 E68.67309
G1 X82.983 Y60.394 E68.69361
G1 X82.335 Y61.272 E68.73898
G1 X80.745 Y62.394 E68.81988
G1 X75.115 Y68.024 E69.15091
G1 X75.115 Y72.951 E69.35575
G1 X80.748 Y78.583 E69.68692
G1 X82.186 Y79.6 E69.76014
G1 X82.861 Y80.386 E69.80322
G1 X83.087 Y80.743 E69.82078
G1 X83.483 Y81.927 E69.87269
G1 X83.484 Y92.87 E70.32764
G1 X83.276 Y93.734 E70.36459
G1 X82.979 Y94.41 E70.39529
G1 X82.301 Y95.266 E70.44069
G1 X81.498 Y95.854 E70.48207
G1 X80.906 Y96.176 E70.51008
G1 X79.88 Y96.412 E70.55385
G1 X64.925 Y96.412 E71.17561
G1 X63.993 Y96.183 E71.21551
G1 X62.993 Y95.665 E71.26233
G1 X62.291 Y94.912 E71.30513
G1 X61.734 Y93.976 E71.35042
G1 X61.515 Y92.878 E71.39697
G1 X61.515 Y47.971 E73.26398
G1 X61.744 Y47.039 E73.30388
G1 X62.262 Y46.039 E73.35071
G0 F3000 X62.584 Y46.286
G1 F600 X63.257 Y45.659 E73.38895
G1 X64.099 Y45.158 E73.42968
G1 X65.087 Y44.961 E73.47157
G1 X79.759 Y44.961 E74.08156
G1 X80.7 Y45.164 E74.12158
G1 X81.61 Y45.667 E74.16481
G1 X82.245 Y46.261 E74.20096
G1 X82.652 Y46.825 E74.22987
G1 X83.083 Y47.982 E74.28121
G1 X83.084 Y58.815 E74.73159
G1 X82.839 Y59.817 E74.77448
G1 X82.661 Y60.157 E74.79043
G1 X82.053 Y60.981 E74.833
G1 X80.487 Y62.086 E74.91269
G1 X74.715 Y67.858 E75.25206
G1 X74.715 Y73.117 E75.4707
G1 X80.49 Y78.891 E75.81022
G1 X81.916 Y79.9 E75.88285
G1 X82.523 Y80.6 E75.92137
G1 X82.724 Y80.917 E75.93697
G1 X83.083 Y81.991 E75.98405
G1 X83.084 Y92.822 E76.43435
G1 X82.895 Y93.608 E76.46796
G1 X82.634 Y94.201 E76.4949
G1 X82.022 Y94.974 E76.53589
G1 X81.307 Y95.502 E76.57284
G1 X80.762 Y95.798 E76.59863
G1 X79.833 Y96.012 E76.63826
G1 X64.971 Y96.012 E77.25615
G1 X64.136 Y95.807 E77.2919
G1 X63.24 Y95.343 E77.33385
G1 X62.613 Y94.67 E77.37209
G1 X62.112 Y93.828 E77.41283
G1 X61.915 Y92.84 E77.45471
G1 X61.915 Y48.017 E79.31823
G1 X62.12 Y47.182 E79.35398
G1 X62.584 Y46.286 E79.39593
G0 F3000 X62.906 Y46.533
G1 F600 X63.499 Y45.981 E79.42961
G1 X64.247 Y45.536 E79.4658
G1 X65.125 Y45.361 E79.50302
G1 X79.717 Y45.361 E80.10968
G1 X80.557 Y45.542 E80.14541
G1 X81.374 Y45.994 E80.18423
G1 X81.944 Y46.527 E80.21667
G1 X82.295 Y47.013 E80.2416
G1 X82.683 Y48.055 E80.28782
G1 X82.684 Y58.765 E80.73309
G1 X82.46 Y59.679 E80.77222
G1 X82.339 Y59.92 E80.78343
G1 X81.771 Y60.69 E80.82321
G1 X80.229 Y61.778 E80.90167
G1 X74.315 Y67.692 E81.24939
G1 X74.315 Y73.283 E81.48184
G1 X80.228 Y79.195 E81.82947
G1 X81.645 Y80.198 E81.90165
G1 X82.221 Y80.862 E81.93819
G1 X82.361 Y81.091 E81.94935
G1 X82.683 Y82.055 E81.99161
G1 X82.684 Y92.774 E82.43725
G1 X82.514 Y93.481 E82.46748
G1 X82.289 Y93.992 E82.4907
G1 X81.742 Y94.684 E82.52737
G1 X81.116 Y95.15 E82.55981
G1 X80.618 Y95.42 E82.58337
G1 X79.786 Y95.612 E82.61886
G1 X65.017 Y95.612 E83.23289
G1 X64.279 Y95.431 E83.26448
G1 X63.487 Y95.021 E83.30156
G1 X62.935 Y94.428 E83.33524
G1 X62.49 Y93.68 E83.37143
G1 X62.315 Y92.802 E83.40865
G1 X62.315 Y48.063 E85.26868
G1 X62.496 Y47.325 E85.30027
G1 X62.906 Y46.533 E85.33735
G0 F3000 X63.229 Y46.778
G1 F600 X63.738 Y46.305 E85.36624
G1 X64.395 Y45.914 E85.39802
G1 X65.163 Y45.761 E85.43058
G1 X79.675 Y45.761 E86.03392
G1 X80.416 Y45.921 E86.06544
G1 X81.135 Y46.318 E86.09958
G1 X81.645 Y46.796 E86.12864
G1 X81.938 Y47.201 E86.14943
G1 X82.283 Y48.128 E86.19055
G1 X82.284 Y58.719 E86.63087
G1 X82.083 Y59.539 E86.66597
G1 X82.017 Y59.682 E86.67252
G1 X81.487 Y60.4 E86.70962
G1 X79.971 Y61.47 E86.78677
G1 X73.915 Y67.526 E87.14284
G1 X73.915 Y73.449 E87.38909
G1 X79.97 Y79.503 E87.74507
G1 X81.376 Y80.498 E87.81668
G1 X81.919 Y81.124 E87.85113
G1 X81.996 Y81.259 E87.85759
G1 X82.283 Y82.119 E87.89529
G1 X82.284 Y92.726 E88.33628
G1 X82.133 Y93.354 E88.36313
G1 X81.944 Y93.783 E88.38262
G1 X81.461 Y94.394 E88.415
G1 X80.877 Y94.829 E88.44528
G1 X80.476 Y95.042 E88.46415
G1 X79.739 Y95.212 E88.4956
G1 X65.067 Y95.212 E89.10559
G1 X64.418 Y95.053 E89.13337
G1 X63.732 Y94.698 E89.16548
G1 X63.259 Y94.189 E89.19437
G1 X62.868 Y93.532 E89.22616
G1 X62.715 Y92.764 E89.25871
G1 X62.715 Y48.113 E91.11509
G1 X62.874 Y47.464 E91.14287
G1 X63.229 Y46.778 E91.17498
G0 F3000 X63.552 Y47.023
G1 F600 X63.977 Y46.629 E91.19907
G1 X64.543 Y46.292 E91.22646
G1 X65.201 Y46.161 E91.25435
G1 X79.633 Y46.161 E91.85437
G1 X80.273 Y46.299 E91.88159
G1 X80.897 Y46.644 E91.91123
G1 X81.344 Y47.063 E91.9367
G1 X81.583 Y47.393 E91.95364
G1 X81.883 Y48.2 E91.98944
G1 X81.884 Y58.673 E92.42485
G1 X81.695 Y59.444 E92.45786
G1 X81.203 Y60.11 E92.49228
G1 X79.713 Y61.162 E92.56811
