;FLAVOR:Marlin
;TIME:281
;Filament used: 0.0862245m
;Layer height: 0.2
;MINX:111.539
;MINY:111.539
;MINZ:0.25
;MAXX:123.45
;MAXY:123.461
;MAXZ:7.05
;Generated with Cura_SteamEngine 5.3.0
M140 S55
M105
M190 S55
M104 S212
M105
M109 S212
M82 ;absolute extrusion mode
START_PRINT
G92 E0
G92 E0
G1 F3000 E-6.5
;LAYER_COUNT:35
;LAYER:0
M107
G0 X113.229 Y113.427 Z0.25
;TYPE:SKIRT
G1 F3000 E0
G1 F600 X114.31 Y112.481 E0.05972
G1 X114.722 Y112.269 E0.07899
G1 X116.244 Y111.727 E0.14616
G1 X117.846 Y111.539 E0.21322
G1 X119.698 Y112.02 E0.29277
G1 X120.406 Y112.359 E0.3254
G1 X121.495 Y113.2 E0.38261
G1 X122.145 Y113.841 E0.42056
G1 X123.088 Y115.448 E0.49803
G1 X123.45 Y117.45 E0.58261
G1 X123.139 Y119.285 E0.65999
G1 X122.526 Y120.549 E0.71839
G1 X122.049 Y121.286 E0.75489
G1 X120.928 Y122.3 E0.81774
G1 X120.093 Y122.798 E0.85816
G1 X118.754 Y123.272 E0.91721
G1 X117.14 Y123.461 E0.98477
G1 X115.534 Y123.037 E1.05383
G1 X114.671 Y122.698 E1.09238
G1 X113.427 Y121.771 E1.15688
G1 X112.481 Y120.69 E1.2166
G1 X112.269 Y120.278 E1.23586
G1 X111.728 Y118.756 E1.30302
G1 X111.539 Y117.144 E1.3705
G1 X111.963 Y115.534 E1.43971
G1 X112.302 Y114.671 E1.47826
G1 X113.229 Y113.427 E1.54276
G0 F3000 X113.526 Y113.698
G1 F600 X114.534 Y112.816 E1.59845
G1 X114.856 Y112.646 E1.61359
G1 X116.337 Y112.119 E1.67894
G1 X117.818 Y111.945 E1.74094
G1 X119.558 Y112.397 E1.81568
G1 X120.196 Y112.702 E1.84508
G1 X121.214 Y113.485 E1.89848
G1 X121.826 Y114.089 E1.93422
G1 X122.707 Y115.589 E2.00655
G1 X123.044 Y117.454 E2.08534
G1 X122.755 Y119.16 E2.15728
G1 X122.166 Y120.374 E2.21338
G1 X121.741 Y121.025 E2.2457
G1 X120.687 Y121.978 E2.30478
G1 X119.923 Y122.434 E2.34177
G1 X118.663 Y122.88 E2.39734
G1 X117.17 Y123.055 E2.45983
G1 X115.636 Y122.65 E2.5258
G1 X114.868 Y122.346 E2.56014
G1 X113.698 Y121.474 E2.6208
G1 X112.816 Y120.466 E2.67649
G1 X112.646 Y120.144 E2.69163
G1 X112.119 Y118.663 E2.75698
G1 X111.945 Y117.174 E2.81931
G1 X112.35 Y115.636 E2.88543
G1 X112.654 Y114.868 E2.91977
G1 X113.526 Y113.698 E2.98044
G0 F3000 X113.821 Y113.972
G1 F600 X114.763 Y113.147 E3.0325
G1 X114.99 Y113.023 E3.04325
G1 X116.43 Y112.51 E3.10681
G1 X117.789 Y112.351 E3.16369
G1 X119.421 Y112.775 E3.23379
G1 X119.984 Y113.044 E3.25974
G1 X120.933 Y113.77 E3.30941
G1 X121.509 Y114.338 E3.34304
G1 X122.325 Y115.729 E3.41009
G1 X122.638 Y117.458 E3.48314
G1 X122.371 Y119.035 E3.54964
G1 X121.806 Y120.199 E3.60343
G1 X121.435 Y120.763 E3.6315
G1 X120.446 Y121.656 E3.6869
G1 X119.753 Y122.07 E3.72046
G1 X118.572 Y122.488 E3.77255
G1 X117.2 Y122.649 E3.82998
G1 X115.738 Y122.263 E3.89284
G1 X115.067 Y121.995 E3.92288
G1 X113.972 Y121.179 E3.97966
G1 X113.147 Y120.237 E4.03172
G1 X113.023 Y120.01 E4.04247
G1 X112.511 Y118.57 E4.10601
G1 X112.351 Y117.204 E4.16319
G1 X112.737 Y115.738 E4.22622
G1 X113.005 Y115.067 E4.25626
G1 X113.821 Y113.972 E4.31304
G0 F3000 X114.118 Y114.243
G1 F600 X114.994 Y113.476 E4.36144
G1 X115.124 Y113.4 E4.3677
G1 X116.523 Y112.902 E4.42944
G1 X117.761 Y112.757 E4.48126
G1 X119.283 Y113.152 E4.54664
G1 X119.775 Y113.387 E4.56931
G1 X120.652 Y114.055 E4.61514
G1 X121.19 Y114.586 E4.64657
G1 X121.944 Y115.87 E4.70847
G1 X122.232 Y117.462 E4.77574
G1 X121.987 Y118.91 E4.83679
G1 X121.446 Y120.024 E4.88828
G1 X121.128 Y120.501 E4.91211
G1 X120.205 Y121.334 E4.9638
G1 X119.583 Y121.706 E4.99394
G1 X118.481 Y122.096 E5.04254
G1 X117.23 Y122.243 E5.0949
G1 X115.84 Y121.876 E5.15467
G1 X115.264 Y121.643 E5.18051
G1 X114.243 Y120.882 E5.23345
G1 X113.476 Y120.006 E5.28186
G1 X113.4 Y119.876 E5.28812
G1 X112.903 Y118.477 E5.34984
G1 X112.757 Y117.234 E5.40187
G1 X113.124 Y115.84 E5.46181
G1 X113.357 Y115.264 E5.48764
G1 X114.118 Y114.243 E5.54058
G0 F3000 X114.413 Y114.517
G1 F600 X115.258 Y113.777 E5.58728
G1 X116.616 Y113.294 E5.6472
G1 X117.733 Y113.163 E5.69396
G1 X119.146 Y113.53 E5.75465
G1 X119.567 Y113.731 E5.77405
G1 X120.41 Y114.373 E5.8181
G1 X120.87 Y114.831 E5.84509
G1 X121.563 Y116.011 E5.90199
G1 X121.826 Y117.466 E5.96346
G1 X121.603 Y118.785 E6.01907
G1 X121.086 Y119.849 E6.06826
G1 X120.824 Y120.236 E6.08769
G1 X119.964 Y121.012 E6.13584
G1 X119.414 Y121.341 E6.16249
G1 X118.388 Y121.705 E6.20775
G1 X117.26 Y121.837 E6.25497
G1 X115.942 Y121.489 E6.31164
G1 X115.462 Y121.292 E6.33321
G1 X114.517 Y120.587 E6.38223
G1 X113.777 Y119.742 E6.42893
G1 X113.294 Y118.384 E6.48885
G1 X113.163 Y117.264 E6.53573
G1 X113.511 Y115.942 E6.59257
G1 X113.708 Y115.462 E6.61414
G1 X114.413 Y114.517 E6.66316
G0 F3000 X114.708 Y114.791
G1 F600 X115.465 Y114.128 E6.70499
G1 X116.709 Y113.686 E6.75988
G1 X117.705 Y113.569 E6.80157
G1 X119.008 Y113.907 E6.85754
G1 X119.358 Y114.074 E6.87366
G1 X120.128 Y114.657 E6.91382
G1 X120.551 Y115.078 E6.93863
G1 X121.182 Y116.152 E6.99042
G1 X121.42 Y117.47 E7.0461
G1 X121.219 Y118.661 E7.09631
G1 X120.755 Y119.624 E7.14076
G1 X120.519 Y119.972 E7.15824
G1 X119.723 Y120.69 E7.20281
G1 X119.245 Y120.976 E7.22596
G1 X118.295 Y121.313 E7.26787
G1 X117.29 Y121.431 E7.30994
G1 X116.044 Y121.102 E7.36352
G1 X115.661 Y120.941 E7.38079
G1 X114.791 Y120.292 E7.42592
G1 X114.128 Y119.535 E7.46776
G1 X113.686 Y118.291 E7.52264
G1 X113.569 Y117.294 E7.56438
G1 X113.898 Y116.044 E7.61812
G1 X114.059 Y115.661 E7.63539
G1 X114.708 Y114.791 E7.68051
G0 F3000 X115.005 Y115.062
G1 F600 X115.67 Y114.48 E7.71726
G1 X116.802 Y114.078 E7.7672
G1 X117.677 Y113.975 E7.80383
G1 X118.871 Y114.285 E7.85511
G1 X119.149 Y114.417 E7.86791
G1 X119.846 Y114.941 E7.90416
G1 X120.232 Y115.325 E7.9268
G1 X120.801 Y116.293 E7.97348
G1 X121.014 Y117.475 E8.02341
G1 X120.835 Y118.537 E8.06819
G1 X120.395 Y119.45 E8.11033
G1 X120.217 Y119.706 E8.12329
G1 X119.483 Y120.368 E8.16438
G1 X119.076 Y120.611 E8.18409
G1 X118.202 Y120.922 E8.22266
G1 X117.32 Y121.025 E8.25958
G1 X116.146 Y120.715 E8.31006
G1 X115.861 Y120.591 E8.32298
G1 X115.062 Y119.995 E8.36443
G1 X114.48 Y119.33 E8.40117
G1 X114.078 Y118.198 E8.45111
G1 X113.975 Y117.324 E8.4877
G1 X114.285 Y116.146 E8.53834
G1 X114.409 Y115.861 E8.55126
G1 X115.005 Y115.062 E8.5927
G0 F3000 X115.302 Y115.333
G1 F600 X115.875 Y114.832 E8.62435
G1 X116.895 Y114.47 E8.66935
G1 X117.649 Y114.381 E8.70091
G1 X118.771 Y114.672 E8.7491
G1 X118.91 Y114.738 E8.7555
G1 X119.564 Y115.225 E8.7894
G1 X119.913 Y115.572 E8.80986
G1 X120.42 Y116.434 E8.85144
G1 X120.608 Y117.479 E8.89558
G1 X120.45 Y118.414 E8.93501
G1 X120.066 Y119.222 E8.9722
G1 X119.914 Y119.441 E8.98328
G1 X119.244 Y120.044 E9.02076
G1 X118.905 Y120.247 E9.03719
G1 X118.109 Y120.53 E9.07231
G1 X117.349 Y120.619 E9.10412
G1 X116.306 Y120.348 E9.14892
G1 X116.063 Y120.242 E9.15995
G1 X115.333 Y119.698 E9.1978
G1 X114.832 Y119.125 E9.22944
G1 X114.47 Y118.105 E9.27444
G1 X114.381 Y117.352 E9.30596
G1 X114.652 Y116.306 E9.35089
G1 X114.758 Y116.063 E9.36191
G1 X115.302 Y115.333 E9.39976
G0 F3000 X115.599 Y115.604
G1 F600 X116.08 Y115.184 E9.42631
G1 X116.988 Y114.862 E9.46636
G1 X117.621 Y114.787 E9.49286
G1 X118.671 Y115.059 E9.53796
G1 X119.325 Y115.546 E9.57186
G1 X119.593 Y115.817 E9.5877
G1 X120.039 Y116.575 E9.62427
G1 X120.202 Y117.484 E9.66266
G1 X120.066 Y118.291 E9.69669
G1 X119.705 Y119.05 E9.73163
G1 X119.612 Y119.175 E9.73811
G1 X119.004 Y119.722 E9.77211
G1 X118.736 Y119.882 E9.78509
G1 X118.016 Y120.138 E9.81686
G1 X117.377 Y120.213 E9.84361
G1 X116.406 Y119.961 E9.88531
G1 X116.267 Y119.895 E9.89171
G1 X115.604 Y119.401 E9.92608
G1 X115.184 Y118.92 E9.95263
G1 X114.862 Y118.012 E9.99269
G1 X114.787 Y117.379 E10.01919
G1 X115.039 Y116.406 E10.06097
G1 X115.105 Y116.267 E10.06737
G1 X115.599 Y115.604 E10.10175
G0 F3000 X115.896 Y115.875
G1 F600 X116.285 Y115.535 E10.12323
G1 X117.079 Y115.254 E10.15824
G1 X117.594 Y115.193 E10.1798
G1 X118.494 Y115.426 E10.21845
G1 X119.086 Y115.867 E10.24915
G1 X119.275 Y116.064 E10.2605
G1 X119.657 Y116.715 E10.29188
G1 X119.796 Y117.488 E10.32453
G1 X119.681 Y118.169 E10.35324
G1 X119.344 Y118.878 E10.38588
G1 X118.736 Y119.425 E10.41988
G1 X118.602 Y119.505 E10.42637
G1 X117.923 Y119.746 E10.45633
G1 X117.405 Y119.807 E10.47801
G1 X116.506 Y119.574 E10.51662
G1 X115.875 Y119.104 E10.54933
G1 X115.535 Y118.715 E10.57081
G1 X115.254 Y117.921 E10.60583
G1 X115.193 Y117.406 E10.62739
G1 X115.426 Y116.506 E10.66604
G1 X115.896 Y115.875 E10.69875
G0 F3000 X116.193 Y116.146
G1 F600 X116.49 Y115.886 E10.71516
G1 X117.17 Y115.646 E10.74514
G1 X117.567 Y115.599 E10.76177
G1 X118.317 Y115.793 E10.79397
G1 X118.847 Y116.188 E10.82145
G1 X118.953 Y116.306 E10.82805
G1 X119.276 Y116.856 E10.85457
G1 X119.39 Y117.492 E10.88143
G1 X119.296 Y118.047 E10.90483
G1 X119.017 Y118.634 E10.93185
G1 X118.468 Y119.128 E10.96256
G1 X117.83 Y119.354 E10.9907
G1 X117.433 Y119.401 E11.00732
G1 X116.683 Y119.207 E11.03953
G1 X116.146 Y118.807 E11.06737
G1 X115.886 Y118.51 E11.08378
G1 X115.646 Y117.83 E11.11376
G1 X115.599 Y117.433 E11.13038
G1 X115.793 Y116.683 E11.16258
G1 X116.193 Y116.146 E11.19042
G0 F3000 X116.488 Y116.42
G1 F600 X116.697 Y116.237 E11.20197
G1 X117.261 Y116.038 E11.22684
G1 X117.54 Y116.005 E11.23852
G1 X118.14 Y116.16 E11.26428
G1 X118.608 Y116.509 E11.28855
G1 X118.895 Y116.997 E11.31209
G1 X118.984 Y117.495 E11.33312
G1 X118.911 Y117.925 E11.35126
G1 X118.69 Y118.39 E11.37266
G1 X118.259 Y118.778 E11.39677
G1 X117.739 Y118.962 E11.4197
G1 X117.46 Y118.995 E11.43139
G1 X116.86 Y118.84 E11.45715
G1 X116.42 Y118.512 E11.47997
G1 X116.237 Y118.303 E11.49152
G1 X116.038 Y117.739 E11.51638
G1 X116.005 Y117.46 E11.52806
G1 X116.16 Y116.86 E11.55382
G1 X116.488 Y116.42 E11.57664
G0 F3000 X116.809 Y116.659
M104 S210
G1 F600 X116.902 Y116.589 E11.58148
G1 X117.394 Y116.415 E11.60318
G1 X117.511 Y116.41 E11.60805
G1 X117.963 Y116.527 E11.62746
G1 X118.304 Y116.781 E11.64514
G1 X118.514 Y117.138 E11.66235
G1 X118.578 Y117.498 E11.67756
G1 X118.526 Y117.803 E11.69042
G1 X118.363 Y118.146 E11.70621
G1 X118.05 Y118.428 E11.72372
G1 X117.606 Y118.585 E11.7433
G1 X117.489 Y118.59 E11.74817
G1 X117.037 Y118.473 E11.76758
G1 X116.659 Y118.191 E11.78719
G1 X116.589 Y118.098 E11.79203
G1 X116.415 Y117.606 E11.81373
G1 X116.41 Y117.489 E11.8186
G1 X116.527 Y117.037 E11.83801
G1 X116.809 Y116.659 E11.85761
;MESH:roulette-wheel-ball.stl
G0 F3000 X117.213 Y117.152
G0 X117.501 Y117.461
G0 X117.51 Y117.738
;TYPE:WALL-INNER
G1 F1578.9 X117.686 Y117.639 E11.86718
G1 X117.739 Y117.513 E11.87366
G1 X117.673 Y117.343 E11.88231
G1 X117.49 Y117.262 E11.89179
G1 X117.357 Y117.308 E11.89846
G1 X117.263 Y117.51 E11.90902
G1 X117.309 Y117.642 E11.91565
G1 X117.51 Y117.738 E11.9262
G0 F3000 X117.531 Y118.185
;TYPE:WALL-OUTER
G1 F1800 X117.843 Y118.075 E11.93996
G1 X118.036 Y117.9 E11.95079
G1 X118.151 Y117.659 E11.96189
G1 X118.173 Y117.505 E11.96836
G1 X118.133 Y117.28 E11.97786
G1 X117.999 Y117.051 E11.98889
G1 X117.792 Y116.897 E11.99962
G1 X117.469 Y116.815 E12.01347
G1 X117.092 Y116.948 E12.03009
G1 X116.898 Y117.21 E12.04365
G1 X116.815 Y117.531 E12.05743
G1 X116.95 Y117.909 E12.07412
G1 X117.21 Y118.102 E12.08758
G1 X117.531 Y118.185 E12.10136
;MESH:NOMESH
G0 F300 X117.531 Y118.185 Z0.45
G0 F3000 X117.505 Y117.494
;TIME_ELAPSED:35.292272
;LAYER:1
M140 S50
M106 S85
;TYPE:WALL-INNER
;MESH:roulette-wheel-ball.stl
G0 F6000 X117.617 Y117.976
G1 F600 X117.785 Y117.9 E12.1075
G1 X117.918 Y117.757 E12.11399
G1 X117.994 Y117.545 E12.12148
G1 X117.975 Y117.381 E12.12697
G1 X117.838 Y117.144 E12.13608
G1 X117.673 Y117.042 E12.14253
G1 X117.383 Y117.024 E12.1522
G1 X117.215 Y117.1 E12.15833
G1 X117.082 Y117.244 E12.16485
G1 X117.018 Y117.416 E12.17095
G1 X117.024 Y117.617 E12.17764
G1 X117.1 Y117.785 E12.18377
G1 X117.244 Y117.918 E12.19029
G1 X117.415 Y117.982 E12.19637
G1 X117.617 Y117.976 E12.20309
G0 F6000 X117.35 Y118.379
G1 F600 X117.708 Y118.368 E12.215
G1 X118.019 Y118.227 E12.22636
G1 X118.26 Y117.969 E12.2381
G1 X118.4 Y117.575 E12.25201
G1 X118.368 Y117.292 E12.26148
G1 X118.227 Y116.981 E12.27284
G1 X117.967 Y116.74 E12.28463
G1 X117.649 Y116.621 E12.29592
G1 X117.292 Y116.632 E12.3078
G1 X116.981 Y116.773 E12.31916
G1 X116.74 Y117.033 E12.33095
G1 X116.621 Y117.351 E12.34224
G1 X116.632 Y117.708 E12.35412
G1 X116.773 Y118.019 E12.36548
G1 X117.033 Y118.26 E12.37727
G1 X117.35 Y118.379 E12.38853
G0 F6000 X118.161 Y118.635
;TYPE:WALL-OUTER
G1 F600 X118.443 Y118.387 E12.40102
G1 X118.602 Y118.181 E12.40968
G1 X118.714 Y117.95 E12.41822
G1 X118.806 Y117.605 E12.43009
G1 X118.76 Y117.204 E12.44352
G1 X118.636 Y116.84 E12.45631
G1 X118.387 Y116.557 E12.46884
G1 X118.179 Y116.398 E12.47755
G1 X117.714 Y116.224 E12.49407
G1 X117.458 Y116.208 E12.5026
G1 X117.202 Y116.24 E12.51118
G1 X116.839 Y116.365 E12.52395
G1 X116.557 Y116.613 E12.53644
G1 X116.398 Y116.821 E12.54514
G1 X116.224 Y117.286 E12.56166
G1 X116.208 Y117.542 E12.57019
G1 X116.24 Y117.798 E12.57877
G1 X116.365 Y118.161 E12.59154
G1 X116.613 Y118.443 E12.60403
G1 X116.821 Y118.602 E12.61274
G1 X117.286 Y118.776 E12.62925
G1 X117.543 Y118.792 E12.63782
G1 X117.798 Y118.76 E12.64636
G1 X118.161 Y118.635 E12.65913
G0 F6000 X117.651 Y117.745
;MESH:NOMESH
G0 F300 X117.651 Y117.745 Z0.65
G0 F6000 X117.543 Y117.96
;TIME_ELAPSED:37.329903
;LAYER:2
M106 S170
;TYPE:WALL-INNER
;MESH:roulette-wheel-ball.stl
G1 F600 X117.711 Y117.911 E12.66495
G1 X117.859 Y117.791 E12.67129
G1 X117.94 Y117.641 E12.67696
G1 X117.943 Y117.369 E12.68601
G1 X117.823 Y117.174 E12.69362
G1 X117.724 Y117.095 E12.69784
G1 X117.459 Y117.04 E12.70684
G1 X117.289 Y117.089 E12.71272
G1 X117.18 Y117.171 E12.71726
G1 X117.06 Y117.359 E12.72468
G1 X117.04 Y117.543 E12.73083
G1 X117.089 Y117.711 E12.73665
G1 X117.209 Y117.859 E12.74299
G1 X117.359 Y117.94 E12.74866
G1 X117.543 Y117.96 E12.75482
G0 F9000 X117.745 Y118.329
G1 F600 X118.04 Y118.174 E12.7659
G1 X118.167 Y118.049 E12.77183
G1 X118.324 Y117.761 E12.78274
G1 X118.357 Y117.428 E12.79387
G1 X118.267 Y117.102 E12.80511
G1 X118.049 Y116.832 E12.81666
G1 X117.761 Y116.676 E12.82755
G1 X117.59 Y116.641 E12.83336
G1 X117.255 Y116.671 E12.84454
G1 X116.96 Y116.827 E12.85564
G1 X116.832 Y116.951 E12.86157
G1 X116.676 Y117.239 E12.87246
G1 X116.641 Y117.412 E12.87833
G1 X116.671 Y117.745 E12.88945
G1 X116.826 Y118.04 E12.90054
G1 X116.951 Y118.167 E12.90646
G1 X117.239 Y118.324 E12.91737
G1 X117.412 Y118.359 E12.92325
G1 X117.745 Y118.329 E12.93437
G0 F9000 X117.858 Y118.715
G1 F600 X118.292 Y118.487 E12.95067
G1 X118.476 Y118.307 E12.95923
G1 X118.708 Y117.881 E12.97537
G1 X118.781 Y117.514 E12.98781
G1 X118.715 Y117.142 E13.00038
G1 X118.583 Y116.817 E13.01204
G1 X118.307 Y116.524 E13.02543
G1 X117.881 Y116.292 E13.04157
G1 X117.632 Y116.241 E13.05002
G1 X117.142 Y116.285 E13.06638
G1 X116.707 Y116.514 E13.08273
G1 X116.524 Y116.693 E13.09125
G1 X116.292 Y117.119 E13.10738
G1 X116.241 Y117.369 E13.11587
G1 X116.285 Y117.858 E13.1322
G1 X116.513 Y118.292 E13.1485
G1 X116.693 Y118.476 E13.15706
G1 X117.119 Y118.708 E13.1732
G1 X117.369 Y118.759 E13.18168
G1 X117.858 Y118.715 E13.19801
G0 F9000 X117.326 Y119.159
;TYPE:WALL-OUTER
G1 F600 X117.651 Y119.161 E13.20882
G1 X117.971 Y119.101 E13.21965
G1 X118.271 Y118.979 E13.23042
G1 X118.545 Y118.799 E13.24133
G1 X118.784 Y118.565 E13.25245
G1 X118.963 Y118.302 E13.26303
G1 X119.092 Y118.001 E13.27393
G1 X119.158 Y117.675 E13.28499
G1 X119.161 Y117.351 E13.29577
G1 X119.101 Y117.029 E13.30666
G1 X118.979 Y116.729 E13.31743
G1 X118.798 Y116.456 E13.32833
G1 X118.565 Y116.216 E13.33945
G1 X118.302 Y116.037 E13.35003
G1 X118.001 Y115.908 E13.36092
G1 X117.674 Y115.841 E13.37203
G1 X117.35 Y115.839 E13.3828
G1 X117.029 Y115.899 E13.39366
G1 X116.729 Y116.021 E13.40444
G1 X116.455 Y116.201 E13.41534
G1 X116.216 Y116.435 E13.42647
G1 X116.037 Y116.698 E13.43705
G1 X115.908 Y116.999 E13.44794
G1 X115.841 Y117.326 E13.45904
G1 X115.839 Y117.651 E13.46985
G1 X115.899 Y117.971 E13.48068
G1 X116.021 Y118.271 E13.49145
G1 X116.201 Y118.545 E13.50235
G1 X116.435 Y118.784 E13.51348
G1 X116.698 Y118.963 E13.52406
G1 X116.999 Y119.092 E13.53495
G1 X117.326 Y119.159 E13.54605
G0 F9000 X117.399 Y118.461
G0 X117.527 Y117.444
;TYPE:SKIN
G1 F430.1 X117.459 Y117.444 E13.54921
G1 X117.424 Y117.503 E13.55239
