;FLAVOR:Marlin
;TIME:12562
;Filament used: 9.13541m
;Layer height: 0.2
;MINX:15.367
;MINY:15.484
;MINZ:0.25
;MAXX:217.236
;MAXY:217.357
;MAXZ:3.05
;Generated with Cura_SteamEngine 5.3.0
M140 S85
M105
M190 S85
M104 S240
M105
M109 S240
M82 ;absolute extrusion mode
START_PRINT
G92 E0
G92 E0
G1 F1500 E-8
;LAYER_COUNT:15
;LAYER:0
M107
G0 F6000 X121.383 Y77.394 Z0.25
;TYPE:SKIRT
G1 F1500 E0
G1 F1200 X122.079 Y76.932 E0.03473
G1 X122.624 Y76.759 E0.0585
G1 X122.745 Y76.281 E0.079
G1 X123.238 Y75.539 E0.11604
G1 X182.548 Y16.229 E3.60324
G1 X183.244 Y15.767 E3.63797
G1 X184.132 Y15.484 E3.67672
G1 X184.93 Y15.518 E3.70993
G1 X185.784 Y15.735 E3.74656
G1 X186.525 Y16.228 E3.78356
G1 X216.491 Y46.193 E5.54542
G1 X216.953 Y46.889 E5.58015
G1 X217.236 Y47.777 E5.6189
G1 X217.202 Y48.575 E5.65211
G1 X216.985 Y49.429 E5.68874
G1 X216.492 Y50.17 E5.72574
G1 X50.043 Y216.619 E15.51231
G1 X49.362 Y217.07 E15.54626
G1 X48.447 Y217.357 E15.58613
G1 X47.706 Y217.322 E15.61698
G1 X46.811 Y217.099 E15.65532
G1 X46.084 Y216.614 E15.69166
G1 X16.112 Y186.643 E17.45387
G1 X15.65 Y185.947 E17.4886
G1 X15.367 Y185.059 E17.52734
G1 X15.401 Y184.261 E17.56055
G1 X15.618 Y183.407 E17.59719
G1 X16.111 Y182.666 E17.63419
G1 X68.351 Y130.427 E20.70567
G1 X69.047 Y129.965 E20.7404
G1 X69.591 Y129.792 E20.76413
G1 X69.712 Y129.314 E20.78463
G1 X70.205 Y128.572 E20.82167
G1 X121.383 Y77.394 E23.83074
G0 F6000 X121.64 Y77.703
G1 F1200 X122.253 Y77.296 E23.86133
G1 X122.957 Y77.072 E23.89205
G1 X123.117 Y76.443 E23.91903
G1 X123.547 Y75.796 E23.95133
G1 X182.805 Y16.538 E27.43547
G1 X183.418 Y16.131 E27.46606
G1 X184.184 Y15.887 E27.49949
G1 X184.871 Y15.916 E27.52808
G1 X185.621 Y16.107 E27.56025
G1 X186.268 Y16.537 E27.59255
G1 X216.182 Y46.45 E29.35135
G1 X216.589 Y47.063 E29.38194
G1 X216.833 Y47.829 E29.41536
G1 X216.804 Y48.516 E29.44395
G1 X216.613 Y49.266 E29.47613
G1 X216.183 Y49.913 E29.50843
G1 X49.789 Y216.307 E39.29176
G1 X49.188 Y216.705 E39.32172
G1 X48.395 Y216.954 E39.35628
G1 X47.762 Y216.924 E39.38263
G1 X46.976 Y216.728 E39.41631
G1 X46.339 Y216.303 E39.44814
G1 X16.421 Y186.386 E41.20718
G1 X16.014 Y185.773 E41.23777
G1 X15.77 Y185.007 E41.27119
G1 X15.799 Y184.32 E41.29978
G1 X15.99 Y183.57 E41.33196
G1 X16.42 Y182.923 E41.36425
G1 X68.608 Y130.736 E44.43268
G1 X69.221 Y130.329 E44.46327
G1 X69.924 Y130.105 E44.49395
G1 X70.084 Y129.476 E44.52093
G1 X70.514 Y128.829 E44.55323
G1 X121.64 Y77.703 E47.55924
G0 F6000 X121.897 Y78.012
G1 F1200 X122.426 Y77.661 E47.58563
G1 X123.003 Y77.477 E47.61081
G1 X123.315 Y77.465 E47.62379
G1 X123.334 Y77.212 E47.63434
G1 X123.488 Y76.607 E47.6603
G1 X123.858 Y76.051 E47.68806
G1 X183.062 Y16.847 E51.16903
G1 X183.591 Y16.496 E51.19543
G1 X184.237 Y16.29 E51.22362
G1 X184.812 Y16.314 E51.24754
G1 X185.457 Y16.478 E51.27521
G1 X186.013 Y16.848 E51.30298
G1 X215.873 Y46.707 E53.0586
G1 X216.224 Y47.236 E53.085
G1 X216.43 Y47.882 E53.11319
G1 X216.406 Y48.457 E53.13711
G1 X216.242 Y49.102 E53.16478
G1 X215.872 Y49.658 E53.19255
G1 X49.535 Y215.995 E62.97253
G1 X49.014 Y216.34 E62.99851
G1 X48.343 Y216.551 E63.02775
G1 X47.818 Y216.526 E63.0496
G1 X47.141 Y216.357 E63.07861
G1 X46.594 Y215.992 E63.10595
G1 X16.73 Y186.129 E64.86181
G1 X16.379 Y185.6 E64.88821
G1 X16.173 Y184.954 E64.9164
G1 X16.197 Y184.379 E64.94032
G1 X16.361 Y183.734 E64.96799
G1 X16.731 Y183.178 E64.99576
G1 X68.865 Y131.045 E68.06101
G1 X69.394 Y130.694 E68.0874
G1 X69.971 Y130.51 E68.11258
G1 X70.282 Y130.498 E68.12552
G1 X70.301 Y130.245 E68.13607
G1 X70.455 Y129.64 E68.16202
G1 X70.825 Y129.084 E68.18979
G1 X121.897 Y78.012 E71.19263
G0 F6000 X122.154 Y78.321
G1 F1200 X122.599 Y78.026 E71.21482
G1 X123.125 Y77.858 E71.23778
G1 X123.545 Y77.875 E71.25526
G1 X123.749 Y77.918 E71.26393
G1 X123.706 Y77.705 E71.27296
G1 X123.722 Y77.311 E71.28935
G1 X123.86 Y76.77 E71.31257
G1 X124.167 Y76.308 E71.33563
G1 X183.319 Y17.156 E74.81354
G1 X183.764 Y16.861 E74.83574
G1 X184.29 Y16.693 E74.85869
G1 X184.753 Y16.712 E74.87796
G1 X185.294 Y16.85 E74.90117
G1 X185.756 Y17.157 E74.92423
G1 X215.564 Y46.964 E76.6768
G1 X215.859 Y47.409 E76.699
G1 X216.027 Y47.935 E76.72195
G1 X216.008 Y48.398 E76.74122
G1 X215.87 Y48.939 E76.76443
G1 X215.563 Y49.401 E76.78749
G1 X49.281 Y215.683 E86.56424
G1 X48.84 Y215.975 E86.58623
G1 X48.291 Y216.148 E86.61016
G1 X47.874 Y216.128 E86.62751
G1 X47.306 Y215.986 E86.65186
G1 X46.849 Y215.681 E86.6747
G1 X17.039 Y185.872 E88.42738
G1 X16.744 Y185.427 E88.44958
G1 X16.576 Y184.901 E88.47254
G1 X16.595 Y184.438 E88.4918
G1 X16.733 Y183.897 E88.51501
G1 X17.04 Y183.435 E88.53808
G1 X69.122 Y131.354 E91.60027
G1 X69.567 Y131.059 E91.62247
G1 X70.093 Y130.891 E91.64542
G1 X70.513 Y130.908 E91.6629
G1 X70.716 Y130.951 E91.67153
G1 X70.673 Y130.738 E91.68056
G1 X70.689 Y130.344 E91.69695
G1 X70.827 Y129.803 E91.72017
G1 X71.134 Y129.341 E91.74323
G1 X122.154 Y78.321 E94.74301
G0 F6000 X122.411 Y78.63
G1 F1200 X122.773 Y78.39 E94.76107
G1 X123.178 Y78.261 E94.77874
G1 X123.529 Y78.275 E94.79334
G1 X123.965 Y78.386 E94.81205
G1 X124.336 Y78.633 E94.83058
G1 X138.222 Y92.518 E95.64699
G1 X138.363 Y92.377 E95.65528
G1 X124.475 Y78.488 E96.47187
G1 X124.235 Y78.126 E96.48993
G1 X124.106 Y77.721 E96.5076
G1 X124.12 Y77.37 E96.52221
G1 X124.231 Y76.934 E96.54091
G1 X124.478 Y76.563 E96.55944
G1 X183.576 Y17.465 E100.03418
G1 X183.938 Y17.225 E100.05223
G1 X184.343 Y17.096 E100.06991
G1 X184.694 Y17.11 E100.08451
G1 X185.13 Y17.221 E100.10321
G1 X185.501 Y17.468 E100.12175
G1 X215.255 Y47.221 E101.87114
G1 X215.495 Y47.583 E101.88919
G1 X215.624 Y47.988 E101.90687
G1 X215.61 Y48.339 E101.92147
G1 X215.499 Y48.775 E101.94018
G1 X215.252 Y49.146 E101.95871
G1 X49.027 Y215.371 E111.7321
G1 X48.663 Y215.612 E111.75025
G1 X48.242 Y215.745 E111.7686
G1 X47.93 Y215.73 E111.78159
G1 X47.471 Y215.615 E111.80126
G1 X47.104 Y215.37 E111.81961
G1 X17.348 Y185.615 E113.56912
G1 X17.108 Y185.253 E113.58718
G1 X16.979 Y184.848 E113.60485
G1 X16.993 Y184.497 E113.61945
G1 X17.104 Y184.061 E113.63816
G1 X17.351 Y183.69 E113.65669
G1 X69.379 Y131.663 E116.7157
G1 X69.741 Y131.423 E116.73376
G1 X70.146 Y131.294 E116.75143
G1 X70.497 Y131.308 E116.76604
G1 X70.933 Y131.419 E116.78474
G1 X71.304 Y131.666 E116.80327
G1 X85.189 Y145.551 E117.61966
G1 X85.33 Y145.41 E117.62795
G1 X71.442 Y131.521 E118.44454
G1 X71.202 Y131.159 E118.4626
G1 X71.073 Y130.754 E118.48027
G1 X71.087 Y130.403 E118.49487
G1 X71.198 Y129.967 E118.51358
G1 X71.445 Y129.596 E118.53211
G1 X122.411 Y78.63 E121.52871
G0 F6000 X122.665 Y78.942
G1 F1200 X122.949 Y78.754 E121.54287
G1 X123.233 Y78.663 E121.55527
G1 X123.43 Y78.663 E121.56346
G1 X123.802 Y78.758 E121.57942
G1 X124.079 Y78.942 E121.59325
G1 X138.222 Y93.084 E122.42477
G1 X138.929 Y92.377 E122.46634
G1 X124.787 Y78.234 E123.29787
G1 X124.599 Y77.95 E123.31203
G1 X124.508 Y77.666 E123.32443
G1 X124.508 Y77.469 E123.33262
G1 X124.603 Y77.097 E123.34858
G1 X124.787 Y76.82 E123.3624
G1 X183.83 Y17.777 E126.83391
G1 X184.114 Y17.589 E126.84807
G1 X184.398 Y17.498 E126.86047
G1 X184.595 Y17.498 E126.86866
G1 X184.967 Y17.593 E126.88462
G1 X185.244 Y17.777 E126.89844
G1 X214.943 Y47.475 E128.6446
G1 X215.131 Y47.759 E128.65876
G1 X215.222 Y48.043 E128.67116
G1 X215.222 Y48.24 E128.67935
G1 X215.127 Y48.612 E128.69531
G1 X214.943 Y48.889 E128.70914
G1 X48.773 Y215.059 E138.4793
G1 X48.489 Y215.247 E138.49346
G1 X48.187 Y215.342 E138.50662
G1 X48.027 Y215.342 E138.51327
G1 X47.636 Y215.244 E138.53003
G1 X47.359 Y215.059 E138.54388
G1 X17.66 Y185.361 E140.29004
G1 X17.472 Y185.077 E140.3042
G1 X17.381 Y184.793 E140.3166
G1 X17.381 Y184.596 E140.32479
G1 X17.476 Y184.224 E140.34075
G1 X17.66 Y183.947 E140.35457
G1 X69.633 Y131.975 E143.41036
G1 X69.917 Y131.787 E143.42452
G1 X70.201 Y131.696 E143.43692
G1 X70.398 Y131.696 E143.44511
G1 X70.77 Y131.791 E143.46107
G1 X71.047 Y131.975 E143.47489
G1 X85.189 Y146.117 E144.30639
G1 X85.896 Y145.41 E144.34796
G1 X71.754 Y131.267 E145.17948
G1 X71.566 Y130.983 E145.19364
G1 X71.475 Y130.699 E145.20604
G1 X71.475 Y130.502 E145.21423
G1 X71.57 Y130.13 E145.23019
G1 X71.754 Y129.853 E145.24402
G1 X122.665 Y78.942 E148.23739
G0 F6000 X122.948 Y79.225
G1 F1200 X123.159 Y79.095 E148.2477
G1 X123.332 Y79.051 E148.25512
G1 X123.639 Y79.129 E148.26829
G1 X123.796 Y79.225 E148.27594
G1 X138.222 Y93.65 E149.1241
G1 X139.495 Y92.377 E149.19895
G1 X125.07 Y77.951 E150.04711
G1 X124.94 Y77.74 E150.05742
G1 X124.896 Y77.567 E150.06484
G1 X124.974 Y77.26 E150.07801
G1 X125.07 Y77.103 E150.08566
G1 X184.113 Y18.06 E153.55716
G1 X184.324 Y17.93 E153.56746
G1 X184.497 Y17.886 E153.57489
G1 X184.804 Y17.964 E153.58805
G1 X184.961 Y18.06 E153.59571
G1 X214.66 Y47.758 E155.34186
G1 X214.79 Y47.969 E155.35217
G1 X214.834 Y48.142 E155.35959
G1 X214.756 Y48.449 E155.37276
G1 X214.66 Y48.606 E155.38041
G1 X48.49 Y214.776 E165.15057
G1 X48.279 Y214.906 E165.16087
G1 X48.106 Y214.95 E165.16829
G1 X47.799 Y214.872 E165.18146
G1 X47.642 Y214.776 E165.18911
G1 X17.943 Y185.078 E166.93527
G1 X17.813 Y184.867 E166.94557
G1 X17.769 Y184.694 E166.953
G1 X17.847 Y184.387 E166.96616
G1 X17.943 Y184.23 E166.97382
G1 X69.916 Y132.258 E170.0296
G1 X70.127 Y132.128 E170.0399
G1 X70.3 Y132.084 E170.04732
G1 X70.607 Y132.162 E170.06049
G1 X70.764 Y132.258 E170.06814
G1 X85.189 Y146.683 E170.91628
G1 X86.462 Y145.41 E170.99113
G1 X72.037 Y130.984 E171.83929
G1 X71.907 Y130.773 E171.84959
G1 X71.863 Y130.6 E171.85702
G1 X71.941 Y130.293 E171.87019
G1 X72.037 Y130.136 E171.87784
G1 X122.948 Y79.225 E174.87121
G0 F6000 X123.231 Y79.508
G1 F1200 X123.342 Y79.451 E174.8764
G1 X123.513 Y79.508 E174.88389
G1 X138.222 Y94.216 E175.74869
G1 X140.061 Y92.377 E175.85682
G1 X125.353 Y77.668 E176.72162
G1 X125.296 Y77.557 E176.72681
G1 X125.353 Y77.386 E176.7343
G1 X184.396 Y18.343 E180.20581
G1 X184.507 Y18.286 E180.21099
G1 X184.678 Y18.343 E180.21849
G1 X214.377 Y48.041 E181.96465
G1 X214.434 Y48.152 E181.96983
G1 X214.377 Y48.323 E181.97733
G1 X48.207 Y214.493 E191.74749
G1 X48.096 Y214.55 E191.75267
G1 X47.925 Y214.493 E191.76017
G1 X18.226 Y184.795 E193.50633
G1 X18.169 Y184.684 E193.51151
G1 X18.226 Y184.513 E193.51901
G1 X70.199 Y132.541 E196.57479
G1 X70.31 Y132.484 E196.57998
G1 X70.481 Y132.541 E196.58747
G1 X85.189 Y147.249 E197.45225
G1 X87.028 Y145.41 E197.56037
G1 X72.32 Y130.701 E198.42518
G1 X72.263 Y130.59 E198.43036
G1 X72.32 Y130.419 E198.43786
G1 X123.231 Y79.508 E201.43123
G1 F1500 E193.43123
;MESH:ParatiaPortaTheKatia.stl
G0 F6000 X123.373 Y80.782
G0 X48.066 Y213.502
;TYPE:WALL-INNER
G1 F1500 E201.43123
G1 F1200 X213.386 Y48.182 E211.15141
G1 X184.537 Y19.334 E212.84759
G1 X126.344 Y77.528 E216.26915
G1 X140.784 Y91.969 E217.11819
G1 X140.877 Y92.101 E217.12491
G1 X140.938 Y92.292 E217.13324
G1 X140.911 Y92.573 E217.14498
G1 X140.817 Y92.753 E217.15342
G1 X138.594 Y94.976 E217.28413
G1 X138.418 Y95.066 E217.29235
G1 X138.137 Y95.093 E217.30408
G1 X137.946 Y95.032 E217.31242
G1 X137.797 Y94.923 E217.32009
G1 X123.373 Y80.499 E218.16817
G1 X73.311 Y130.561 E221.11162
G1 X87.751 Y145.002 E221.96067
G1 X87.844 Y145.134 E221.96738
G1 X87.905 Y145.325 E221.97572
G1 X87.878 Y145.606 E221.98745
G1 X87.784 Y145.786 E221.9959
G1 X85.561 Y148.009 E222.1266
G1 X85.385 Y148.099 E222.13482
G1 X85.104 Y148.126 E222.14656
G1 X84.913 Y148.065 E222.15489
G1 X84.764 Y147.956 E222.16257
G1 X70.341 Y133.532 E223.01061
G1 X19.217 Y184.654 E226.01645
G1 X48.066 Y213.502 E227.71263
G0 F6000 X48.066 Y214.068
;TYPE:WALL-OUTER
G1 F1200 X213.952 Y48.182 E237.46609
G1 X184.537 Y18.768 E239.19555
G1 X125.778 Y77.528 E242.65039
G1 X140.501 Y92.253 E243.5161
G1 X140.542 Y92.348 E243.5204
G1 X140.505 Y92.496 E243.52674
G1 X138.353 Y94.65 E243.65333
G1 X138.193 Y94.697 E243.66027
G1 X138.08 Y94.64 E243.66553
G1 X123.373 Y79.933 E244.53024
G1 X72.745 Y130.561 E247.50698
G1 X87.468 Y145.286 E248.37269
G1 X87.509 Y145.381 E248.37699
G1 X87.472 Y145.529 E248.38333
G1 X85.32 Y147.683 E248.50992
G1 X85.16 Y147.73 E248.51686
G1 X85.047 Y147.673 E248.52212
G1 X70.341 Y132.966 E249.3868
G1 X18.651 Y184.654 E252.42592
G1 X48.066 Y214.068 E254.15538
G0 F6000 X48.066 Y213.686
G0 X47.882 Y213.175
G0 X48.066 Y212.992
;TYPE:SKIN
G1 F1200 X19.727 Y184.654 E255.82157
G1 X70.34 Y134.042 E258.79739
G1 X84.552 Y148.251 E259.63292
G1 X84.812 Y148.414 E259.64568
G1 X85.053 Y148.483 E259.6561
G1 X85.423 Y148.463 E259.6715
G1 X85.752 Y148.325 E259.68634
G1 X88.103 Y145.975 E259.82454
G1 X88.242 Y145.644 E259.83946
G1 X88.265 Y145.28 E259.85463
G1 X88.193 Y145.033 E259.86532
G1 X88.013 Y144.752 E259.8792
G1 X73.821 Y130.561 E260.7136
G1 X123.373 Y81.009 E263.62707
G1 X137.585 Y95.218 E264.46259
G1 X137.845 Y95.381 E264.47535
G1 X138.086 Y95.45 E264.48577
G1 X138.456 Y95.43 E264.50118
G1 X138.785 Y95.292 E264.51601
G1 X141.136 Y92.942 E264.65421
G1 X141.275 Y92.611 E264.66914
G1 X141.298 Y92.247 E264.6843
G1 X141.226 Y92 E264.695
G1 X141.046 Y91.719 E264.70887
G1 X126.854 Y77.528 E265.54328
G1 X184.537 Y19.844 E268.93485
G1 X212.876 Y48.182 E270.60104
G1 X48.066 Y212.992 E280.29124
G1 F1500 E272.29124
G0 F6000 X47.882 Y213.175
G0 X19.46 Y184.654
G0 X19.701 Y184.314
G0 X20.025 Y184.639
G1 F1500 E280.29124
G1 F1200 X48.079 Y212.694 E281.94073
G0 F6000 X48.362 Y212.411
G1 F1200 X20.308 Y184.356 E283.59023
G0 F6000 X20.59 Y184.074
G1 F1200 X48.645 Y212.128 E285.23973
G0 F6000 X48.928 Y211.845
G1 F1200 X20.873 Y183.791 E286.88923
G0 F6000 X21.156 Y183.508
G1 F1200 X49.211 Y211.562 E288.53872
G0 F6000 X49.493 Y211.279
G1 F1200 X21.439 Y183.225 E290.18819
G0 F6000 X21.722 Y182.942
G1 F1200 X49.776 Y210.997 E291.83769
G0 F6000 X50.059 Y210.714
G1 F1200 X22.005 Y182.659 E293.48718
G0 F6000 X22.288 Y182.376
G1 F1200 X50.342 Y210.431 E295.13668
G0 F6000 X50.625 Y210.148
G1 F1200 X22.57 Y182.094 E296.78618
G0 F6000 X22.853 Y181.811
G1 F1200 X50.908 Y209.865 E298.43568
G0 F6000 X51.19 Y209.582
G1 F1200 X23.136 Y181.528 E300.08514
G0 F6000 X23.419 Y181.245
G1 F1200 X51.473 Y209.3 E301.73464
G0 F6000 X51.756 Y209.017
G1 F1200 X23.702 Y180.962 E303.38414
G0 F6000 X23.985 Y180.679
G1 F1200 X52.039 Y208.734 E305.03363
G0 F6000 X52.322 Y208.451
G1 F1200 X24.267 Y180.397 E306.68313
G0 F6000 X24.55 Y180.114
G1 F1200 X52.605 Y208.168 E308.33263
G0 F6000 X52.888 Y207.885
G1 F1200 X24.833 Y179.831 E309.98213
G0 F6000 X25.116 Y179.548
G1 F1200 X53.17 Y207.603 E311.63162
G0 F6000 X53.453 Y207.32
G1 F1200 X25.399 Y179.265 E313.28112
G0 F6000 X25.682 Y178.982
G1 F1200 X53.736 Y207.037 E314.93062
G0 F6000 X54.019 Y206.754
G1 F1200 X25.964 Y178.7 E316.58011
G0 F6000 X26.247 Y178.417
G1 F1200 X54.302 Y206.471 E318.22961
G0 F6000 X54.585 Y206.188
G1 F1200 X26.53 Y178.134 E319.87911
G0 F6000 X26.813 Y177.851
G1 F1200 X54.867 Y205.905 E321.52858
G0 F6000 X55.15 Y205.623
G1 F1200 X27.096 Y177.568 E323.17807
G0 F6000 X27.379 Y177.285
G1 F1200 X55.433 Y205.34 E324.82757
G0 F6000 X55.716 Y205.057
G1 F1200 X27.662 Y177.002 E326.47707
G0 F6000 X27.944 Y176.72
G1 F1200 X55.999 Y204.774 E328.12656
G0 F6000 X56.282 Y204.491
G1 F1200 X28.227 Y176.437 E329.77606
G0 F6000 X28.51 Y176.154
G1 F1200 X56.565 Y204.208 E331.42556
G0 F6000 X56.847 Y203.926
G1 F1200 X28.793 Y175.871 E333.07506
G0 F6000 X29.076 Y175.588
G1 F1200 X57.13 Y203.643 E334.72455
G0 F6000 X57.413 Y203.36
G1 F1200 X29.359 Y175.305 E336.37405
G0 F6000 X29.641 Y175.023
G1 F1200 X57.696 Y203.077 E338.02355
G0 F6000 X57.979 Y202.794
G1 F1200 X29.924 Y174.74 E339.67304
G0 F6000 X30.207 Y174.457
G1 F1200 X58.262 Y202.511 E341.32254
G0 F6000 X58.544 Y202.229
G1 F1200 X30.49 Y174.174 E342.97204
G0 F6000 X30.773 Y173.891
G1 F1200 X58.827 Y201.946 E344.62153
G0 F6000 X59.11 Y201.663
G1 F1200 X31.056 Y173.608 E346.27103
G0 F6000 X31.338 Y173.326
G1 F1200 X59.393 Y201.38 E347.92053
G0 F6000 X59.676 Y201.097
G1 F1200 X31.621 Y173.043 E349.57003
G0 F6000 X31.904 Y172.76
G1 F1200 X59.959 Y200.814 E351.21952
G0 F6000 X60.241 Y200.531
G1 F1200 X32.187 Y172.477 E352.86899
G0 F6000 X32.47 Y172.194
G1 F1200 X60.524 Y200.249 E354.51849
G0 F6000 X60.807 Y199.966
G1 F1200 X32.753 Y171.911 E356.16798
G0 F6000 X33.036 Y171.628
