;FLAVOR:Marlin
;TIME:7273
;Filament used: 4.10363m
;Layer height: 0.2
;MINX:86.259
;MINY:86.259
;MINZ:0.25
;MAXX:148.741
;MAXY:148.741
;MAXZ:25.65
;Generated with Cura_SteamEngine 5.3.0
M140 S85
M105
M190 S85
M104 S240
M105
M109 S240
M82 ;absolute extrusion mode
START_PRINT
G92 E0
G92 E0
G1 F1500 E-8
;LAYER_COUNT:128
;LAYER:0
M107
G0 F6000 X95.456 Y95.365 Z0.25
;TYPE:SKIRT
G1 F1500 E0
G1 F1200 X96.676 Y94.215 E0.0697
G1 X97.903 Y93.168 E0.13676
G1 X99.202 Y92.178 E0.20467
G1 X100.52 Y91.275 E0.27109
G1 X101.914 Y90.426 E0.33895
G1 X103.332 Y89.656 E0.40603
G1 X104.868 Y88.926 E0.47674
G1 X106.242 Y88.357 E0.53857
G1 X107.92 Y87.763 E0.61257
G1 X109.367 Y87.334 E0.67532
G1 X111.021 Y86.94 E0.74601
G1 X112.696 Y86.631 E0.81682
G1 X114.315 Y86.423 E0.88469
G1 X115.915 Y86.3 E0.9514
G1 X117.582 Y86.259 E1.02073
G1 X119.182 Y86.305 E1.08728
G1 X120.841 Y86.437 E1.15647
G1 X122.287 Y86.627 E1.2171
G1 X124.077 Y86.958 E1.29278
G1 X125.524 Y87.306 E1.35466
G1 X127.228 Y87.814 E1.42858
G1 X128.691 Y88.333 E1.49312
G1 X130.283 Y88.993 E1.56477
G1 X131.751 Y89.698 E1.63248
G1 X133.061 Y90.408 E1.69443
G1 X134.592 Y91.347 E1.7691
G1 X135.919 Y92.269 E1.83628
G1 X137.222 Y93.272 E1.90464
G1 X138.465 Y94.338 E1.97272
G1 X139.574 Y95.393 E2.03636
G1 X140.754 Y96.64 E2.10773
G1 X141.85 Y97.926 E2.17798
G1 X142.822 Y99.202 E2.24467
G1 X143.725 Y100.52 E2.31109
G1 X144.564 Y101.897 E2.37813
G1 X145.348 Y103.341 E2.44644
G1 X146.075 Y104.866 E2.51668
G1 X146.643 Y106.242 E2.57857
G1 X147.234 Y107.919 E2.6525
G1 X147.682 Y109.431 E2.71806
G1 X148.071 Y111.082 E2.78858
G1 X148.369 Y112.694 E2.85673
G1 X148.578 Y114.314 E2.92464
G1 X148.7 Y115.914 E2.99136
G1 X148.741 Y117.581 E3.06068
G1 X148.695 Y119.182 E3.12727
G1 X148.563 Y120.841 E3.19646
G1 X148.373 Y122.287 E3.2571
G1 X148.042 Y124.077 E3.33278
G1 X147.694 Y125.524 E3.39465
G1 X147.177 Y127.257 E3.46984
G1 X146.668 Y128.693 E3.53318
G1 X146.012 Y130.274 E3.60435
G1 X145.302 Y131.751 E3.67248
G1 X144.57 Y133.099 E3.73625
G1 X143.653 Y134.586 E3.80889
G1 X142.719 Y135.933 E3.87703
G1 X141.722 Y137.229 E3.94501
G1 X140.661 Y138.462 E4.01264
G1 X139.547 Y139.632 E4.07981
G1 X138.345 Y140.766 E4.14851
G1 X137.113 Y141.817 E4.21584
G1 X135.8 Y142.819 E4.2845
G1 X134.481 Y143.724 E4.35101
G1 X133.046 Y144.596 E4.42082
G1 X131.611 Y145.369 E4.48859
G1 X130.133 Y146.075 E4.55669
G1 X128.758 Y146.643 E4.61854
G1 X127.08 Y147.233 E4.69249
G1 X125.547 Y147.687 E4.75896
G1 X123.918 Y148.071 E4.82854
G1 X122.305 Y148.369 E4.89673
G1 X120.685 Y148.578 E4.96464
G1 X119.085 Y148.7 E5.03136
G1 X117.418 Y148.741 E5.10069
G1 X115.818 Y148.695 E5.16723
G1 X114.159 Y148.563 E5.23642
G1 X112.713 Y148.373 E5.29706
G1 X110.923 Y148.042 E5.37274
G1 X109.476 Y147.694 E5.43461
G1 X107.744 Y147.177 E5.50976
G1 X106.224 Y146.634 E5.57687
G1 X104.734 Y146.011 E5.64401
G1 X103.249 Y145.302 E5.71243
G1 X101.939 Y144.592 E5.77437
G1 X100.416 Y143.659 E5.84863
G1 X99.189 Y142.816 E5.91052
G1 X97.769 Y141.722 E5.98505
G1 X96.542 Y140.663 E6.05243
G1 X95.349 Y139.53 E6.12084
G1 X94.233 Y138.346 E6.18848
G1 X93.181 Y137.113 E6.25587
G1 X92.18 Y135.799 E6.32454
G1 X91.262 Y134.46 E6.39204
G1 X90.426 Y133.086 E6.45891
G1 X89.656 Y131.667 E6.52603
G1 X88.928 Y130.133 E6.59662
G1 X88.342 Y128.719 E6.66026
G1 X87.763 Y127.08 E6.73252
G1 X87.334 Y125.633 E6.79527
G1 X86.94 Y123.979 E6.86596
G1 X86.631 Y122.304 E6.93678
G1 X86.423 Y120.685 E7.00464
G1 X86.3 Y119.085 E7.07136
G1 X86.259 Y117.419 E7.14064
G1 X86.306 Y115.783 E7.20869
G1 X86.437 Y114.159 E7.27642
G1 X86.627 Y112.713 E7.33706
G1 X86.958 Y110.923 E7.41274
G1 X87.306 Y109.476 E7.47461
G1 X87.823 Y107.744 E7.54976
G1 X88.366 Y106.224 E7.61687
G1 X88.989 Y104.728 E7.68424
G1 X89.685 Y103.281 E7.751
G1 X90.46 Y101.86 E7.81829
G1 X91.346 Y100.408 E7.88901
G1 X92.268 Y99.081 E7.95619
G1 X93.276 Y97.773 E8.02484
G1 X94.338 Y96.541 E8.09247
G1 X95.456 Y95.365 E8.15993
G0 F6000 X95.746 Y95.641
G1 F1200 X96.936 Y94.519 E8.22793
G1 X98.146 Y93.486 E8.29407
G1 X99.428 Y92.508 E8.36111
G1 X100.728 Y91.617 E8.42663
G1 X102.105 Y90.778 E8.49367
G1 X103.523 Y90.008 E8.56076
G1 X105.021 Y89.296 E8.62971
G1 X106.395 Y88.727 E8.69154
G1 X108.034 Y88.147 E8.76382
G1 X109.481 Y87.718 E8.82657
G1 X111.094 Y87.333 E8.89552
G1 X112.747 Y87.028 E8.9654
G1 X114.346 Y86.822 E9.03243
G1 X115.925 Y86.7 E9.09827
G1 X117.571 Y86.659 E9.16672
G1 X119.15 Y86.704 E9.2324
G1 X120.789 Y86.834 E9.30075
G1 X122.235 Y87.024 E9.36139
G1 X123.983 Y87.347 E9.43529
G1 X125.43 Y87.695 E9.49717
G1 X127.094 Y88.191 E9.56936
G1 X128.557 Y88.71 E9.63389
G1 X130.11 Y89.354 E9.70379
G1 X131.56 Y90.05 E9.77066
G1 X132.87 Y90.76 E9.83261
G1 X134.364 Y91.676 E9.90547
G1 X135.675 Y92.586 E9.97182
G1 X136.962 Y93.576 E10.03932
G1 X138.189 Y94.628 E10.10652
G1 X139.283 Y95.668 E10.16927
G1 X140.463 Y96.915 E10.24065
G1 X141.532 Y98.169 E10.30916
G1 X142.492 Y99.428 E10.37498
G1 X143.383 Y100.728 E10.44051
G1 X144.212 Y102.088 E10.50673
G1 X144.996 Y103.532 E10.57504
G1 X145.705 Y105.019 E10.64353
G1 X146.273 Y106.395 E10.70542
G1 X146.85 Y108.033 E10.77762
G1 X147.298 Y109.545 E10.84318
G1 X147.678 Y111.155 E10.91196
G1 X147.972 Y112.745 E10.97918
G1 X148.179 Y114.345 E11.04626
G1 X148.3 Y115.924 E11.1121
G1 X148.341 Y117.57 E11.18055
G1 X148.296 Y119.15 E11.24627
G1 X148.166 Y120.789 E11.31462
G1 X147.976 Y122.235 E11.37526
G1 X147.653 Y123.983 E11.44916
G1 X147.305 Y125.43 E11.51103
G1 X146.8 Y127.123 E11.58449
G1 X146.291 Y128.559 E11.64783
G1 X145.651 Y130.101 E11.71724
G1 X144.95 Y131.56 E11.78454
G1 X144.218 Y132.908 E11.84831
G1 X143.324 Y134.358 E11.91913
G1 X142.402 Y135.689 E11.98645
G1 X141.419 Y136.968 E12.05351
G1 X140.371 Y138.186 E12.12031
G1 X139.272 Y139.341 E12.1866
G1 X138.085 Y140.462 E12.25448
G1 X136.87 Y141.499 E12.32089
G1 X135.574 Y142.489 E12.38869
G1 X134.273 Y143.382 E12.4543
G1 X132.856 Y144.244 E12.52325
G1 X131.439 Y145.008 E12.59018
G1 X129.98 Y145.705 E12.65741
G1 X128.605 Y146.273 E12.71926
G1 X126.966 Y146.849 E12.79148
G1 X125.433 Y147.303 E12.85796
G1 X123.845 Y147.678 E12.92579
G1 X122.254 Y147.972 E12.99306
G1 X120.654 Y148.179 E13.06013
G1 X119.075 Y148.3 E13.12597
G1 X117.429 Y148.341 E13.19443
G1 X115.85 Y148.296 E13.2601
G1 X114.211 Y148.166 E13.32846
G1 X112.765 Y147.976 E13.38909
G1 X111.017 Y147.653 E13.463
G1 X109.57 Y147.305 E13.52487
G1 X107.878 Y146.8 E13.59828
G1 X106.378 Y146.265 E13.66449
G1 X104.906 Y145.65 E13.73082
G1 X103.44 Y144.95 E13.79836
G1 X102.13 Y144.24 E13.86031
G1 X100.643 Y143.329 E13.93281
G1 X99.416 Y142.486 E13.9947
G1 X98.03 Y141.419 E14.06742
G1 X96.817 Y140.373 E14.13401
G1 X95.64 Y139.256 E14.20147
G1 X94.537 Y138.086 E14.26833
G1 X93.485 Y136.853 E14.33571
G1 X92.51 Y135.573 E14.40261
G1 X91.604 Y134.252 E14.4692
G1 X90.778 Y132.895 E14.53525
G1 X90.008 Y131.476 E14.60237
G1 X89.298 Y129.98 E14.67122
G1 X88.712 Y128.566 E14.73485
G1 X88.147 Y126.966 E14.8054
G1 X87.718 Y125.519 E14.86815
G1 X87.333 Y123.906 E14.93709
G1 X87.028 Y122.253 E15.00698
G1 X86.822 Y120.654 E15.074
G1 X86.7 Y119.075 E15.13985
G1 X86.659 Y117.43 E15.20826
G1 X86.705 Y115.815 E15.27543
G1 X86.834 Y114.211 E15.34233
G1 X87.024 Y112.765 E15.40297
G1 X87.347 Y111.017 E15.47687
G1 X87.695 Y109.57 E15.53874
G1 X88.2 Y107.878 E15.61216
G1 X88.735 Y106.378 E15.67837
G1 X89.35 Y104.901 E15.74488
G1 X90.036 Y103.473 E15.81075
G1 X90.811 Y102.052 E15.87804
G1 X91.675 Y100.636 E15.94701
G1 X92.585 Y99.325 E16.01335
G1 X93.579 Y98.034 E16.08109
G1 X94.628 Y96.817 E16.14789
G1 X95.746 Y95.641 E16.21535
G0 F6000 X96.02 Y95.932
G1 F1200 X97.196 Y94.823 E16.28256
G1 X98.389 Y93.804 E16.34779
G1 X99.654 Y92.838 E16.41396
G1 X100.936 Y91.959 E16.47859
G1 X102.296 Y91.13 E16.5448
G1 X103.714 Y90.36 E16.61189
G1 X105.174 Y89.666 E16.6791
G1 X106.548 Y89.097 E16.74093
G1 X108.148 Y88.531 E16.81149
G1 X109.595 Y88.102 E16.87423
G1 X111.167 Y87.726 E16.94143
G1 X112.798 Y87.425 E17.01039
G1 X114.377 Y87.221 E17.07658
G1 X115.935 Y87.1 E17.14155
G1 X117.56 Y87.059 E17.20913
G1 X119.118 Y87.103 E17.27393
G1 X120.737 Y87.231 E17.34145
G1 X122.183 Y87.421 E17.40208
G1 X123.889 Y87.736 E17.47421
G1 X125.336 Y88.084 E17.53609
G1 X126.96 Y88.568 E17.60654
G1 X128.423 Y89.087 E17.67108
G1 X129.937 Y89.715 E17.73922
G1 X131.369 Y90.402 E17.80525
G1 X132.679 Y91.112 E17.8672
G1 X134.136 Y92.005 E17.93825
G1 X135.431 Y92.903 E18.00377
G1 X136.702 Y93.88 E18.07042
G1 X137.913 Y94.918 E18.13673
G1 X139.007 Y95.958 E18.19948
G1 X140.159 Y97.175 E18.26915
G1 X141.214 Y98.412 E18.33675
G1 X142.162 Y99.654 E18.40171
G1 X143.041 Y100.936 E18.46633
G1 X143.86 Y102.279 E18.53173
G1 X144.644 Y103.723 E18.60004
G1 X145.335 Y105.172 E18.66678
G1 X145.903 Y106.548 E18.72867
G1 X146.466 Y108.147 E18.79915
G1 X146.914 Y109.659 E18.86472
G1 X147.285 Y111.228 E18.93175
G1 X147.575 Y112.796 E18.99804
G1 X147.78 Y114.376 E19.06428
G1 X147.9 Y115.934 E19.12925
G1 X147.941 Y117.559 E19.19683
G1 X147.897 Y119.118 E19.26167
G1 X147.769 Y120.737 E19.32919
G1 X147.579 Y122.183 E19.38982
G1 X147.264 Y123.889 E19.46195
G1 X146.916 Y125.336 E19.52382
G1 X146.423 Y126.989 E19.59554
G1 X145.921 Y128.406 E19.65804
G1 X145.29 Y129.928 E19.72654
G1 X144.598 Y131.369 E19.793
G1 X143.877 Y132.698 E19.85586
G1 X142.995 Y134.13 E19.92578
G1 X142.085 Y135.445 E19.99227
G1 X141.116 Y136.707 E20.05842
G1 X140.081 Y137.91 E20.1244
G1 X138.997 Y139.05 E20.1898
G1 X137.825 Y140.158 E20.25685
G1 X136.627 Y141.181 E20.32235
G1 X135.348 Y142.159 E20.38929
G1 X134.065 Y143.04 E20.45399
G1 X132.666 Y143.892 E20.52209
G1 X131.267 Y144.647 E20.58819
G1 X129.827 Y145.335 E20.65454
G1 X128.452 Y145.903 E20.71639
G1 X126.852 Y146.465 E20.78689
G1 X125.319 Y146.919 E20.85336
G1 X123.772 Y147.285 E20.91946
G1 X122.203 Y147.575 E20.98579
G1 X120.623 Y147.78 E21.05203
G1 X119.065 Y147.9 E21.117
G1 X117.44 Y147.941 E21.18458
G1 X115.882 Y147.897 E21.24938
G1 X114.263 Y147.769 E21.3169
G1 X112.817 Y147.579 E21.37753
G1 X111.111 Y147.264 E21.44966
G1 X109.664 Y146.916 E21.51153
G1 X108.012 Y146.423 E21.58321
G1 X106.532 Y145.896 E21.64853
G1 X105.078 Y145.289 E21.71403
G1 X103.631 Y144.598 E21.7807
G1 X102.321 Y143.888 E21.84265
G1 X100.87 Y142.999 E21.91339
G1 X99.643 Y142.156 E21.97529
G1 X98.291 Y141.116 E22.0462
G1 X97.092 Y140.083 E22.112
G1 X95.931 Y138.982 E22.17852
G1 X94.841 Y137.826 E22.24458
G1 X93.803 Y136.61 E22.31105
G1 X92.84 Y135.347 E22.37708
G1 X91.946 Y134.044 E22.44278
G1 X91.13 Y132.704 E22.50801
G1 X90.36 Y131.285 E22.57513
G1 X89.668 Y129.827 E22.64222
G1 X89.082 Y128.413 E22.70586
G1 X88.531 Y126.852 E22.77468
G1 X88.102 Y125.405 E22.83743
G1 X87.726 Y123.833 E22.90463
G1 X87.425 Y122.202 E22.97358
G1 X87.221 Y120.623 E23.03978
G1 X87.1 Y119.065 E23.10475
G1 X87.059 Y117.441 E23.17229
G1 X87.104 Y115.847 E23.23858
G1 X87.231 Y114.263 E23.30465
G1 X87.421 Y112.817 E23.36528
G1 X87.736 Y111.111 E23.43741
G1 X88.084 Y109.664 E23.49928
G1 X88.577 Y108.012 E23.57096
G1 X89.104 Y106.532 E23.63628
G1 X89.711 Y105.074 E23.70194
G1 X90.387 Y103.665 E23.76691
G1 X91.162 Y102.244 E23.8342
G1 X92.004 Y100.864 E23.90141
G1 X92.902 Y99.569 E23.96693
G1 X93.882 Y98.295 E24.03375
G1 X94.918 Y97.092 E24.09976
G1 X96.02 Y95.932 E24.16628
G0 F6000 X96.294 Y96.223
G1 F1200 X97.456 Y95.127 E24.23269
G1 X98.632 Y94.122 E24.297
G1 X99.88 Y93.168 E24.36231
G1 X101.144 Y92.301 E24.42604
G1 X102.487 Y91.482 E24.49144
G1 X103.905 Y90.712 E24.55852
G1 X105.327 Y90.036 E24.62398
G1 X106.701 Y89.467 E24.68581
G1 X108.262 Y88.915 E24.75465
G1 X109.709 Y88.486 E24.81739
G1 X111.24 Y88.119 E24.88285
G1 X112.849 Y87.822 E24.95087
G1 X114.408 Y87.62 E25.01623
G1 X115.945 Y87.5 E25.08033
G1 X117.549 Y87.459 E25.14703
G1 X119.087 Y87.502 E25.211
G1 X120.685 Y87.628 E25.27765
G1 X122.131 Y87.818 E25.33828
G1 X123.795 Y88.125 E25.40863
G1 X125.242 Y88.473 E25.4705
G1 X126.826 Y88.945 E25.53922
G1 X128.289 Y89.464 E25.60376
G1 X129.764 Y90.076 E25.67015
G1 X131.178 Y90.754 E25.73535
G1 X132.488 Y91.464 E25.7973
G1 X133.908 Y92.334 E25.86653
G1 X135.187 Y93.22 E25.93122
G1 X136.442 Y94.184 E25.99701
G1 X137.637 Y95.208 E26.06244
G1 X138.731 Y96.248 E26.12519
G1 X139.855 Y97.435 E26.19316
G1 X140.896 Y98.655 E26.25984
G1 X141.832 Y99.88 E26.32393
G1 X142.699 Y101.144 E26.38766
G1 X143.518 Y102.487 E26.45305
G1 X144.283 Y103.895 E26.51967
G1 X144.965 Y105.325 E26.58554
G1 X145.533 Y106.701 E26.64743
G1 X146.082 Y108.261 E26.71619
G1 X146.53 Y109.773 E26.78175
G1 X146.892 Y111.301 E26.84704
G1 X147.178 Y112.848 E26.91244
G1 X147.381 Y114.407 E26.97781
G1 X147.5 Y115.944 E27.0419
G1 X147.541 Y117.548 E27.10861
G1 X147.498 Y119.087 E27.17262
G1 X147.372 Y120.685 E27.23926
G1 X147.182 Y122.131 E27.29989
G1 X146.875 Y123.795 E27.37024
G1 X146.527 Y125.242 E27.43212
G1 X146.046 Y126.855 E27.5021
G1 X145.544 Y128.272 E27.5646
G1 X144.929 Y129.755 E27.63134
G1 X144.246 Y131.178 E27.69697
G1 X143.536 Y132.488 E27.75891
G1 X142.666 Y133.902 E27.82794
G1 X141.756 Y135.217 E27.89442
G1 X140.813 Y136.446 E27.95883
G1 X139.791 Y137.634 E28.02398
G1 X138.722 Y138.759 E28.0885
G1 X137.565 Y139.854 E28.15473
G1 X136.384 Y140.863 E28.21931
G1 X135.121 Y141.829 E28.28542
G1 X133.857 Y142.698 E28.34919
G1 X132.476 Y143.54 E28.41644
G1 X131.095 Y144.286 E28.48169
G1 X129.674 Y144.965 E28.54717
G1 X128.299 Y145.533 E28.60902
G1 X126.738 Y146.082 E28.67782
G1 X125.227 Y146.53 E28.74334
G1 X123.699 Y146.892 E28.80862
G1 X122.151 Y147.178 E28.87407
G1 X120.592 Y147.381 E28.93943
G1 X119.055 Y147.5 E29.00353
G1 X117.451 Y147.541 E29.07024
G1 X115.913 Y147.498 E29.1342
G1 X114.315 Y147.372 E29.20085
G1 X112.869 Y147.182 E29.26148
G1 X111.205 Y146.875 E29.33183
G1 X109.758 Y146.527 E29.3937
G1 X108.146 Y146.046 E29.46364
G1 X106.686 Y145.527 E29.52806
G1 X105.25 Y144.928 E29.59275
G1 X103.822 Y144.246 E29.65854
G1 X102.512 Y143.536 E29.72049
G1 X101.097 Y142.669 E29.78949
G1 X99.87 Y141.826 E29.85138
G1 X98.552 Y140.813 E29.92049
G1 X97.367 Y139.793 E29.98549
G1 X96.222 Y138.708 E30.05108
G1 X95.145 Y137.566 E30.11634
G1 X94.121 Y136.367 E30.18189
G1 X93.17 Y135.121 E30.24706
G1 X92.288 Y133.836 E30.31186
G1 X91.482 Y132.513 E30.37626
G1 X90.712 Y131.094 E30.44339
G1 X90.038 Y129.674 E30.50873
G1 X89.452 Y128.26 E30.57237
G1 X88.915 Y126.738 E30.63947
G1 X88.486 Y125.291 E30.70222
G1 X88.119 Y123.76 E30.76767
G1 X87.822 Y122.151 E30.8357
G1 X87.62 Y120.592 E30.90106
G1 X87.5 Y119.055 E30.96515
G1 X87.459 Y117.452 E31.03182
G1 X87.503 Y115.879 E31.09724
G1 X87.628 Y114.315 E31.16247
G1 X87.818 Y112.869 E31.22311
G1 X88.125 Y111.205 E31.29346
G1 X88.473 Y109.758 E31.35533
G1 X88.954 Y108.146 E31.42527
G1 X89.473 Y106.686 E31.48969
G1 X90.072 Y105.247 E31.55449
G1 X90.738 Y103.857 E31.61857
G1 X91.513 Y102.436 E31.68587
G1 X92.333 Y101.092 E31.75132
G1 X93.219 Y99.813 E31.81601
G1 X94.185 Y98.556 E31.88192
G1 X95.208 Y97.367 E31.94713
G1 X96.294 Y96.223 E32.01271
G0 F6000 X96.568 Y96.514
G1 F1200 X97.716 Y95.431 E32.07833
G1 X98.875 Y94.44 E32.14172
G1 X100.106 Y93.498 E32.20617
G1 X101.352 Y92.643 E32.26899
G1 X102.695 Y91.824 E32.33439
G1 X104.077 Y91.073 E32.39979
G1 X105.48 Y90.406 E32.46437
G1 X106.854 Y89.837 E32.5262
G1 X108.376 Y89.299 E32.59331
G1 X109.823 Y88.87 E32.65606
G1 X111.313 Y88.512 E32.71977
G1 X112.901 Y88.219 E32.78691
G1 X114.439 Y88.019 E32.85139
G1 X115.955 Y87.9 E32.91461
G1 X117.538 Y87.859 E32.98045
G1 X119.056 Y87.901 E33.04358
G1 X120.633 Y88.025 E33.10935
G1 X122.079 Y88.215 E33.16998
G1 X123.701 Y88.514 E33.23855
G1 X125.148 Y88.862 E33.30043
G1 X126.692 Y89.322 E33.36741
G1 X128.155 Y89.841 E33.43195
G1 X129.591 Y90.437 E33.49659
G1 X130.987 Y91.106 E33.56095
G1 X132.297 Y91.816 E33.62289
G1 X133.68 Y92.663 E33.69032
G1 X134.943 Y93.537 E33.75418
G1 X136.182 Y94.488 E33.81911
G1 X137.361 Y95.498 E33.88366
G1 X138.455 Y96.538 E33.94641
G1 X139.551 Y97.695 E34.01267
G1 X140.578 Y98.898 E34.07843
G1 X141.502 Y100.106 E34.14166
G1 X142.357 Y101.352 E34.20449
G1 X143.176 Y102.695 E34.26989
G1 X143.922 Y104.067 E34.33481
G1 X144.595 Y105.478 E34.39981
G1 X145.163 Y106.854 E34.4617
G1 X145.699 Y108.375 E34.52874
G1 X146.141 Y109.865 E34.59336
