;FLAVOR:Marlin
;TIME:17367
;Filament used: 12.4851m
;Layer height: 0.2
;MINX:12.684
;MINY:20.42
;MINZ:0.25
;MAXX:211.328
;MAXY:219.07
;MAXZ:3.05
;Generated with Cura_SteamEngine 5.3.0
M140 S85
M105
M190 S85
M104 S240
M105
M109 S240
M82 ;absolute extrusion mode
START_PRINT
G92 E0
G92 E0
G1 F1500 E-8
;LAYER_COUNT:15
;LAYER:0
M107
G0 F6000 X123.066 Y77.004 Z0.25
;TYPE:SKIRT
G1 F1500 E0
G1 F1200 X123.428 Y76.764 E0.01806
G1 X123.833 Y76.635 E0.03573
G1 X124.184 Y76.649 E0.05033
G1 X124.62 Y76.76 E0.06904
G1 X124.991 Y77.007 E0.08757
G1 X138.876 Y90.892 E0.90395
G1 X139.018 Y90.751 E0.91227
G1 X125.129 Y76.863 E1.72886
G1 X124.889 Y76.501 E1.74692
G1 X124.76 Y76.096 E1.76459
G1 X124.774 Y75.745 E1.7792
G1 X124.885 Y75.309 E1.7979
G1 X125.132 Y74.938 E1.81643
G1 X179.281 Y20.789 E5.00019
G1 X179.643 Y20.549 E5.01824
G1 X180.048 Y20.42 E5.03591
G1 X180.399 Y20.434 E5.05052
G1 X180.835 Y20.545 E5.06922
G1 X181.206 Y20.792 E5.08775
G1 X210.959 Y50.546 E6.83715
G1 X211.199 Y50.908 E6.8552
G1 X211.328 Y51.313 E6.87287
G1 X211.314 Y51.664 E6.88748
G1 X211.203 Y52.1 E6.90618
G1 X210.956 Y52.471 E6.92471
G1 X44.732 Y218.696 E16.69808
G1 X44.368 Y218.937 E16.71623
G1 X43.947 Y219.07 E16.73458
G1 X43.635 Y219.055 E16.74757
G1 X43.176 Y218.94 E16.76724
G1 X42.809 Y218.695 E16.78559
G1 X13.053 Y188.939 E18.53513
G1 X12.813 Y188.577 E18.55318
G1 X12.684 Y188.172 E18.57086
G1 X12.698 Y187.821 E18.58546
G1 X12.809 Y187.385 E18.60417
G1 X13.056 Y187.014 E18.6227
G1 X67.205 Y132.866 E21.80642
G1 X67.567 Y132.626 E21.82448
G1 X67.972 Y132.497 E21.84215
G1 X68.323 Y132.511 E21.85675
G1 X68.759 Y132.622 E21.87546
G1 X69.13 Y132.869 E21.89399
G1 X83.015 Y146.754 E22.71037
G1 X83.156 Y146.612 E22.71869
G1 X69.268 Y132.724 E23.53525
G1 X69.028 Y132.362 E23.55331
G1 X68.899 Y131.957 E23.57098
G1 X68.913 Y131.606 E23.58559
G1 X69.024 Y131.17 E23.60429
G1 X69.271 Y130.799 E23.62282
G1 X123.066 Y77.004 E26.78576
G0 F6000 X123.32 Y77.316
G1 F1200 X123.604 Y77.128 E26.79992
G1 X123.888 Y77.037 E26.81232
G1 X124.085 Y77.037 E26.82051
G1 X124.457 Y77.132 E26.83647
G1 X124.734 Y77.316 E26.8503
G1 X138.876 Y91.458 E27.68179
G1 X139.584 Y90.751 E27.72339
G1 X125.441 Y76.609 E28.55492
G1 X125.253 Y76.325 E28.56908
G1 X125.162 Y76.041 E28.58148
G1 X125.162 Y75.844 E28.58967
G1 X125.257 Y75.472 E28.60563
G1 X125.441 Y75.195 E28.61945
G1 X179.535 Y21.101 E31.79997
G1 X179.819 Y20.913 E31.81413
G1 X180.103 Y20.822 E31.82653
G1 X180.3 Y20.822 E31.83472
G1 X180.672 Y20.917 E31.85069
G1 X180.949 Y21.101 E31.86451
G1 X210.647 Y50.8 E33.61067
G1 X210.835 Y51.084 E33.62483
G1 X210.926 Y51.368 E33.63723
G1 X210.926 Y51.565 E33.64542
G1 X210.831 Y51.937 E33.66138
G1 X210.647 Y52.214 E33.67521
G1 X44.478 Y218.384 E43.44534
G1 X44.194 Y218.572 E43.4595
G1 X43.892 Y218.667 E43.47266
G1 X43.732 Y218.667 E43.47931
G1 X43.341 Y218.569 E43.49607
G1 X43.064 Y218.384 E43.50992
G1 X13.365 Y188.685 E45.2561
G1 X13.177 Y188.401 E45.27026
G1 X13.086 Y188.117 E45.28266
G1 X13.086 Y187.92 E45.29085
G1 X13.181 Y187.548 E45.30682
G1 X13.365 Y187.271 E45.32064
G1 X67.459 Y133.178 E48.50113
G1 X67.743 Y132.99 E48.51529
G1 X68.027 Y132.899 E48.52769
G1 X68.224 Y132.899 E48.53588
G1 X68.596 Y132.994 E48.55184
G1 X68.873 Y133.178 E48.56567
G1 X83.015 Y147.32 E49.39716
G1 X83.722 Y146.612 E49.43876
G1 X69.58 Y132.47 E50.27026
G1 X69.392 Y132.186 E50.28442
G1 X69.301 Y131.902 E50.29682
G1 X69.301 Y131.705 E50.30501
G1 X69.396 Y131.333 E50.32097
G1 X69.58 Y131.056 E50.33479
G1 X123.32 Y77.316 E53.4945
G0 F6000 X123.603 Y77.599
G1 F1200 X123.814 Y77.469 E53.5048
G1 X123.987 Y77.425 E53.51223
G1 X124.294 Y77.503 E53.5254
G1 X124.451 Y77.599 E53.53305
G1 X138.876 Y92.024 E54.38118
G1 X140.15 Y90.751 E54.45606
G1 X125.724 Y76.326 E55.30422
G1 X125.594 Y76.115 E55.31453
G1 X125.55 Y75.942 E55.32195
G1 X125.628 Y75.635 E55.33512
G1 X125.724 Y75.478 E55.34277
G1 X179.818 Y21.384 E58.52329
G1 X180.029 Y21.254 E58.53359
G1 X180.202 Y21.21 E58.54101
G1 X180.509 Y21.288 E58.55418
G1 X180.666 Y21.384 E58.56183
G1 X210.364 Y51.083 E60.30799
G1 X210.494 Y51.294 E60.31829
G1 X210.538 Y51.467 E60.32572
G1 X210.46 Y51.774 E60.33888
G1 X210.364 Y51.931 E60.34653
G1 X44.195 Y218.101 E70.11666
G1 X43.984 Y218.231 E70.12697
G1 X43.811 Y218.275 E70.13439
G1 X43.504 Y218.197 E70.14756
G1 X43.347 Y218.101 E70.15521
G1 X13.648 Y188.402 E71.9014
G1 X13.518 Y188.191 E71.9117
G1 X13.474 Y188.018 E71.91912
G1 X13.552 Y187.711 E71.93229
G1 X13.648 Y187.554 E71.93994
G1 X67.742 Y133.461 E75.12043
G1 X67.953 Y133.331 E75.13074
G1 X68.126 Y133.287 E75.13816
G1 X68.433 Y133.365 E75.15133
G1 X68.59 Y133.461 E75.15898
G1 X83.015 Y147.886 E76.00711
G1 X84.288 Y146.612 E76.08199
G1 X69.863 Y132.187 E76.93012
G1 X69.733 Y131.976 E76.94043
G1 X69.689 Y131.803 E76.94785
G1 X69.767 Y131.496 E76.96102
G1 X69.863 Y131.339 E76.96867
G1 X123.603 Y77.599 E80.12838
G0 F6000 X123.886 Y77.882
G1 F1200 X123.997 Y77.825 E80.13356
G1 X124.168 Y77.882 E80.14106
G1 X138.876 Y92.59 E81.00583
G1 X140.716 Y90.751 E81.11399
G1 X126.007 Y76.043 E81.97879
G1 X125.95 Y75.932 E81.98398
G1 X126.007 Y75.761 E81.99147
G1 X180.101 Y21.667 E85.17199
G1 X180.212 Y21.61 E85.17718
G1 X180.383 Y21.667 E85.18467
G1 X210.081 Y51.366 E86.93083
G1 X210.138 Y51.477 E86.93602
G1 X210.081 Y51.648 E86.94351
G1 X43.912 Y217.818 E96.71364
G1 X43.801 Y217.875 E96.71883
G1 X43.63 Y217.818 E96.72632
G1 X13.931 Y188.119 E98.47251
G1 X13.874 Y188.008 E98.4777
G1 X13.931 Y187.837 E98.48519
G1 X68.025 Y133.744 E101.66568
G1 X68.136 Y133.687 E101.67087
G1 X68.307 Y133.744 E101.67837
G1 X83.015 Y148.452 E102.54314
G1 X84.854 Y146.612 E102.6513
G1 X70.146 Y131.904 E103.51607
G1 X70.089 Y131.793 E103.52126
G1 X70.146 Y131.622 E103.52875
G1 X123.886 Y77.882 E106.68846
G1 F1500 E98.68846
;MESH:ParatiaLungaKatia.stl
G0 F6000 X124.028 Y79.156
G0 X43.771 Y216.827
;TYPE:WALL-INNER
G1 F1500 E106.68846
G1 F1200 X209.09 Y51.507 E116.40861
G1 X180.242 Y22.658 E118.10479
G1 X126.998 Y75.902 E121.23533
G1 X141.439 Y90.343 E122.08441
G1 X141.532 Y90.475 E122.09112
G1 X141.593 Y90.666 E122.09946
G1 X141.566 Y90.947 E122.1112
G1 X141.472 Y91.127 E122.11964
G1 X139.247 Y93.35 E122.2504
G1 X139.072 Y93.44 E122.25858
G1 X138.791 Y93.467 E122.27032
G1 X138.6 Y93.406 E122.27865
G1 X138.451 Y93.297 E122.28633
G1 X124.028 Y78.873 E123.13438
G1 X71.137 Y131.764 E126.24416
G1 X85.577 Y146.204 E127.09318
G1 X85.67 Y146.336 E127.09989
G1 X85.731 Y146.527 E127.10823
G1 X85.704 Y146.808 E127.11997
G1 X85.604 Y146.993 E127.12871
G1 X83.387 Y149.212 E127.25912
G1 X83.211 Y149.302 E127.26734
G1 X82.93 Y149.329 E127.27907
G1 X82.739 Y149.268 E127.28741
G1 X82.59 Y149.159 E127.29509
G1 X68.167 Y134.735 E128.14313
G1 X14.922 Y187.978 E131.27368
G1 X43.771 Y216.827 E132.96989
G0 F6000 X43.771 Y217.393
;TYPE:WALL-OUTER
G1 F1200 X209.656 Y51.507 E142.72332
G1 X180.242 Y22.092 E144.45278
G1 X126.432 Y75.902 E147.6166
G1 X141.156 Y90.627 E148.48234
G1 X141.197 Y90.722 E148.48665
G1 X141.16 Y90.87 E148.49299
G1 X139.007 Y93.024 E148.61961
G1 X138.847 Y93.071 E148.62654
G1 X138.734 Y93.014 E148.6318
G1 X124.028 Y78.307 E149.49649
G1 X70.571 Y131.764 E152.63955
G1 X85.294 Y146.488 E153.50524
G1 X85.335 Y146.583 E153.50954
G1 X85.298 Y146.731 E153.51588
G1 X83.146 Y148.886 E153.6425
G1 X82.986 Y148.933 E153.64943
G1 X82.873 Y148.876 E153.6547
G1 X68.167 Y134.169 E154.51938
G1 X14.356 Y187.978 E157.6832
G1 X43.771 Y217.393 E159.41269
G0 F6000 X43.771 Y217.011
G0 X43.587 Y216.5
G0 X43.771 Y216.317
;TYPE:SKIN
G1 F1200 X15.432 Y187.978 E161.07892
G1 X68.166 Y135.245 E164.17944
G1 X82.378 Y149.454 E165.01497
G1 X82.638 Y149.617 E165.02773
G1 X82.879 Y149.686 E165.03815
G1 X83.249 Y149.666 E165.05355
G1 X83.572 Y149.528 E165.06816
G1 X85.865 Y147.239 E165.20286
G1 X86.012 Y147.004 E165.21438
G1 X86.1 Y146.654 E165.22939
G1 X86.035 Y146.265 E165.24578
G1 X85.851 Y145.967 E165.26034
G1 X71.647 Y131.763 E166.09549
G1 X124.027 Y79.383 E169.17523
G1 X138.231 Y93.587 E170.01037
G1 X138.524 Y93.773 E170.0248
G1 X138.919 Y93.836 E170.04143
G1 X139.268 Y93.748 E170.05639
G1 X139.503 Y93.601 E170.06792
G1 X141.784 Y91.32 E170.20203
G1 X141.93 Y90.985 E170.21722
G1 X141.953 Y90.621 E170.23239
G1 X141.881 Y90.374 E170.24308
G1 X141.701 Y90.093 E170.25696
G1 X127.508 Y75.902 E171.09139
G1 X180.242 Y23.168 E174.19195
G1 X208.58 Y51.507 E175.85814
G1 X43.771 Y216.317 E185.54831
G1 F1500 E177.54831
G0 F6000 X43.587 Y216.5
G0 X15.165 Y187.978
G0 X15.538 Y187.505
G0 X15.862 Y187.83
G1 F1500 E185.54831
G1 F1200 X43.917 Y215.886 E187.19787
G0 F6000 X44.2 Y215.603
G1 F1200 X16.145 Y187.548 E188.84739
G0 F6000 X16.428 Y187.265
G1 F1200 X44.483 Y215.32 E190.49692
G0 F6000 X44.766 Y215.037
G1 F1200 X16.711 Y186.982 E192.14645
G0 F6000 X16.993 Y186.699
G1 F1200 X45.049 Y214.754 E193.796
G0 F6000 X45.331 Y214.471
G1 F1200 X17.276 Y186.416 E195.44553
G0 F6000 X17.559 Y186.133
G1 F1200 X45.614 Y214.189 E197.09508
G0 F6000 X45.897 Y213.906
G1 F1200 X17.842 Y185.85 E198.74464
G0 F6000 X18.125 Y185.568
G1 F1200 X46.18 Y213.623 E200.39417
G0 F6000 X46.463 Y213.34
G1 F1200 X18.408 Y185.285 E202.04369
G0 F6000 X18.69 Y185.002
G1 F1200 X46.746 Y213.057 E203.69325
G0 F6000 X47.028 Y212.774
G1 F1200 X18.973 Y184.719 E205.34278
G0 F6000 X19.256 Y184.436
G1 F1200 X47.311 Y212.491 E206.9923
G0 F6000 X47.594 Y212.209
G1 F1200 X19.539 Y184.153 E208.64186
G0 F6000 X19.822 Y183.871
G1 F1200 X47.877 Y211.926 E210.29138
G0 F6000 X48.16 Y211.643
G1 F1200 X20.105 Y183.588 E211.94091
G0 F6000 X20.388 Y183.305
G1 F1200 X48.443 Y211.36 E213.59044
G0 F6000 X48.726 Y211.077
G1 F1200 X20.67 Y183.022 E215.23999
G0 F6000 X20.953 Y182.739
G1 F1200 X49.008 Y210.794 E216.88952
G0 F6000 X49.291 Y210.512
G1 F1200 X21.236 Y182.456 E218.53908
G0 F6000 X21.519 Y182.174
G1 F1200 X49.574 Y210.229 E220.1886
G0 F6000 X49.857 Y209.946
G1 F1200 X21.802 Y181.891 E221.83813
G0 F6000 X22.085 Y181.608
G1 F1200 X50.14 Y209.663 E223.48766
G0 F6000 X50.423 Y209.38
G1 F1200 X22.367 Y181.325 E225.13721
G0 F6000 X22.65 Y181.042
G1 F1200 X50.705 Y209.097 E226.78674
G0 F6000 X50.988 Y208.814
G1 F1200 X22.933 Y180.759 E228.43626
G0 F6000 X23.216 Y180.476
G1 F1200 X51.271 Y208.532 E230.08582
G0 F6000 X51.554 Y208.249
G1 F1200 X23.499 Y180.194 E231.73535
G0 F6000 X23.782 Y179.911
G1 F1200 X51.837 Y207.966 E233.38487
G0 F6000 X52.12 Y207.683
G1 F1200 X24.064 Y179.628 E235.03443
G0 F6000 X24.347 Y179.345
G1 F1200 X52.402 Y207.4 E236.68396
G0 F6000 X52.685 Y207.117
G1 F1200 X24.63 Y179.062 E238.33348
G0 F6000 X24.913 Y178.779
G1 F1200 X52.968 Y206.835 E239.98304
G0 F6000 X53.251 Y206.552
G1 F1200 X25.196 Y178.497 E241.63256
G0 F6000 X25.479 Y178.214
G1 F1200 X53.534 Y206.269 E243.28209
G0 F6000 X53.817 Y205.986
G1 F1200 X25.762 Y177.931 E244.93162
G0 F6000 X26.044 Y177.648
G1 F1200 X54.1 Y205.703 E246.58117
G0 F6000 X54.382 Y205.42
G1 F1200 X26.327 Y177.365 E248.2307
G0 F6000 X26.61 Y177.082
G1 F1200 X54.665 Y205.138 E249.88026
G0 F6000 X54.948 Y204.855
G1 F1200 X26.893 Y176.8 E251.52978
G0 F6000 X27.176 Y176.517
G1 F1200 X55.231 Y204.572 E253.17931
G0 F6000 X55.514 Y204.289
G1 F1200 X27.459 Y176.234 E254.82883
G0 F6000 X27.741 Y175.951
G1 F1200 X55.797 Y204.006 E256.47839
G0 F6000 X56.079 Y203.723
G1 F1200 X28.024 Y175.668 E258.12792
G0 F6000 X28.307 Y175.385
G1 F1200 X56.362 Y203.44 E259.77744
G0 F6000 X56.645 Y203.158
G1 F1200 X28.59 Y175.102 E261.427
G0 F6000 X28.873 Y174.82
G1 F1200 X56.928 Y202.875 E263.07653
G0 F6000 X57.211 Y202.592
G1 F1200 X29.156 Y174.537 E264.72605
G0 F6000 X29.438 Y174.254
G1 F1200 X57.494 Y202.309 E266.37561
G0 F6000 X57.776 Y202.026
G1 F1200 X29.721 Y173.971 E268.02513
G0 F6000 X30.004 Y173.688
G1 F1200 X58.059 Y201.743 E269.67466
G0 F6000 X58.342 Y201.461
G1 F1200 X30.287 Y173.405 E271.32422
G0 F6000 X30.57 Y173.123
G1 F1200 X58.625 Y201.178 E272.97374
G0 F6000 X58.908 Y200.895
G1 F1200 X30.853 Y172.84 E274.62327
G0 F6000 X31.136 Y172.557
G1 F1200 X59.191 Y200.612 E276.2728
G0 F6000 X59.474 Y200.329
G1 F1200 X31.418 Y172.274 E277.92235
G0 F6000 X31.701 Y171.991
G1 F1200 X59.756 Y200.046 E279.57188
G0 F6000 X60.039 Y199.764
G1 F1200 X31.984 Y171.708 E281.22144
G0 F6000 X32.267 Y171.426
G1 F1200 X60.322 Y199.481 E282.87096
G0 F6000 X60.605 Y199.198
G1 F1200 X32.55 Y171.143 E284.52049
G0 F6000 X32.833 Y170.86
G1 F1200 X60.888 Y198.915 E286.17001
G0 F6000 X61.171 Y198.632
G1 F1200 X33.115 Y170.577 E287.81957
G0 F6000 X33.398 Y170.294
G1 F1200 X61.453 Y198.349 E289.4691
G0 F6000 X61.736 Y198.066
G1 F1200 X33.681 Y170.011 E291.11862
G0 F6000 X33.964 Y169.728
G1 F1200 X62.019 Y197.784 E292.76818
G0 F6000 X62.302 Y197.501
G1 F1200 X34.247 Y169.446 E294.41771
G0 F6000 X34.53 Y169.163
G1 F1200 X62.585 Y197.218 E296.06723
G0 F6000 X62.868 Y196.935
G1 F1200 X34.812 Y168.88 E297.71679
G0 F6000 X35.095 Y168.597
G1 F1200 X63.15 Y196.652 E299.36631
G0 F6000 X63.433 Y196.369
G1 F1200 X35.378 Y168.314 E301.01584
G0 F6000 X35.661 Y168.031
G1 F1200 X63.716 Y196.087 E302.6654
G0 F6000 X63.999 Y195.804
G1 F1200 X35.944 Y167.749 E304.31492
G0 F6000 X36.227 Y167.466
G1 F1200 X64.282 Y195.521 E305.96445
G0 F6000 X64.565 Y195.238
G1 F1200 X36.51 Y167.183 E307.61398
G0 F6000 X36.792 Y166.9
G1 F1200 X64.848 Y194.955 E309.26353
G0 F6000 X65.13 Y194.672
G1 F1200 X37.075 Y166.617 E310.91306
G0 F6000 X37.358 Y166.334
G1 F1200 X65.413 Y194.39 E312.56261
G0 F6000 X65.696 Y194.107
G1 F1200 X37.641 Y166.052 E314.21214
G0 F6000 X37.924 Y165.769
G1 F1200 X65.979 Y193.824 E315.86167
G0 F6000 X66.262 Y193.541
G1 F1200 X38.207 Y165.486 E317.51119
G0 F6000 X38.489 Y165.203
G1 F1200 X66.545 Y193.258 E319.16075
G0 F6000 X66.827 Y192.975
G1 F1200 X38.772 Y164.92 E320.81028
G0 F6000 X39.055 Y164.637
G1 F1200 X67.11 Y192.692 E322.4598
G0 F6000 X67.393 Y192.41
G1 F1200 X39.338 Y164.354 E324.10936
G0 F6000 X39.621 Y164.072
G1 F1200 X67.676 Y192.127 E325.75889
G0 F6000 X67.959 Y191.844
G1 F1200 X39.904 Y163.789 E327.40841
G0 F6000 X40.186 Y163.506
G1 F1200 X68.242 Y191.561 E329.05797
G0 F6000 X68.525 Y191.278
G1 F1200 X40.469 Y163.223 E330.70752
G0 F6000 X40.752 Y162.94
G1 F1200 X68.807 Y190.995 E332.35705
G0 F6000 X69.09 Y190.713
G1 F1200 X41.035 Y162.657 E334.00661
G0 F6000 X41.318 Y162.375
G1 F1200 X69.373 Y190.43 E335.65613
G0 F6000 X69.656 Y190.147
G1 F1200 X41.601 Y162.092 E337.30566
G0 F6000 X41.884 Y161.809
G1 F1200 X69.939 Y189.864 E338.95519
G0 F6000 X70.222 Y189.581
G1 F1200 X42.166 Y161.526 E340.60474
G0 F6000 X42.449 Y161.243
G1 F1200 X70.504 Y189.298 E342.25427
G0 F6000 X70.787 Y189.016
G1 F1200 X42.732 Y160.96 E343.90382
G0 F6000 X43.015 Y160.677
G1 F1200 X71.07 Y188.733 E345.55338
G0 F6000 X71.353 Y188.45
G1 F1200 X43.298 Y160.395 E347.20291
G0 F6000 X43.581 Y160.112
G1 F1200 X71.636 Y188.167 E348.85243
G0 F6000 X71.919 Y187.884
G1 F1200 X43.863 Y159.829 E350.50199
G0 F6000 X44.146 Y159.546
G1 F1200 X72.201 Y187.601 E352.15151
G0 F6000 X72.484 Y187.318
G1 F1200 X44.429 Y159.263 E353.80104
G0 F6000 X44.712 Y158.98
G1 F1200 X72.767 Y187.036 E355.4506
G0 F6000 X73.05 Y186.753
G1 F1200 X44.995 Y158.698 E357.10012
G0 F6000 X45.278 Y158.415
G1 F1200 X73.333 Y186.47 E358.74965
G0 F6000 X73.616 Y186.187
G1 F1200 X45.561 Y158.132 E360.39918
G0 F6000 X45.843 Y157.849
G1 F1200 X73.899 Y185.904 E362.04873
G0 F6000 X74.181 Y185.621
G1 F1200 X46.126 Y157.566 E363.69826
G0 F6000 X46.409 Y157.283
G1 F1200 X74.464 Y185.339 E365.34781
G0 F6000 X74.747 Y185.056
G1 F1200 X46.692 Y157.001 E366.99734
G0 F6000 X46.975 Y156.718
G1 F1200 X75.03 Y184.773 E368.64687
G0 F6000 X75.313 Y184.49
G1 F1200 X47.258 Y156.435 E370.29639
G0 F6000 X47.54 Y156.152
G1 F1200 X75.596 Y184.207 E371.94595
G0 F6000 X75.878 Y183.924
G1 F1200 X47.823 Y155.869 E373.59548
G0 F6000 X48.106 Y155.586
G1 F1200 X76.161 Y183.641 E375.245
G0 F6000 X76.444 Y183.359
G1 F1200 X48.389 Y155.303 E376.89456
G0 F6000 X48.672 Y155.021
G1 F1200 X76.727 Y183.076 E378.54409
G0 F6000 X77.01 Y182.793
G1 F1200 X48.955 Y154.738 E380.19361
G0 F6000 X49.237 Y154.455
G1 F1200 X77.293 Y182.51 E381.84317
G0 F6000 X77.575 Y182.227
G1 F1200 X49.52 Y154.172 E383.49269
G0 F6000 X49.803 Y153.889
G1 F1200 X77.858 Y181.944 E385.14222
G0 F6000 X78.141 Y181.662
