;FLAVOR:Marlin
;TIME:8182
;Filament used: 7.98103m
;Layer height: 0.2
;MINX:57.313
;MINY:62.313
;MINZ:0.25
;MAXX:177.687
;MAXY:172.687
;MAXZ:29.65
;Generated with Cura_SteamEngine 5.3.0
M140 S55
M105
M190 S55
M104 S212
M105
M109 S212
M82 ;absolute extrusion mode
START_PRINT
G92 E0
G92 E0
G1 F3000 E-6.5
;LAYER_COUNT:150
;LAYER:0
M107
G0 X62.183 Y66.363 Z0.25
;TYPE:SKIRT
G1 F3000 E0
G1 F600 X62.86 Y65.765 E0.03755
G1 X63.274 Y65.447 E0.05926
G1 X63.713 Y65.128 E0.08182
G1 X64.245 Y64.761 E0.10869
G1 X65.013 Y64.287 E0.14621
G1 X65.511 Y64.027 E0.16957
G1 X65.993 Y63.792 E0.19186
G1 X66.6 Y63.514 E0.21962
G1 X67.44 Y63.181 E0.25719
G1 X67.964 Y63.016 E0.28003
G1 X68.488 Y62.866 E0.30269
G1 X69.104 Y62.705 E0.32916
G1 X69.988 Y62.521 E0.3667
G1 X70.57 Y62.445 E0.3911
G1 X71.384 Y62.365 E0.4251
G1 X71.721 Y62.34 E0.43915
G1 X72.624 Y62.313 E0.47671
G1 X73.197 Y62.338 E0.50056
G1 X74.067 Y62.404 E0.53683
G1 X74.379 Y62.436 E0.54987
G1 X75.272 Y62.568 E0.5874
G1 X75.82 Y62.69 E0.61074
G1 X76.366 Y62.827 E0.63415
G1 X76.799 Y62.945 E0.65281
G1 X80.035 Y63.91 E0.7932
G1 X82.501 Y64.569 E0.89932
G1 X84.938 Y65.149 E1.00347
G1 X87.491 Y65.678 E1.11186
G1 X89.931 Y66.115 E1.21492
G1 X92.448 Y66.491 E1.32073
G1 X94.975 Y66.795 E1.42655
G1 X97.494 Y67.027 E1.53172
G1 X100.042 Y67.189 E1.63786
G1 X102.63 Y67.281 E1.74553
G1 X104.481 Y67.3 E1.82249
G1 X130.459 Y67.3 E2.90253
G1 X133.064 Y67.263 E3.01084
G1 X135.63 Y67.154 E3.11762
G1 X138.137 Y66.976 E3.22211
G1 X140.678 Y66.725 E3.32827
G1 X143.186 Y66.404 E3.43339
G1 X145.691 Y66.01 E3.53882
G1 X148.178 Y65.548 E3.64398
G1 X150.692 Y65.007 E3.75089
G1 X153.138 Y64.408 E3.85559
G1 X155.59 Y63.733 E3.96133
G1 X157.476 Y63.157 E4.04331
G1 X158.497 Y62.864 E4.08747
G1 X159.096 Y62.707 E4.11322
G1 X159.98 Y62.523 E4.15076
G1 X160.57 Y62.445 E4.1755
G1 X161.384 Y62.365 E4.20951
G1 X161.721 Y62.34 E4.22356
G1 X162.624 Y62.313 E4.26112
G1 X163.197 Y62.338 E4.28496
G1 X164.067 Y62.404 E4.32124
G1 X164.379 Y62.436 E4.33427
G1 X165.272 Y62.568 E4.3718
G1 X165.903 Y62.711 E4.3987
G1 X166.742 Y62.929 E4.43474
G1 X167.605 Y63.194 E4.47228
G1 X168.353 Y63.495 E4.5058
G1 X168.87 Y63.727 E4.52936
G1 X169.389 Y63.973 E4.55324
G1 X170.184 Y64.4 E4.59075
G1 X170.672 Y64.71 E4.61479
G1 X171.14 Y65.026 E4.63827
G1 X171.682 Y65.412 E4.66593
G1 X172.389 Y65.974 E4.70348
G1 X172.785 Y66.337 E4.72581
G1 X173.18 Y66.719 E4.74866
G1 X173.63 Y67.176 E4.77533
G1 X174.228 Y67.852 E4.81285
G1 X174.553 Y68.274 E4.83499
G1 X174.872 Y68.713 E4.85755
G1 X175.239 Y69.245 E4.88442
G1 X175.713 Y70.013 E4.92195
G1 X175.973 Y70.511 E4.9453
G1 X176.208 Y70.993 E4.9676
G1 X176.486 Y71.6 E4.99535
G1 X176.819 Y72.44 E5.03292
G1 X176.984 Y72.964 E5.05576
G1 X177.134 Y73.488 E5.07842
G1 X177.295 Y74.104 E5.10489
G1 X177.479 Y74.988 E5.14243
G1 X177.555 Y75.57 E5.16683
G1 X177.635 Y76.384 E5.20084
G1 X177.66 Y76.721 E5.21489
G1 X177.687 Y77.624 E5.25245
G1 X177.662 Y78.2 E5.27642
G1 X177.623 Y78.748 E5.29926
G1 X177.564 Y79.372 E5.32532
G1 X177.433 Y80.266 E5.36288
G1 X177.31 Y80.82 E5.38648
G1 X177.173 Y81.366 E5.40988
G1 X177.055 Y81.798 E5.4285
G1 X176.09 Y85.034 E5.56889
G1 X175.424 Y87.524 E5.67605
G1 X174.847 Y89.955 E5.77993
G1 X174.322 Y92.49 E5.88756
G1 X173.88 Y94.962 E5.99196
G1 X173.503 Y97.485 E6.09802
G1 X173.201 Y99.992 E6.203
G1 X172.969 Y102.518 E6.30846
G1 X172.809 Y105.037 E6.4134
G1 X172.717 Y107.64 E6.52169
G1 X172.698 Y109.478 E6.59811
G1 X172.698 Y125.418 E7.26082
G1 X172.735 Y128.058 E7.37059
G1 X172.844 Y130.623 E7.47732
G1 X173.022 Y133.13 E7.58181
G1 X173.273 Y135.671 E7.68797
G1 X173.594 Y138.179 E7.79309
G1 X173.988 Y140.684 E7.89852
G1 X174.45 Y143.171 E8.00369
G1 X174.991 Y145.685 E8.1106
G1 X175.59 Y148.131 E8.2153
G1 X176.259 Y150.561 E8.32008
G1 X176.839 Y152.461 E8.40267
G1 X177.135 Y153.492 E8.44727
G1 X177.293 Y154.096 E8.47323
G1 X177.477 Y154.98 E8.51077
G1 X177.556 Y155.574 E8.53568
G1 X177.609 Y156.091 E8.55729
G1 X177.659 Y156.709 E8.58306
G1 X177.687 Y157.612 E8.62062
G1 X177.662 Y158.2 E8.64509
G1 X177.623 Y158.748 E8.66793
G1 X177.564 Y159.372 E8.69399
G1 X177.433 Y160.266 E8.73156
G1 X177.288 Y160.906 E8.75884
G1 X177.07 Y161.744 E8.79484
G1 X176.805 Y162.607 E8.83237
G1 X176.508 Y163.345 E8.86544
G1 X176.276 Y163.863 E8.88904
G1 X176.019 Y164.404 E8.91394
G1 X175.591 Y165.199 E8.95148
G1 X175.292 Y165.669 E8.97464
G1 X174.977 Y166.136 E8.99806
G1 X174.588 Y166.682 E9.02593
G1 X174.026 Y167.389 E9.06348
G1 X173.663 Y167.785 E9.08582
G1 X173.282 Y168.179 E9.1086
G1 X172.825 Y168.629 E9.13527
G1 X172.149 Y169.228 E9.17282
G1 X171.726 Y169.553 E9.195
G1 X171.287 Y169.872 E9.21756
G1 X170.755 Y170.239 E9.24443
G1 X169.987 Y170.713 E9.28195
G1 X169.489 Y170.973 E9.3053
G1 X169.007 Y171.208 E9.3276
G1 X168.4 Y171.486 E9.35536
G1 X167.56 Y171.819 E9.39292
G1 X167.036 Y171.984 E9.41576
G1 X166.512 Y172.134 E9.43842
G1 X165.896 Y172.295 E9.46489
G1 X165.012 Y172.479 E9.50243
G1 X164.43 Y172.555 E9.52684
G1 X163.616 Y172.635 E9.56084
G1 X163.279 Y172.66 E9.57489
G1 X162.376 Y172.687 E9.61245
G1 X161.803 Y172.662 E9.6363
G1 X160.933 Y172.596 E9.67257
G1 X160.621 Y172.564 E9.68561
G1 X159.728 Y172.432 E9.72314
G1 X159.18 Y172.31 E9.74648
G1 X158.634 Y172.173 E9.76988
G1 X158.201 Y172.055 E9.78854
G1 X154.965 Y171.09 E9.92893
G1 X152.499 Y170.431 E10.03506
G1 X150.062 Y169.851 E10.1392
G1 X147.509 Y169.322 E10.2476
G1 X145.069 Y168.885 E10.35066
G1 X142.552 Y168.509 E10.45646
G1 X140.025 Y168.205 E10.56228
G1 X137.506 Y167.973 E10.66745
G1 X134.958 Y167.811 E10.7736
G1 X132.37 Y167.719 E10.88127
G1 X130.519 Y167.7 E10.95822
G1 X104.541 Y167.7 E12.03826
G1 X101.936 Y167.737 E12.14658
G1 X99.37 Y167.846 E12.25336
G1 X96.863 Y168.024 E12.35785
G1 X94.322 Y168.275 E12.464
G1 X91.814 Y168.596 E12.56913
G1 X89.309 Y168.99 E12.67455
G1 X86.822 Y169.452 E12.77972
G1 X84.308 Y169.993 E12.88663
G1 X81.862 Y170.592 E12.99133
G1 X79.41 Y171.267 E13.09706
G1 X77.524 Y171.843 E13.17905
G1 X76.503 Y172.136 E13.22321
G1 X75.904 Y172.293 E13.24896
G1 X75.02 Y172.477 E13.2865
G1 X74.43 Y172.555 E13.31124
G1 X73.616 Y172.635 E13.34524
G1 X73.279 Y172.66 E13.35929
G1 X72.376 Y172.687 E13.39685
G1 X71.803 Y172.662 E13.4207
G1 X70.933 Y172.596 E13.45697
G1 X70.621 Y172.564 E13.47001
G1 X69.728 Y172.432 E13.50754
G1 X69.097 Y172.289 E13.53444
G1 X68.258 Y172.071 E13.57048
G1 X67.395 Y171.806 E13.60801
G1 X66.647 Y171.505 E13.64154
G1 X66.13 Y171.273 E13.66509
G1 X65.596 Y171.019 E13.68968
G1 X64.801 Y170.591 E13.72722
G1 X64.331 Y170.292 E13.75038
G1 X63.864 Y169.977 E13.7738
G1 X63.318 Y169.588 E13.80167
G1 X62.611 Y169.026 E13.83922
G1 X62.215 Y168.663 E13.86155
G1 X61.82 Y168.281 E13.8844
G1 X61.37 Y167.824 E13.91106
G1 X60.772 Y167.148 E13.94858
G1 X60.447 Y166.726 E13.97073
G1 X60.128 Y166.287 E13.99329
G1 X59.761 Y165.755 E14.02016
G1 X59.287 Y164.987 E14.05768
G1 X59.027 Y164.489 E14.08104
G1 X58.792 Y164.007 E14.10333
G1 X58.514 Y163.4 E14.13109
G1 X58.181 Y162.56 E14.16866
G1 X58.016 Y162.036 E14.1915
G1 X57.866 Y161.512 E14.21416
G1 X57.705 Y160.896 E14.24063
G1 X57.521 Y160.012 E14.27817
G1 X57.444 Y159.424 E14.30282
G1 X57.365 Y158.617 E14.33653
G1 X57.34 Y158.282 E14.3505
G1 X57.313 Y157.379 E14.38806
G1 X57.339 Y156.787 E14.4127
G1 X57.403 Y155.949 E14.44764
G1 X57.434 Y155.641 E14.46051
G1 X57.564 Y154.747 E14.49807
G1 X57.69 Y154.18 E14.52221
G1 X57.827 Y153.634 E14.54562
G1 X57.945 Y153.202 E14.56424
G1 X58.91 Y149.966 E14.70463
G1 X59.576 Y147.476 E14.81179
G1 X60.153 Y145.045 E14.91567
G1 X60.678 Y142.51 E15.0233
G1 X61.117 Y140.054 E15.12702
G1 X61.497 Y137.502 E15.23429
G1 X61.797 Y135.015 E15.33844
G1 X62.029 Y132.499 E15.44349
G1 X62.191 Y129.939 E15.55013
G1 X62.282 Y127.359 E15.65746
G1 X62.301 Y125.525 E15.73372
G1 X62.301 Y109.545 E16.39809
G1 X62.264 Y106.939 E16.50644
G1 X62.155 Y104.371 E16.6133
G1 X61.978 Y101.869 E16.71759
G1 X61.729 Y99.356 E16.82258
G1 X61.401 Y96.793 E16.93
G1 X61.01 Y94.308 E17.03459
G1 X60.55 Y91.832 E17.13929
G1 X60.006 Y89.305 E17.24676
G1 X59.409 Y86.866 E17.35115
G1 X58.734 Y84.415 E17.45685
G1 X58.111 Y82.367 E17.54584
G1 X57.866 Y81.511 E17.58286
G1 X57.707 Y80.904 E17.60895
G1 X57.523 Y80.02 E17.64649
G1 X57.445 Y79.43 E17.67123
G1 X57.365 Y78.618 E17.70515
G1 X57.34 Y78.282 E17.71916
G1 X57.313 Y77.379 E17.75672
G1 X57.338 Y76.792 E17.78115
G1 X57.378 Y76.237 E17.80428
G1 X57.434 Y75.641 E17.82917
G1 X57.564 Y74.747 E17.86673
G1 X57.712 Y74.094 E17.89457
G1 X57.93 Y73.256 E17.93057
G1 X58.195 Y72.393 E17.9681
G1 X58.496 Y71.646 E18.00158
G1 X58.734 Y71.116 E18.02574
G1 X58.978 Y70.602 E18.04939
G1 X59.406 Y69.806 E18.08697
G1 X59.708 Y69.331 E18.11037
G1 X60.023 Y68.864 E18.13379
G1 X60.412 Y68.318 E18.16166
G1 X60.974 Y67.611 E18.19921
G1 X61.341 Y67.211 E18.22178
G1 X61.736 Y66.803 E18.24539
G1 X62.183 Y66.363 E18.27146
G1 F3000 E11.77146
G0 X69.406 Y73.831
G1 F3000 E18.27146
G1 F600 X70.104 Y73.342 E18.3069
G1 X70.858 Y72.99 E18.34149
G1 X71.666 Y72.774 E18.37626
G1 X72.5 Y72.701 E18.41107
G1 X73.334 Y72.774 E18.44588
G1 X74.142 Y72.99 E18.48065
G1 X74.896 Y73.342 E18.51524
G1 X75.594 Y73.831 E18.55068
G1 X76.169 Y74.406 E18.58448
G1 X76.658 Y75.104 E18.61992
G1 X77.01 Y75.858 E18.65451
G1 X77.226 Y76.665 E18.68924
G1 X77.268 Y77.14 E18.70907
G1 X72.341 Y77.14 E18.91391
G1 X72.222 Y77.179 E18.91912
G1 X72.141 Y77.34 E18.92661
G1 X72.141 Y82.268 E19.13149
G1 X71.667 Y82.227 E19.15127
G1 X70.858 Y82.01 E19.1861
G1 X70.104 Y81.658 E19.22069
G1 X69.406 Y81.169 E19.25612
G1 X68.831 Y80.594 E19.28993
G1 X68.342 Y79.896 E19.32536
G1 X67.99 Y79.142 E19.35996
G1 X67.774 Y78.334 E19.39473
G1 X67.701 Y77.5 E19.42954
G1 X67.774 Y76.666 E19.46434
G1 X67.99 Y75.858 E19.49912
G1 X68.342 Y75.104 E19.53371
G1 X68.831 Y74.406 E19.56914
G1 X69.406 Y73.831 E19.60295
G0 F3000 X69.668 Y74.135
G1 F600 X70.299 Y73.693 E19.63498
G1 X70.995 Y73.368 E19.66692
G1 X71.735 Y73.17 E19.69877
G1 X72.5 Y73.104 E19.73069
G1 X73.265 Y73.17 E19.76261
G1 X74.005 Y73.368 E19.79446
G1 X74.701 Y73.693 E19.82639
G1 X75.332 Y74.135 E19.85842
G1 X75.865 Y74.668 E19.88976
G1 X76.307 Y75.299 E19.92179
G1 X76.632 Y75.995 E19.95373
G1 X76.83 Y76.735 E19.98558
G1 X76.83 Y76.74 E19.98578
G1 X72.341 Y76.74 E20.17242
G1 X72.126 Y76.78 E20.18151
G1 X71.94 Y76.893 E20.19056
G1 X71.807 Y77.066 E20.19963
G1 X71.741 Y77.34 E20.21135
G1 X71.741 Y81.831 E20.39806
G1 X71.732 Y81.83 E20.39844
G1 X70.999 Y81.634 E20.42998
G1 X70.299 Y81.307 E20.4621
G1 X69.668 Y80.865 E20.49413
G1 X69.135 Y80.332 E20.52547
G1 X68.693 Y79.701 E20.5575
G1 X68.368 Y79.005 E20.58944
G1 X68.17 Y78.265 E20.62128
G1 X68.104 Y77.5 E20.65321
G1 X68.17 Y76.735 E20.68513
G1 X68.368 Y75.995 E20.71698
G1 X68.693 Y75.299 E20.74891
G1 X69.135 Y74.668 E20.78094
G1 X69.668 Y74.135 E20.81228
G0 F3000 X69.925 Y74.444
G1 F600 X70.505 Y74.038 E20.84172
G1 X71.132 Y73.745 E20.87049
G1 X71.804 Y73.565 E20.89941
G1 X72.5 Y73.505 E20.92846
G1 X73.196 Y73.565 E20.9575
G1 X73.868 Y73.745 E20.98642
G1 X74.495 Y74.038 E21.0152
G1 X75.075 Y74.444 E21.04463
G1 X75.556 Y74.925 E21.07291
G1 X75.962 Y75.505 E21.10235
G1 X76.255 Y76.132 E21.13112
G1 X76.31 Y76.34 E21.14006
G1 X72.341 Y76.34 E21.30508
G1 X72.062 Y76.38 E21.31679
G1 X71.805 Y76.496 E21.32852
G1 X71.59 Y76.679 E21.34026
G1 X71.436 Y76.915 E21.35197
G1 X71.353 Y77.185 E21.36372
G1 X71.341 Y77.34 E21.37018
G1 X71.341 Y81.311 E21.53527
G1 X71.131 Y81.254 E21.54432
G1 X70.505 Y80.962 E21.57304
G1 X69.925 Y80.556 E21.60247
G1 X69.444 Y80.075 E21.63075
G1 X69.038 Y79.495 E21.66019
G1 X68.745 Y78.868 E21.68896
G1 X68.565 Y78.196 E21.71789
G1 X68.505 Y77.5 E21.74693
G1 X68.565 Y76.804 E21.77597
G1 X68.745 Y76.132 E21.8049
G1 X69.038 Y75.505 E21.83367
G1 X69.444 Y74.925 E21.8631
G1 X69.925 Y74.444 E21.89138
G0 F3000 X70.184 Y74.751
G1 F600 X70.704 Y74.387 E21.91777
G1 X71.273 Y74.121 E21.94389
G1 X71.87 Y73.962 E21.96957
G1 X72.5 Y73.907 E21.99587
G1 X73.13 Y73.962 E22.02216
G1 X73.727 Y74.121 E22.04784
G1 X74.296 Y74.387 E22.07396
G1 X74.816 Y74.751 E22.10035
G1 X75.249 Y75.184 E22.1258
G1 X75.613 Y75.704 E22.15219
G1 X75.723 Y75.94 E22.16302
G1 X72.341 Y75.94 E22.30363
G1 X72.009 Y75.98 E22.31753
G1 X71.697 Y76.097 E22.33138
G1 X71.42 Y76.285 E22.3453
G1 X71.197 Y76.533 E22.35917
G1 X71.038 Y76.827 E22.37306
G1 X70.954 Y77.151 E22.38698
G1 X70.941 Y77.34 E22.39486
G1 X70.941 Y80.724 E22.53555
G1 X70.704 Y80.613 E22.54643
G1 X70.184 Y80.249 E22.57282
G1 X69.751 Y79.816 E22.59827
G1 X69.387 Y79.296 E22.62466
G1 X69.121 Y78.727 E22.65078
G1 X68.962 Y78.13 E22.67646
G1 X68.907 Y77.5 E22.70276
G1 X68.962 Y76.87 E22.72905
G1 X69.121 Y76.273 E22.75473
G1 X69.387 Y75.704 E22.78085
G1 X69.751 Y75.184 E22.80724
G1 X70.184 Y74.751 E22.83269
G0 F3000 X70.444 Y75.057
G1 F600 X70.906 Y74.733 E22.85615
G1 X71.405 Y74.501 E22.87903
G1 X71.945 Y74.356 E22.90228
G1 X72.5 Y74.308 E22.92544
G1 X73.055 Y74.356 E22.9486
G1 X73.595 Y74.501 E22.97185
G1 X74.094 Y74.733 E22.99472
G1 X74.556 Y75.057 E23.01818
G1 X74.943 Y75.444 E23.04094
G1 X75.01 Y75.54 E23.04581
G1 X72.341 Y75.54 E23.15677
G1 X71.964 Y75.58 E23.17253
G1 X71.604 Y75.698 E23.18828
G1 X71.277 Y75.888 E23.20401
G1 X70.996 Y76.143 E23.21978
G1 X70.776 Y76.452 E23.23555
G1 X70.624 Y76.799 E23.2513
G1 X70.541 Y77.34 E23.27406
G1 X70.541 Y80.011 E23.3851
G1 X70.444 Y79.943 E23.39003
G1 X70.057 Y79.556 E23.41278
G1 X69.733 Y79.094 E23.43624
G1 X69.501 Y78.595 E23.45912
G1 X69.356 Y78.055 E23.48237
G1 X69.308 Y77.5 E23.50553
G1 X69.356 Y76.945 E23.52869
G1 X69.501 Y76.405 E23.55194
G1 X69.733 Y75.906 E23.57481
G1 X70.057 Y75.444 E23.59827
G1 X70.444 Y75.057 E23.62103
G0 F3000 X70.703 Y75.364
G1 F600 X71.105 Y75.082 E23.64144
G1 X71.546 Y74.877 E23.66166
G1 X72.01 Y74.752 E23.68164
G1 X72.5 Y74.71 E23.70209
G1 X72.99 Y74.752 E23.72253
G1 X73.454 Y74.877 E23.74251
G1 X73.895 Y75.082 E23.76273
G1 X73.977 Y75.14 E23.76691
G1 X72.341 Y75.14 E23.83492
G1 X71.924 Y75.18 E23.85234
G1 X71.522 Y75.298 E23.86976
G1 X71.15 Y75.491 E23.88718
G1 X70.821 Y75.75 E23.90459
G1 X70.547 Y76.067 E23.92201
G1 X70.338 Y76.43 E23.93943
G1 X70.202 Y76.827 E23.95687
G1 X70.141 Y77.34 E23.97835
G1 X70.141 Y78.979 E24.04649
G1 X70.082 Y78.895 E24.05076
G1 X69.877 Y78.454 E24.07098
G1 X69.752 Y77.99 E24.09096
G1 X69.71 Y77.5 E24.1114
G1 X69.752 Y77.01 E24.13185
G1 X69.877 Y76.546 E24.15183
G1 X70.082 Y76.105 E24.17205
G1 X70.364 Y75.703 E24.19246
G1 X70.703 Y75.364 E24.2124
G1 F3000 E17.7124
G0 X71.836 Y152.732
G0 X72.141 Y152.732
G1 F3000 E24.2124
G1 F600 X72.141 Y157.66 E24.41728
G1 X72.18 Y157.779 E24.42248
G1 X72.341 Y157.86 E24.42998
G1 X77.268 Y157.86 E24.63482
G1 X77.226 Y158.335 E24.65464
G1 X77.01 Y159.142 E24.68938
G1 X76.658 Y159.896 E24.72397
G1 X76.169 Y160.594 E24.7594
G1 X75.594 Y161.169 E24.79321
G1 X74.896 Y161.658 E24.82864
G1 X74.142 Y162.01 E24.86324
G1 X73.334 Y162.226 E24.89801
G1 X72.5 Y162.299 E24.93282
G1 X71.666 Y162.226 E24.96762
G1 X70.858 Y162.01 E25.0024
G1 X70.104 Y161.658 E25.03699
G1 X69.406 Y161.169 E25.07242
G1 X68.831 Y160.594 E25.10623
G1 X68.342 Y159.896 E25.14166
G1 X67.99 Y159.142 E25.17626
G1 X67.774 Y158.334 E25.21103
G1 X67.701 Y157.5 E25.24584
G1 X67.774 Y156.666 E25.28064
G1 X67.99 Y155.858 E25.31542
G1 X68.342 Y155.104 E25.35001
G1 X68.831 Y154.406 E25.38544
G1 X69.406 Y153.831 E25.41925
G1 X70.104 Y153.342 E25.45468
G1 X70.858 Y152.99 E25.48928
G1 X71.667 Y152.773 E25.5241
G1 X72.141 Y152.732 E25.54388
G0 F3000 X71.741 Y153.169
G1 F600 X71.741 Y157.66 E25.7306
G1 X71.781 Y157.875 E25.73969
G1 X71.894 Y158.061 E25.74874
G1 X72.067 Y158.194 E25.75781
G1 X72.341 Y158.26 E25.76953
G1 X76.83 Y158.26 E25.95616
G1 X76.83 Y158.265 E25.95637
G1 X76.632 Y159.005 E25.98821
G1 X76.307 Y159.701 E26.02015
G1 X75.865 Y160.332 E26.05218
G1 X75.332 Y160.865 E26.08352
G1 X74.701 Y161.307 E26.11555
G1 X74.005 Y161.632 E26.14748
G1 X73.265 Y161.83 E26.17933
G1 X72.5 Y161.896 E26.21125
G1 X71.735 Y161.83 E26.24318
G1 X70.995 Y161.632 E26.27503
G1 X70.299 Y161.307 E26.30696
G1 X69.668 Y160.865 E26.33899
G1 X69.135 Y160.332 E26.37033
G1 X68.693 Y159.701 E26.40236
G1 X68.368 Y159.005 E26.43429
G1 X68.17 Y158.265 E26.46614
G1 X68.104 Y157.5 E26.49807
