;FLAVOR:Marlin
;TIME:5883
;Filament used: 3.83178m
;Layer height: 0.2
;MINX:84.826
;MINY:96.153
;MINZ:0.25
;MAXX:154.426
;MAXY:165.752
;MAXZ:25.05
;Generated with Cura_SteamEngine 5.3.0
M140 S85
M105
M190 S85
M104 S240
M105
M109 S240
M82 ;absolute extrusion mode
START_PRINT
G92 E0
G92 E0
G1 F1500 E-8
;LAYER_COUNT:125
;LAYER:0
M107
G0 F6000 X97.556 Y107.366 Z0.25
;TYPE:SKIRT
G1 F1500 E0
G1 F1200 X98.302 Y106.693 E0.04177
G1 X99.072 Y106.037 E0.08383
G1 X99.867 Y105.399 E0.12621
G1 X100.686 Y104.786 E0.16874
G1 X101.51 Y104.212 E0.21049
G1 X102.363 Y103.653 E0.25289
G1 X103.224 Y103.129 E0.29479
G1 X104.102 Y102.628 E0.33682
G1 X105.016 Y102.143 E0.37984
G1 X105.914 Y101.71 E0.42129
G1 X106.848 Y101.286 E0.46393
G1 X107.774 Y100.905 E0.50556
G1 X108.738 Y100.54 E0.54842
G1 X109.688 Y100.22 E0.59009
G1 X110.664 Y99.92 E0.63254
G1 X111.639 Y99.655 E0.67455
G1 X112.632 Y99.417 E0.717
G1 X113.617 Y99.216 E0.7588
G1 X114.619 Y99.041 E0.80109
G1 X115.628 Y98.897 E0.84346
G1 X116.636 Y98.788 E0.88562
G1 X117.649 Y98.709 E0.92786
G1 X118.66 Y98.665 E0.96993
G1 X119.671 Y98.651 E1.01197
G1 X120.696 Y98.667 E1.05459
G1 X121.699 Y98.717 E1.09634
G1 X122.722 Y98.799 E1.13901
G1 X123.724 Y98.912 E1.18093
G1 X124.721 Y99.057 E1.22282
G1 X125.729 Y99.232 E1.26535
G1 X126.716 Y99.439 E1.30728
G1 X127.715 Y99.679 E1.34999
G1 X128.673 Y99.945 E1.39133
G1 X129.656 Y100.249 E1.43411
G1 X130.61 Y100.578 E1.47606
G1 X131.569 Y100.94 E1.51868
G1 X132.497 Y101.327 E1.56048
G1 X133.422 Y101.746 E1.6027
G1 X134.339 Y102.195 E1.64515
G1 X135.228 Y102.67 E1.68705
G1 X136.117 Y103.177 E1.7296
G1 X136.969 Y103.703 E1.77123
G1 X137.822 Y104.264 E1.81368
G1 X138.657 Y104.852 E1.85614
G1 X139.46 Y105.458 E1.89796
G1 X140.256 Y106.095 E1.94035
G1 X141.021 Y106.753 E1.9823
G1 X141.768 Y107.434 E2.02432
G1 X142.506 Y108.148 E2.06702
G1 X143.202 Y108.871 E2.10874
G1 X143.882 Y109.618 E2.15074
G1 X144.53 Y110.383 E2.19242
G1 X145.175 Y111.187 E2.23527
G1 X145.781 Y111.994 E2.27723
G1 X146.366 Y112.832 E2.31972
G1 X146.932 Y113.695 E2.36263
G1 X147.449 Y114.552 E2.40424
G1 X147.949 Y115.428 E2.44617
G1 X148.427 Y116.329 E2.48858
G1 X148.876 Y117.243 E2.53091
G1 X149.293 Y118.174 E2.57333
G1 X149.674 Y119.106 E2.61519
G1 X150.029 Y120.052 E2.65719
G1 X150.358 Y121.013 E2.69942
G1 X150.659 Y121.988 E2.74185
G1 X150.924 Y122.965 E2.78394
G1 X151.162 Y123.959 E2.82643
G1 X151.362 Y124.942 E2.86813
G1 X151.537 Y125.947 E2.91055
G1 X151.68 Y126.952 E2.95275
G1 X151.789 Y127.954 E2.99465
G1 X151.87 Y128.976 E3.03728
G1 X151.913 Y129.986 E3.07931
G1 X151.927 Y130.997 E3.12134
G1 X151.911 Y132.021 E3.16392
G1 X151.861 Y133.024 E3.20567
G1 X151.779 Y134.047 E3.24834
G1 X151.666 Y135.05 E3.2903
G1 X151.521 Y136.05 E3.33231
G1 X151.344 Y137.057 E3.37482
G1 X151.138 Y138.041 E3.41662
G1 X150.898 Y139.039 E3.45929
G1 X150.632 Y139.998 E3.50067
G1 X150.328 Y140.981 E3.54345
G1 X150 Y141.933 E3.58531
G1 X149.638 Y142.895 E3.62804
G1 X149.249 Y143.824 E3.66992
G1 X148.831 Y144.747 E3.71204
G1 X148.386 Y145.656 E3.75412
G1 X147.916 Y146.543 E3.79585
G1 X147.399 Y147.443 E3.83901
G1 X146.874 Y148.294 E3.88058
G1 X146.313 Y149.147 E3.92302
G1 X145.731 Y149.973 E3.96503
G1 X145.114 Y150.793 E4.0077
G1 X144.487 Y151.571 E4.04924
G1 X143.819 Y152.354 E4.09203
G1 X143.14 Y153.093 E4.13375
G1 X142.432 Y153.824 E4.17606
G1 X141.703 Y154.531 E4.21828
G1 X140.952 Y155.211 E4.2604
G1 X140.177 Y155.872 E4.30275
G1 X139.393 Y156.496 E4.34441
G1 X138.569 Y157.118 E4.38733
G1 X137.745 Y157.692 E4.42908
G1 X136.893 Y158.25 E4.47143
G1 X136.02 Y158.783 E4.51395
G1 X135.154 Y159.273 E4.55532
G1 X134.242 Y159.76 E4.5983
G1 X133.334 Y160.201 E4.64027
G1 X132.419 Y160.612 E4.68197
G1 X131.471 Y161 E4.72456
G1 X130.525 Y161.355 E4.76657
G1 X129.564 Y161.684 E4.8088
G1 X128.588 Y161.984 E4.85125
G1 X127.613 Y162.249 E4.89326
G1 X126.62 Y162.487 E4.93571
G1 X125.635 Y162.688 E4.97751
G1 X124.637 Y162.862 E5.01962
G1 X123.622 Y163.007 E5.06225
G1 X122.624 Y163.114 E5.10398
G1 X121.609 Y163.195 E5.14631
G1 X120.67 Y163.239 E5.18539
G1 X119.583 Y163.252 E5.23059
G1 X118.556 Y163.237 E5.27329
G1 X117.551 Y163.187 E5.31513
G1 X116.531 Y163.103 E5.35768
G1 X115.535 Y162.991 E5.39935
G1 X114.524 Y162.847 E5.4418
G1 X113.528 Y162.673 E5.48384
G1 X112.534 Y162.465 E5.52606
G1 X111.537 Y162.223 E5.56871
G1 X110.57 Y161.954 E5.61044
G1 X109.605 Y161.658 E5.65241
G1 X108.632 Y161.326 E5.69515
G1 X107.7 Y160.969 E5.73665
G1 X106.75 Y160.573 E5.77944
G1 X105.834 Y160.158 E5.82125
G1 X104.913 Y159.708 E5.86386
G1 X104.025 Y159.233 E5.90573
G1 X103.142 Y158.73 E5.94798
G1 X102.28 Y158.199 E5.99007
G1 X101.433 Y157.644 E6.03217
G1 X100.625 Y157.077 E6.07321
G1 X99.8 Y156.45 E6.11629
G1 X98.994 Y155.807 E6.15916
G1 X98.226 Y155.146 E6.20129
G1 X97.478 Y154.462 E6.24343
G1 X96.755 Y153.757 E6.28541
G1 X96.047 Y153.027 E6.32769
G1 X95.367 Y152.278 E6.36975
G1 X94.71 Y151.508 E6.41183
G1 X94.093 Y150.74 E6.45279
G1 X93.469 Y149.902 E6.49623
G1 X92.887 Y149.075 E6.53827
G1 X92.327 Y148.216 E6.5809
G1 X91.803 Y147.356 E6.62277
G1 X91.294 Y146.465 E6.66543
G1 X90.826 Y145.571 E6.70739
G1 X90.384 Y144.665 E6.7493
G1 X89.959 Y143.729 E6.79203
G1 X89.578 Y142.797 E6.83389
G1 X89.223 Y141.85 E6.87594
G1 X88.893 Y140.886 E6.9183
G1 X88.594 Y139.914 E6.96058
G1 X88.329 Y138.94 E7.00255
G1 X88.091 Y137.948 E7.04496
G1 X87.889 Y136.959 E7.08693
G1 X87.715 Y135.956 E7.12925
G1 X87.572 Y134.95 E7.1715
G1 X87.463 Y133.944 E7.21357
G1 X87.383 Y132.929 E7.2559
G1 X87.339 Y131.912 E7.29822
G1 X87.326 Y130.909 E7.33992
G1 X87.341 Y129.882 E7.38262
G1 X87.391 Y128.876 E7.4245
G1 X87.475 Y127.856 E7.46705
G1 X87.587 Y126.86 E7.50872
G1 X87.731 Y125.853 E7.55101
G1 X87.908 Y124.846 E7.59352
G1 X88.114 Y123.862 E7.63532
G1 X88.352 Y122.87 E7.67773
G1 X88.623 Y121.891 E7.71996
G1 X88.92 Y120.93 E7.76178
G1 X89.252 Y119.96 E7.80441
G1 X89.612 Y119.015 E7.84645
G1 X90.004 Y118.077 E7.88871
G1 X90.421 Y117.156 E7.93075
G1 X90.865 Y116.25 E7.97269
G1 X91.345 Y115.344 E8.01532
G1 X91.849 Y114.465 E8.05745
G1 X92.38 Y113.604 E8.0995
G1 X92.939 Y112.756 E8.14173
G1 X93.521 Y111.93 E8.18374
G1 X94.138 Y111.11 E8.2264
G1 X94.764 Y110.333 E8.26789
G1 X95.431 Y109.549 E8.31068
G1 X96.095 Y108.821 E8.35165
G1 X96.819 Y108.081 E8.39469
G1 X97.556 Y107.366 E8.43738
G0 F6000 X97.824 Y107.663
G1 F1200 X98.562 Y106.997 E8.47871
G1 X99.322 Y106.349 E8.52023
G1 X100.107 Y105.719 E8.56208
G1 X100.914 Y105.114 E8.60401
G1 X101.729 Y104.547 E8.64529
G1 X102.571 Y103.995 E8.68715
G1 X103.422 Y103.476 E8.72859
G1 X104.289 Y102.981 E8.7701
G1 X105.19 Y102.503 E8.8125
G1 X106.079 Y102.074 E8.85354
G1 X107 Y101.656 E8.89559
G1 X107.916 Y101.279 E8.93677
G1 X108.866 Y100.919 E8.97901
G1 X109.806 Y100.602 E9.02025
G1 X110.769 Y100.306 E9.06214
G1 X111.732 Y100.044 E9.10363
G1 X112.712 Y99.809 E9.14553
G1 X113.686 Y99.61 E9.18686
G1 X114.676 Y99.437 E9.22864
G1 X115.671 Y99.295 E9.27043
G1 X116.667 Y99.187 E9.31208
G1 X117.667 Y99.109 E9.35378
G1 X118.666 Y99.065 E9.39535
G1 X119.665 Y99.051 E9.43689
G1 X120.676 Y99.067 E9.47893
G1 X121.667 Y99.116 E9.52018
G1 X122.677 Y99.197 E9.56231
G1 X123.667 Y99.308 E9.60372
G1 X124.653 Y99.451 E9.64515
G1 X125.647 Y99.623 E9.68709
G1 X126.623 Y99.828 E9.72855
G1 X127.608 Y100.064 E9.77066
G1 X128.555 Y100.327 E9.81152
G1 X129.526 Y100.627 E9.85377
G1 X130.469 Y100.952 E9.89524
G1 X131.415 Y101.309 E9.93728
G1 X132.332 Y101.691 E9.97858
G1 X133.246 Y102.105 E10.0203
G1 X134.151 Y102.548 E10.06219
G1 X135.03 Y103.017 E10.10361
G1 X135.907 Y103.518 E10.1456
G1 X136.749 Y104.037 E10.18672
G1 X137.592 Y104.591 E10.22866
G1 X138.416 Y105.171 E10.27055
G1 X139.21 Y105.771 E10.31193
G1 X139.995 Y106.398 E10.3537
G1 X140.752 Y107.049 E10.39521
G1 X141.49 Y107.721 E10.43671
G1 X142.218 Y108.426 E10.47884
G1 X142.906 Y109.14 E10.52006
G1 X143.577 Y109.877 E10.5615
G1 X144.218 Y110.633 E10.60271
G1 X144.855 Y111.427 E10.64503
G1 X145.453 Y112.223 E10.68642
G1 X146.032 Y113.052 E10.72846
G1 X146.59 Y113.902 E10.77073
G1 X147.102 Y114.75 E10.81192
G1 X147.596 Y115.615 E10.85333
G1 X148.068 Y116.505 E10.89522
G1 X148.511 Y117.407 E10.93699
G1 X148.923 Y118.325 E10.97883
G1 X149.3 Y119.247 E11.02024
G1 X149.651 Y120.181 E11.06172
G1 X149.976 Y121.131 E11.10347
G1 X150.273 Y122.093 E11.14533
G1 X150.535 Y123.058 E11.1869
G1 X150.77 Y124.039 E11.22884
G1 X150.968 Y125.011 E11.27008
G1 X151.141 Y126.003 E11.31194
G1 X151.282 Y126.995 E11.3536
G1 X151.39 Y127.986 E11.39505
G1 X151.47 Y128.993 E11.43704
G1 X151.513 Y129.992 E11.47862
G1 X151.527 Y130.991 E11.52015
G1 X151.511 Y132.001 E11.56215
G1 X151.462 Y132.992 E11.6034
G1 X151.381 Y134.002 E11.64553
G1 X151.27 Y134.993 E11.68699
G1 X151.127 Y135.981 E11.72849
G1 X150.953 Y136.975 E11.77044
G1 X150.749 Y137.948 E11.81178
G1 X150.513 Y138.932 E11.85385
G1 X150.25 Y139.88 E11.89475
G1 X149.95 Y140.851 E11.937
G1 X149.626 Y141.792 E11.97838
G1 X149.269 Y142.741 E12.02053
G1 X148.885 Y143.659 E12.0619
G1 X148.472 Y144.571 E12.10352
G1 X148.032 Y145.469 E12.1451
G1 X147.569 Y146.344 E12.18626
G1 X147.059 Y147.233 E12.22887
G1 X146.54 Y148.074 E12.26995
G1 X145.986 Y148.917 E12.31189
G1 X145.411 Y149.733 E12.35339
G1 X144.803 Y150.542 E12.39547
G1 X144.183 Y151.311 E12.43654
G1 X143.524 Y152.084 E12.47877
G1 X142.853 Y152.815 E12.52002
G1 X142.154 Y153.537 E12.5618
G1 X141.434 Y154.235 E12.60349
G1 X140.693 Y154.907 E12.64508
G1 X139.928 Y155.559 E12.68687
G1 X139.152 Y156.177 E12.72812
G1 X138.34 Y156.79 E12.77041
G1 X137.526 Y157.357 E12.81166
G1 X136.684 Y157.909 E12.85352
G1 X135.823 Y158.435 E12.89546
G1 X134.966 Y158.92 E12.9364
G1 X134.067 Y159.4 E12.97877
G1 X133.17 Y159.836 E13.02024
G1 X132.267 Y160.242 E13.0614
G1 X131.33 Y160.626 E13.1035
G1 X130.396 Y160.977 E13.14498
G1 X129.446 Y161.302 E13.18673
G1 X128.483 Y161.598 E13.22861
G1 X127.52 Y161.86 E13.2701
G1 X126.54 Y162.095 E13.312
G1 X125.566 Y162.294 E13.35333
G1 X124.58 Y162.466 E13.39495
G1 X123.579 Y162.609 E13.43699
G1 X122.592 Y162.715 E13.47826
G1 X121.59 Y162.795 E13.52005
G1 X120.651 Y162.839 E13.55913
G1 X119.589 Y162.852 E13.60329
G1 X118.576 Y162.838 E13.6454
G1 X117.583 Y162.788 E13.68674
G1 X116.576 Y162.706 E13.72875
G1 X115.591 Y162.595 E13.76996
G1 X114.593 Y162.453 E13.81187
G1 X113.61 Y162.281 E13.85336
G1 X112.628 Y162.076 E13.89506
G1 X111.644 Y161.838 E13.93715
G1 X110.687 Y161.572 E13.97845
G1 X109.734 Y161.28 E14.01989
G1 X108.775 Y160.952 E14.06203
G1 X107.854 Y160.6 E14.10302
G1 X106.915 Y160.209 E14.14531
G1 X106.01 Y159.799 E14.18661
G1 X105.102 Y159.355 E14.22863
G1 X104.223 Y158.885 E14.27008
G1 X103.352 Y158.389 E14.31175
G1 X102.499 Y157.864 E14.35339
G1 X101.663 Y157.316 E14.39495
G1 X100.867 Y156.758 E14.43536
G1 X100.049 Y156.137 E14.47806
G1 X99.255 Y155.504 E14.52028
G1 X98.496 Y154.851 E14.56191
G1 X97.757 Y154.176 E14.60352
G1 X97.042 Y153.479 E14.64503
G1 X96.343 Y152.758 E14.68678
G1 X95.671 Y152.018 E14.72834
G1 X95.022 Y151.258 E14.76989
G1 X94.414 Y150.501 E14.81026
G1 X93.796 Y149.671 E14.85328
G1 X93.222 Y148.857 E14.89469
G1 X92.669 Y148.008 E14.93681
G1 X92.15 Y147.157 E14.97825
G1 X91.648 Y146.279 E15.0203
G1 X91.185 Y145.395 E15.06179
G1 X90.748 Y144.5 E15.1032
G1 X90.329 Y143.578 E15.1453
G1 X89.952 Y142.656 E15.18672
G1 X89.601 Y141.721 E15.22824
G1 X89.275 Y140.768 E15.27011
G1 X88.98 Y139.809 E15.31183
G1 X88.718 Y138.847 E15.35328
G1 X88.483 Y137.868 E15.39514
G1 X88.283 Y136.891 E15.4366
G1 X88.111 Y135.9 E15.47842
G1 X87.97 Y134.907 E15.52012
G1 X87.862 Y133.913 E15.56168
G1 X87.783 Y132.911 E15.60347
G1 X87.739 Y131.907 E15.64525
G1 X87.726 Y130.915 E15.6865
G1 X87.74 Y129.902 E15.72862
G1 X87.79 Y128.908 E15.77
G1 X87.872 Y127.901 E15.812
G1 X87.983 Y126.917 E15.85317
G1 X88.125 Y125.922 E15.89496
G1 X88.299 Y124.928 E15.93691
G1 X88.503 Y123.955 E15.97824
G1 X88.737 Y122.977 E16.02005
G1 X89.005 Y122.009 E16.06181
G1 X89.299 Y121.059 E16.10316
G1 X89.626 Y120.102 E16.1452
G1 X89.981 Y119.169 E16.1867
G1 X90.368 Y118.242 E16.22847
G1 X90.78 Y117.332 E16.27
G1 X91.218 Y116.437 E16.31142
G1 X91.692 Y115.543 E16.35349
G1 X92.189 Y114.675 E16.39508
G1 X92.714 Y113.824 E16.43665
G1 X93.266 Y112.986 E16.47837
G1 X93.841 Y112.17 E16.51987
G1 X94.449 Y111.361 E16.56195
G1 X95.069 Y110.592 E16.60301
G1 X95.727 Y109.819 E16.64522
G1 X96.391 Y109.091 E16.68618
G1 X97.097 Y108.368 E16.7282
G1 X97.824 Y107.663 E16.7703
G0 F6000 X98.092 Y107.96
G1 F1200 X98.821 Y107.301 E16.81116
G1 X99.572 Y106.661 E16.85218
G1 X100.347 Y106.039 E16.89349
G1 X101.143 Y105.442 E16.93486
G1 X101.948 Y104.881 E16.97565
G1 X102.779 Y104.336 E17.01697
G1 X103.62 Y103.823 E17.05793
G1 X104.476 Y103.334 E17.09891
G1 X105.364 Y102.863 E17.1407
G1 X106.244 Y102.438 E17.18133
G1 X107.152 Y102.026 E17.22279
G1 X108.058 Y101.653 E17.26352
G1 X108.994 Y101.298 E17.30514
G1 X109.924 Y100.984 E17.34595
G1 X110.874 Y100.692 E17.38727
G1 X111.825 Y100.433 E17.42825
G1 X112.792 Y100.201 E17.46959
G1 X113.755 Y100.004 E17.51046
G1 X114.733 Y99.833 E17.55174
G1 X115.714 Y99.693 E17.59293
G1 X116.698 Y99.586 E17.63408
G1 X117.685 Y99.509 E17.67524
G1 X118.672 Y99.465 E17.71632
G1 X119.659 Y99.451 E17.75736
G1 X120.656 Y99.466 E17.79881
G1 X121.635 Y99.515 E17.83957
G1 X122.632 Y99.594 E17.88115
G1 X123.61 Y99.704 E17.92206
G1 X124.585 Y99.845 E17.96302
G1 X125.565 Y100.015 E18.00437
G1 X126.53 Y100.217 E18.04536
G1 X127.501 Y100.449 E18.08687
G1 X128.437 Y100.709 E18.12726
G1 X129.396 Y101.005 E18.16898
G1 X130.328 Y101.326 E18.20997
G1 X131.261 Y101.678 E18.25142
G1 X132.167 Y102.055 E18.29222
G1 X133.07 Y102.464 E18.33344
G1 X133.963 Y102.901 E18.37477
G1 X134.832 Y103.364 E18.41571
G1 X135.697 Y103.858 E18.45712
G1 X136.529 Y104.371 E18.49776
G1 X137.362 Y104.918 E18.53919
G1 X138.175 Y105.49 E18.58052
G1 X138.96 Y106.083 E18.62142
G1 X139.734 Y106.702 E18.66262
G1 X140.483 Y107.345 E18.70366
G1 X141.212 Y108.009 E18.74466
G1 X141.93 Y108.703 E18.78618
G1 X142.61 Y109.409 E18.82693
G1 X143.272 Y110.136 E18.86781
G1 X143.906 Y110.883 E18.90854
G1 X144.535 Y111.668 E18.95036
G1 X145.125 Y112.452 E18.99116
G1 X145.698 Y113.271 E19.03271
G1 X146.248 Y114.109 E19.07439
G1 X146.755 Y114.948 E19.11514
G1 X147.243 Y115.803 E19.15607
G1 X147.709 Y116.681 E19.1974
G1 X148.146 Y117.571 E19.23862
G1 X148.553 Y118.477 E19.27991
G1 X148.926 Y119.388 E19.32084
G1 X149.273 Y120.311 E19.36184
G1 X149.594 Y121.249 E19.40305
G1 X149.887 Y122.198 E19.44435
G1 X150.146 Y123.151 E19.4854
G1 X150.378 Y124.119 E19.52679
G1 X150.574 Y125.08 E19.56756
G1 X150.745 Y126.059 E19.60888
G1 X150.884 Y127.038 E19.64999
G1 X150.991 Y128.018 E19.69098
G1 X151.07 Y129.01 E19.73235
G1 X151.113 Y129.998 E19.77347
G1 X151.127 Y130.985 E19.81451
G1 X151.112 Y131.981 E19.85592
G1 X151.063 Y132.96 E19.89667
G1 X150.984 Y133.957 E19.93825
G1 X150.874 Y134.936 E19.97921
G1 X150.733 Y135.912 E20.02021
G1 X150.562 Y136.893 E20.06161
G1 X150.36 Y137.855 E20.10248
G1 X150.128 Y138.825 E20.14394
G1 X149.868 Y139.762 E20.18437
G1 X149.572 Y140.721 E20.2261
G1 X149.252 Y141.651 E20.26699
G1 X148.9 Y142.587 E20.30856
G1 X148.521 Y143.494 E20.34943
G1 X148.113 Y144.395 E20.39055
G1 X147.679 Y145.282 E20.43161
G1 X147.222 Y146.145 E20.47221
G1 X146.719 Y147.023 E20.51427
G1 X146.206 Y147.854 E20.55488
G1 X145.659 Y148.687 E20.59631
G1 X145.091 Y149.493 E20.6373
G1 X144.492 Y150.291 E20.67879
G1 X143.878 Y151.052 E20.71944
G1 X143.229 Y151.814 E20.76105
G1 X142.566 Y152.537 E20.80184
G1 X141.876 Y153.25 E20.84309
G1 X141.165 Y153.939 E20.88425
G1 X140.433 Y154.603 E20.92534
G1 X139.679 Y155.246 E20.96654
G1 X138.911 Y155.858 E21.00736
G1 X138.111 Y156.462 E21.04904
G1 X137.306 Y157.023 E21.08983
G1 X136.476 Y157.568 E21.13111
G1 X135.626 Y158.087 E21.17252
G1 X134.778 Y158.567 E21.21303
G1 X133.892 Y159.04 E21.25479
G1 X133.006 Y159.471 E21.29575
G1 X132.115 Y159.872 E21.33637
G1 X131.189 Y160.252 E21.37799
G1 X130.266 Y160.599 E21.41898
G1 X129.328 Y160.92 E21.4602
G1 X128.378 Y161.212 E21.50152
G1 X127.427 Y161.471 E21.5425
G1 X126.46 Y161.703 E21.58384
G1 X125.497 Y161.9 E21.62471
G1 X124.523 Y162.07 E21.66582
G1 X123.536 Y162.211 E21.70727
