;FLAVOR:Marlin
;TIME:5445
;Filament used: 3.12465m
;Layer height: 0.2
;MINX:98.5
;MINY:99.486
;MINZ:0.25
;MAXX:136.497
;MAXY:137.674
;MAXZ:38.45
;Generated with Cura_SteamEngine 5.3.0
M140 S85
M105
M190 S85
M104 S240
M105
M109 S240
M82 ;absolute extrusion mode
START_PRINT
G92 E0
G92 E0
G1 F1500 E-8
;LAYER_COUNT:192
;LAYER:0
M107
G0 F6000 X101.993 Y100.661 Z0.25
;TYPE:SKIRT
G1 F1500 E0
G1 F1200 X102.297 Y100.42 E0.01613
G1 X103.691 Y99.803 E0.07951
G1 X104.4 Y99.582 E0.11038
G1 X105.258 Y99.486 E0.14628
G1 X106.499 Y99.492 E0.19787
G1 X107.03 Y99.623 E0.22061
G1 X107.297 Y99.742 E0.23276
G1 X107.819 Y100.159 E0.26054
G1 X108.127 Y100.646 E0.2845
G1 X108.334 Y101.164 E0.30769
G1 X108.535 Y101.532 E0.32512
G1 X108.703 Y101.679 E0.3344
G1 X108.85 Y101.884 E0.34489
G1 X108.927 Y102.064 E0.35303
G1 X109.103 Y102.215 E0.36267
G1 X109.269 Y102.424 E0.37377
G1 X109.384 Y102.804 E0.39027
G1 X109.563 Y102.93 E0.39938
G1 X109.749 Y103.121 E0.41046
G1 X109.887 Y103.45 E0.42529
G1 X110.046 Y103.617 E0.43488
G1 X110.264 Y103.951 E0.45146
G1 X110.44 Y104.257 E0.46614
G1 X110.592 Y104.584 E0.48113
G1 X110.649 Y104.897 E0.49436
G1 X110.637 Y105.184 E0.5063
G1 X110.768 Y105.521 E0.52133
G1 X110.757 Y105.948 E0.53909
G1 X110.829 Y106.861 E0.57717
G1 X110.703 Y107.53 E0.60547
G1 X110.698 Y107.795 E0.61649
G1 X110.635 Y108.096 E0.62927
G1 X110.439 Y108.442 E0.64581
G1 X110.287 Y108.861 E0.66434
G1 X110.208 Y109.171 E0.67764
G1 X110.045 Y109.457 E0.69132
G1 X109.947 Y109.78 E0.70536
G1 X109.901 Y110.029 E0.71588
G1 X109.808 Y110.29 E0.7274
G1 X109.746 Y110.632 E0.74185
G1 X109.696 Y110.997 E0.75717
G1 X109.689 Y111.335 E0.77123
G1 X109.731 Y111.747 E0.78844
G1 X109.779 Y112.072 E0.8021
G1 X109.924 Y112.806 E0.83321
G1 X110.036 Y113.2 E0.85024
G1 X110.154 Y113.501 E0.86368
G1 X110.197 Y113.665 E0.87073
G1 X110.364 Y114.072 E0.88902
G1 X110.699 Y114.758 E0.92076
G1 X110.827 Y114.924 E0.92947
G1 X110.97 Y115.172 E0.94137
G1 X111.041 Y115.318 E0.94812
G1 X111.209 Y115.516 E0.95892
G1 X111.337 Y115.737 E0.96954
G1 X111.59 Y116.023 E0.98541
G1 X111.665 Y116.127 E0.99074
G1 X112.011 Y116.507 E1.01211
G1 X112.575 Y117.037 E1.04429
G1 X112.791 Y117.155 E1.05452
G1 X112.989 Y117.309 E1.06495
G1 X113.276 Y117.55 E1.08053
G1 X113.546 Y117.699 E1.09335
G1 X113.715 Y117.844 E1.10261
G1 X113.933 Y117.97 E1.11308
G1 X114.258 Y118.069 E1.1272
G1 X114.527 Y118.247 E1.14061
G1 X114.86 Y118.395 E1.15576
G1 X115.373 Y118.522 E1.17773
G1 X115.675 Y118.642 E1.19124
G1 X115.989 Y118.697 E1.2045
G1 X116.296 Y118.817 E1.2182
G1 X116.858 Y118.863 E1.24165
G1 X117.19 Y118.983 E1.25632
G1 X117.452 Y119.001 E1.26724
G1 X117.791 Y118.982 E1.28136
G1 X118.101 Y118.869 E1.29507
G1 X118.73 Y118.809 E1.32134
G1 X119.068 Y118.676 E1.33645
G1 X119.434 Y118.624 E1.35181
G1 X119.702 Y118.504 E1.36402
G1 X120.016 Y118.431 E1.37743
G1 X120.268 Y118.292 E1.38939
G1 X120.513 Y118.217 E1.40004
G1 X120.939 Y118.008 E1.41977
G1 X121.166 Y117.856 E1.43113
G1 X121.43 Y117.751 E1.44294
G1 X121.659 Y117.598 E1.45439
G1 X121.797 Y117.465 E1.46236
G1 X122.203 Y117.158 E1.48352
G1 X122.363 Y117.068 E1.49115
G1 X122.916 Y116.553 E1.52257
G1 X123.191 Y116.349 E1.53681
G1 X123.605 Y115.749 E1.56711
G1 X123.846 Y115.454 E1.58295
G1 X123.992 Y115.29 E1.59208
G1 X124.346 Y114.623 E1.62347
G1 X124.505 Y114.261 E1.63991
G1 X124.626 Y114.047 E1.65013
G1 X124.919 Y113.258 E1.68512
G1 X125.011 Y112.959 E1.69813
G1 X125.11 Y112.57 E1.71482
G1 X125.265 Y111.844 E1.74568
G1 X125.311 Y111.371 E1.76544
G1 X125.288 Y110.902 E1.78496
G1 X125.223 Y110.493 E1.80218
G1 X125.135 Y110.068 E1.82022
G1 X124.942 Y109.431 E1.8479
G1 X124.82 Y109.184 E1.85935
G1 X124.737 Y108.842 E1.87398
G1 X124.579 Y108.495 E1.88983
G1 X124.526 Y108.17 E1.90352
G1 X124.433 Y107.828 E1.91826
G1 X124.298 Y107.576 E1.93014
G1 X124.225 Y107.261 E1.94359
G1 X124.225 Y106.473 E1.97635
G1 X124.237 Y106.332 E1.98223
G1 X124.234 Y105.626 E2.01158
G1 X124.333 Y105.265 E2.02715
G1 X124.299 Y104.983 E2.03896
G1 X124.347 Y104.585 E2.05562
G1 X124.507 Y104.292 E2.0695
G1 X124.652 Y104.119 E2.07889
G1 X124.74 Y103.933 E2.08744
G1 X124.921 Y103.686 E2.10017
G1 X125.156 Y103.485 E2.11303
G1 X125.283 Y103.056 E2.13163
G1 X125.592 Y102.676 E2.15199
G1 X125.839 Y102.5 E2.1646
G1 X126.095 Y102.135 E2.18314
G1 X126.257 Y101.806 E2.19838
G1 X126.477 Y101.188 E2.22566
G1 X126.744 Y100.776 E2.24607
G1 X127.268 Y100.359 E2.27391
G1 X127.522 Y100.241 E2.28555
G1 X128.385 Y100.012 E2.32267
G1 X129.033 Y99.92 E2.34989
G1 X129.529 Y99.903 E2.37052
G1 X130.343 Y99.984 E2.40453
G1 X131.016 Y100.158 E2.43343
G1 X131.669 Y100.433 E2.46289
G1 X132.129 Y100.707 E2.48515
G1 X132.809 Y101.268 E2.5218
G1 X133.455 Y101.989 E2.56204
G1 X133.885 Y102.862 E2.6025
G1 X134.303 Y103.983 E2.65224
G1 X134.349 Y104.556 E2.67614
G1 X134.207 Y105.159 E2.7019
G1 X133.975 Y105.478 E2.7183
G1 X133.731 Y105.866 E2.73735
G1 X133.544 Y106.206 E2.75349
G1 X133.408 Y106.56 E2.76925
G1 X133.21 Y106.823 E2.78294
G1 X132.993 Y107.219 E2.80171
G1 X132.922 Y107.566 E2.81644
G1 X132.816 Y107.765 E2.82581
G1 X132.753 Y108.028 E2.83706
G1 X132.586 Y108.437 E2.85542
G1 X132.463 Y108.648 E2.86558
G1 X132.382 Y108.94 E2.87818
G1 X132.113 Y109.333 E2.89798
G1 X132.07 Y109.611 E2.90967
G1 X131.926 Y109.927 E2.92411
G1 X131.848 Y110.26 E2.93833
G1 X131.721 Y110.478 E2.94882
G1 X131.661 Y110.874 E2.96547
G1 X131.65 Y111.438 E2.98892
G1 X131.747 Y113.467 E3.07337
G1 X131.678 Y113.819 E3.08829
G1 X131.62 Y113.984 E3.09556
G1 X131.599 Y114.447 E3.11483
G1 X131.598 Y115.022 E3.13873
G1 X131.517 Y115.355 E3.15298
G1 X131.41 Y115.623 E3.16498
G1 X131.409 Y115.878 E3.17558
G1 X131.366 Y116.126 E3.18604
G1 X131.269 Y116.394 E3.19789
G1 X131.27 Y117.1 E3.22725
G1 X131.427 Y120.342 E3.36219
G1 X131.366 Y120.724 E3.37827
G1 X131.288 Y120.937 E3.3877
G1 X131.261 Y121.32 E3.40367
G1 X131.644 Y128.649 E3.70879
G1 X131.58 Y128.988 E3.72313
G1 X131.46 Y129.27 E3.73587
G1 X131.407 Y129.646 E3.75166
G1 X131.399 Y130.18 E3.77386
G1 X131.418 Y130.578 E3.79043
G1 X131.497 Y131.007 E3.80856
G1 X131.618 Y131.293 E3.82147
G1 X131.889 Y131.493 E3.83548
G1 X132.118 Y131.806 E3.8516
G1 X132.309 Y132.332 E3.87487
G1 X132.31 Y135.715 E4.01552
G1 X132.209 Y136.122 E4.03295
G1 X132.012 Y136.5 E4.05067
G1 X131.776 Y136.726 E4.06426
G1 X130.58 Y137.496 E4.12339
G1 X130.113 Y137.674 E4.14417
G1 X120.616 Y137.674 E4.53901
G1 X120.234 Y137.581 E4.55536
G1 X119.884 Y137.399 E4.57176
G1 X119.619 Y137.162 E4.58654
G1 X119.343 Y136.957 E4.60083
G1 X119.098 Y136.65 E4.61716
G1 X119.037 Y136.537 E4.6225
G1 X118.554 Y136.572 E4.64264
G1 X117.865 Y136.596 E4.6713
G1 X117.106 Y136.595 E4.70285
G1 X116.66 Y136.58 E4.72141
G1 X115.966 Y136.542 E4.7503
G1 X115.648 Y136.515 E4.76357
G1 X115.568 Y136.797 E4.77576
G1 X115.4 Y137.12 E4.7909
G1 X115.143 Y137.358 E4.80546
G1 X114.759 Y137.587 E4.82405
G1 X114.321 Y137.674 E4.84261
G1 X105.002 Y137.674 E5.23005
G1 X104.454 Y137.515 E5.25377
G1 X103.264 Y136.759 E5.31239
G1 X102.967 Y136.447 E5.3303
G1 X102.755 Y136.072 E5.34821
G1 X102.692 Y135.751 E5.36181
G1 X102.691 Y132.376 E5.50212
G1 X102.784 Y131.992 E5.51855
G1 X102.943 Y131.686 E5.53289
G1 X103.206 Y131.431 E5.54812
G1 X103.305 Y131.103 E5.56236
G1 X103.342 Y130.851 E5.57295
G1 X103.363 Y130.417 E5.59101
G1 X103.378 Y128.069 E5.68863
G1 X103.495 Y125.765 E5.78455
G1 X103.488 Y125.335 E5.80243
G1 X103.406 Y125.169 E5.81012
G1 X103.333 Y124.814 E5.82519
G1 X103.748 Y116.735 E6.16152
G1 X103.701 Y116.235 E6.1824
G1 X103.586 Y115.898 E6.1972
G1 X103.58 Y115.579 E6.21047
G1 X103.451 Y115.3 E6.22325
G1 X103.394 Y114.956 E6.23775
G1 X103.409 Y114.224 E6.26819
G1 X103.382 Y113.93 E6.28046
G1 X103.244 Y113.549 E6.29731
G1 X103.358 Y111.138 E6.39766
G1 X103.334 Y110.632 E6.41872
G1 X103.277 Y110.34 E6.43109
G1 X103.209 Y110.214 E6.43704
G1 X103.128 Y109.976 E6.44749
G1 X103.054 Y109.863 E6.45311
G1 X102.836 Y109.388 E6.47484
G1 X102.732 Y109.124 E6.48663
G1 X102.68 Y108.84 E6.49864
G1 X102.524 Y108.656 E6.50867
G1 X102.415 Y108.411 E6.51981
G1 X102.268 Y108.19 E6.53085
G1 X102.156 Y107.896 E6.54393
G1 X102.117 Y107.609 E6.55597
G1 X101.927 Y107.319 E6.57038
G1 X101.843 Y107.036 E6.58266
G1 X101.818 Y106.853 E6.59034
G1 X101.627 Y106.498 E6.6071
G1 X101.511 Y105.992 E6.62868
G1 X101.385 Y105.809 E6.63792
G1 X101.295 Y105.583 E6.64803
G1 X101.26 Y105.351 E6.65778
G1 X101.115 Y105.054 E6.67153
G1 X100.932 Y104.774 E6.68543
G1 X100.757 Y104.318 E6.70574
G1 X100.758 Y103.881 E6.72391
G1 X100.847 Y103.414 E6.74367
G1 X101.066 Y102.862 E6.76836
G1 X101.184 Y102.516 E6.78356
G1 X101.373 Y101.81 E6.81395
G1 X101.463 Y101.405 E6.83119
G1 X101.678 Y101.019 E6.84956
G1 X101.993 Y100.661 E6.86939
G0 F6000 X102.271 Y100.951
G1 F1200 X102.005 Y101.254 E6.88615
G1 X101.84 Y101.549 E6.90021
G1 X101.759 Y101.914 E6.91575
G1 X101.563 Y102.645 E6.94721
G1 X101.442 Y102.999 E6.96277
G1 X101.233 Y103.526 E6.98634
G1 X101.158 Y103.92 E7.00301
G1 X101.157 Y104.245 E7.01652
G1 X101.305 Y104.63 E7.03367
G1 X101.46 Y104.85 E7.04486
G1 X101.654 Y105.246 E7.0632
G1 X101.667 Y105.435 E7.07107
G1 X101.757 Y105.661 E7.08119
G1 X101.88 Y105.811 E7.08925
G1 X102.005 Y106.356 E7.1125
G1 X102.209 Y106.734 E7.13035
G1 X102.226 Y106.922 E7.1382
G1 X102.31 Y107.205 E7.15048
G1 X102.506 Y107.459 E7.16381
G1 X102.53 Y107.754 E7.17612
G1 X102.642 Y108.048 E7.1892
G1 X102.778 Y108.228 E7.19858
G1 X102.83 Y108.398 E7.20597
G1 X103.059 Y108.669 E7.22072
G1 X103.104 Y108.977 E7.23366
G1 X103.208 Y109.241 E7.24546
G1 X103.419 Y109.698 E7.26639
G1 X103.487 Y109.788 E7.27108
G1 X103.588 Y110.085 E7.28412
G1 X103.655 Y110.187 E7.28919
G1 X103.733 Y110.589 E7.30622
G1 X103.759 Y111.138 E7.32907
G1 X103.648 Y113.49 E7.42696
G1 X103.775 Y113.842 E7.44252
G1 X103.809 Y114.214 E7.45805
G1 X103.795 Y114.926 E7.48766
G1 X103.837 Y115.182 E7.49844
G1 X103.978 Y115.487 E7.51241
G1 X103.985 Y115.828 E7.52659
G1 X104.094 Y116.15 E7.54073
G1 X104.129 Y116.466 E7.55394
G1 X104.148 Y116.726 E7.56478
G1 X103.732 Y124.834 E7.90232
G1 X103.793 Y125.068 E7.91237
G1 X103.886 Y125.216 E7.91964
G1 X103.895 Y125.758 E7.94217
G1 X103.777 Y128.089 E8.03921
G1 X103.763 Y130.436 E8.13679
G1 X103.741 Y130.888 E8.1556
G1 X103.697 Y131.188 E8.16821
G1 X103.554 Y131.663 E8.18883
G1 X103.298 Y131.871 E8.20255
G1 X103.161 Y132.134 E8.21487
G1 X103.091 Y132.424 E8.22728
G1 X103.092 Y135.751 E8.3656
G1 X103.134 Y135.929 E8.3732
G1 X103.293 Y136.209 E8.38659
G1 X103.517 Y136.445 E8.40012
G1 X104.623 Y137.148 E8.4546
G1 X105.058 Y137.274 E8.47343
G1 X114.283 Y137.274 E8.85696
G1 X114.611 Y137.209 E8.87086
G1 X114.938 Y137.014 E8.88669
G1 X115.076 Y136.875 E8.89484
G1 X115.213 Y136.612 E8.90716
G1 X115.272 Y136.368 E8.9176
G1 X115.283 Y136.081 E8.92954
G1 X116 Y136.143 E8.95946
G1 X116.682 Y136.181 E8.98786
G1 X117.119 Y136.195 E9.00604
G1 X117.866 Y136.196 E9.03709
G1 X118.54 Y136.172 E9.06513
G1 X119.317 Y136.115 E9.09752
G1 X119.411 Y136.4 E9.11
G1 X119.656 Y136.707 E9.12633
G1 X119.865 Y136.845 E9.13674
G1 X120.113 Y137.067 E9.15058
G1 X120.376 Y137.204 E9.16291
G1 X120.665 Y137.274 E9.17527
G1 X130.039 Y137.274 E9.565
G1 X130.399 Y137.137 E9.58101
G1 X131.559 Y136.39 E9.63838
G1 X131.686 Y136.259 E9.64596
G1 X131.833 Y135.977 E9.65918
G1 X131.91 Y135.667 E9.67246
G1 X131.909 Y132.403 E9.80816
G1 X131.761 Y131.996 E9.82617
G1 X131.566 Y131.729 E9.83991
G1 X131.299 Y131.569 E9.85286
G1 X131.116 Y131.132 E9.87255
G1 X131.052 Y130.867 E9.88389
G1 X131.019 Y130.613 E9.89454
G1 X130.999 Y130.199 E9.91177
G1 X131.007 Y129.614 E9.93609
G1 X131.073 Y129.152 E9.95549
G1 X131.187 Y128.914 E9.96647
G1 X131.242 Y128.621 E9.97886
G1 X130.861 Y121.313 E10.2831
G1 X130.894 Y120.843 E10.30269
G1 X130.971 Y120.661 E10.31091
G1 X131.025 Y120.322 E10.32518
G1 X130.87 Y117.119 E10.4585
G1 X130.869 Y116.553 E10.48203
G1 X130.888 Y116.261 E10.4942
G1 X130.972 Y116.058 E10.50333
G1 X131.015 Y115.81 E10.5138
G1 X131.008 Y115.547 E10.52474
G1 X131.128 Y115.261 E10.53763
G1 X131.198 Y114.973 E10.54995
G1 X131.199 Y114.429 E10.57257
G1 X131.223 Y113.897 E10.59471
G1 X131.286 Y113.742 E10.60167
G1 X131.345 Y113.442 E10.61438
G1 X131.25 Y111.457 E10.697
G1 X131.261 Y110.843 E10.72253
G1 X131.338 Y110.342 E10.7436
G1 X131.502 Y110.059 E10.7572
G1 X131.54 Y109.8 E10.76809
G1 X131.675 Y109.55 E10.7799
G1 X131.726 Y109.218 E10.79386
G1 X131.828 Y108.993 E10.80413
G1 X131.94 Y108.882 E10.81069
G1 X132.05 Y108.676 E10.8204
G1 X132.084 Y108.504 E10.82769
G1 X132.241 Y108.235 E10.84064
G1 X132.265 Y108.09 E10.84675
G1 X132.401 Y107.838 E10.85865
G1 X132.43 Y107.637 E10.8671
G1 X132.569 Y107.377 E10.87935
G1 X132.606 Y107.094 E10.89122
G1 X132.873 Y106.606 E10.91435
G1 X133.054 Y106.365 E10.92688
G1 X133.179 Y106.038 E10.94143
G1 X133.392 Y105.653 E10.95972
G1 X133.636 Y105.265 E10.97878
G1 X133.836 Y104.99 E10.99292
G1 X133.945 Y104.527 E11.01269
G1 X133.908 Y104.069 E11.0318
G1 X133.526 Y103.039 E11.07747
G1 X133.12 Y102.215 E11.11566
G1 X132.511 Y101.535 E11.15361
G1 X131.924 Y101.051 E11.18524
G1 X131.464 Y100.777 E11.2075
G1 X130.863 Y100.528 E11.23455
G1 X130.245 Y100.372 E11.26105
G1 X129.543 Y100.303 E11.29037
G1 X129.047 Y100.32 E11.31101
G1 X128.488 Y100.399 E11.33448
G1 X127.625 Y100.628 E11.3716
G1 X127.479 Y100.702 E11.3784
G1 X127.044 Y101.048 E11.40151
G1 X126.838 Y101.366 E11.41727
G1 X126.627 Y101.959 E11.44343
G1 X126.44 Y102.34 E11.46108
G1 X126.126 Y102.787 E11.48379
G1 X125.866 Y102.972 E11.49706
G1 X125.645 Y103.244 E11.51163
G1 X125.503 Y103.723 E11.5324
G1 X125.244 Y103.922 E11.54598
G1 X125.063 Y104.169 E11.55871
G1 X125 Y104.327 E11.56578
G1 X124.814 Y104.549 E11.57782
G1 X124.734 Y104.711 E11.58533
G1 X124.696 Y104.936 E11.59482
G1 X124.739 Y105.297 E11.60993
G1 X124.634 Y105.68 E11.62645
G1 X124.637 Y106.35 E11.6543
G1 X124.625 Y106.473 E11.65944
G1 X124.625 Y107.261 E11.6922
G1 X124.683 Y107.468 E11.70114
G1 X124.804 Y107.667 E11.71082
G1 X124.92 Y108.097 E11.72934
G1 X124.966 Y108.38 E11.74126
G1 X125.118 Y108.715 E11.75655
G1 X125.209 Y109.089 E11.77255
G1 X125.313 Y109.275 E11.78141
G1 X125.48 Y109.826 E11.80535
G1 X125.551 Y110.102 E11.8172
G1 X125.615 Y110.412 E11.83036
G1 X125.687 Y110.865 E11.84943
G1 X125.712 Y111.376 E11.8707
G1 X125.661 Y111.906 E11.89284
G1 X125.498 Y112.669 E11.92527
G1 X125.399 Y113.058 E11.94196
G1 X125.294 Y113.397 E11.95672
G1 X124.986 Y114.226 E11.99348
G1 X124.885 Y114.386 E12.00135
G1 X124.791 Y114.673 E12.01391
G1 X124.701 Y114.807 E12.02062
G1 X124.508 Y115.18 E12.03808
G1 X124.473 Y115.275 E12.04229
G1 X124.312 Y115.532 E12.0549
G1 X124.145 Y115.72 E12.06535
G1 X123.915 Y116.002 E12.08048
G1 X123.577 Y116.496 E12.10537
G1 X123.389 Y116.702 E12.11696
G1 X123.189 Y116.846 E12.12721
G1 X122.602 Y117.393 E12.16056
G1 X122.399 Y117.507 E12.17024
G1 X122.041 Y117.782 E12.18901
G1 X121.915 Y117.909 E12.19645
G1 X121.61 Y118.112 E12.21168
G1 X121.388 Y118.189 E12.22145
G1 X121.123 Y118.366 E12.2347
G1 X120.863 Y118.462 E12.24622
G1 X120.68 Y118.587 E12.25544
G1 X120.461 Y118.642 E12.26482
G1 X120.154 Y118.811 E12.27939
G1 X119.865 Y118.869 E12.29165
G1 X119.545 Y119.012 E12.30622
G1 X119.172 Y119.065 E12.32188
G1 X118.885 Y119.177 E12.33469
G1 X118.62 Y119.221 E12.34586
G1 X118.191 Y119.262 E12.36378
G1 X117.874 Y119.378 E12.37781
G1 X117.447 Y119.401 E12.39559
G1 X117.109 Y119.378 E12.40968
G1 X116.775 Y119.258 E12.42443
G1 X116.399 Y119.227 E12.44012
G1 X116.121 Y119.178 E12.45185
G1 X115.844 Y119.07 E12.46421
G1 X115.57 Y119.031 E12.47572
G1 X115.225 Y118.894 E12.49115
G1 X114.732 Y118.776 E12.51223
G1 X114.333 Y118.598 E12.53039
G1 X114.087 Y118.436 E12.54264
G1 X113.773 Y118.34 E12.55629
G1 X113.483 Y118.172 E12.57022
G1 X113.286 Y118.003 E12.58101
G1 X113.066 Y117.893 E12.59124
G1 X112.82 Y117.707 E12.60406
G1 X112.743 Y117.625 E12.60874
G1 X112.545 Y117.471 E12.61917
G1 X112.343 Y117.368 E12.62859
G1 X111.723 Y116.785 E12.66398
G1 X111.352 Y116.378 E12.68687
G1 X111.29 Y116.288 E12.69142
G1 X111.007 Y115.968 E12.70918
G1 X110.904 Y115.775 E12.71827
G1 X110.702 Y115.537 E12.73125
G1 X110.623 Y115.372 E12.73886
G1 X110.48 Y115.124 E12.75076
G1 X110.361 Y114.976 E12.75865
