;FLAVOR:Marlin
;TIME:11022
;Filament used: 6.59534m
;Layer height: 0.2
;MINX:41.105
;MINY:41.103
;MINZ:0.25
;MAXX:193.895
;MAXY:193.897
;MAXZ:8.05
;Generated with Cura_SteamEngine 5.3.0
M140 S85
M105
M190 S85
M104 S240
M105
M109 S240
M82 ;absolute extrusion mode
START_PRINT
G92 E0
G92 E0
G1 F1500 E-8
;LAYER_COUNT:40
;LAYER:0
M107
G0 F6000 X62.823 Y64.145 Z0.25
;TYPE:SKIRT
G1 F1500 E0
G1 F1200 X64.646 Y62.34 E0.10666
G1 X66.528 Y60.592 E0.21345
G1 X68.498 Y58.89 E0.32168
G1 X70.466 Y57.299 E0.4269
G1 X72.516 Y55.753 E0.53364
G1 X74.613 Y54.276 E0.64028
G1 X76.76 Y52.871 E0.74696
G1 X78.956 Y51.538 E0.85376
G1 X81.193 Y50.282 E0.96042
G1 X83.473 Y49.099 E1.06721
G1 X85.789 Y47.994 E1.1739
G1 X88.142 Y46.967 E1.28064
G1 X90.529 Y46.02 E1.3874
G1 X92.945 Y45.156 E1.49408
G1 X95.391 Y44.37 E1.60089
G1 X97.859 Y43.67 E1.70755
G1 X100.346 Y43.053 E1.81408
G1 X102.86 Y42.516 E1.92096
G1 X105.387 Y42.067 E2.02766
G1 X107.928 Y41.702 E2.13439
G1 X110.481 Y41.424 E2.24116
G1 X113.039 Y41.23 E2.34781
G1 X115.606 Y41.124 E2.45463
G1 X118.17 Y41.103 E2.56123
G1 X120.739 Y41.169 E2.66807
G1 X123.338 Y41.324 E2.77632
G1 X125.854 Y41.558 E2.88137
G1 X128.403 Y41.881 E2.98819
G1 X130.974 Y42.296 E3.09647
G1 X133.456 Y42.782 E3.20162
G1 X135.955 Y43.362 E3.30827
G1 X138.435 Y44.023 E3.41498
G1 X140.93 Y44.779 E3.52337
G1 X143.321 Y45.595 E3.6284
G1 X145.724 Y46.503 E3.7352
G1 X148.129 Y47.507 E3.84355
G1 X150.464 Y48.575 E3.95031
G1 X152.757 Y49.72 E4.05686
G1 X154.982 Y50.924 E4.16204
G1 X157.197 Y52.222 E4.26878
G1 X159.369 Y53.59 E4.3755
G1 X161.492 Y55.032 E4.4822
G1 X163.564 Y56.546 E4.58889
G1 X165.586 Y58.126 E4.69557
G1 X167.555 Y59.776 E4.80238
G1 X169.46 Y61.485 E4.90878
G1 X171.316 Y63.268 E5.01578
G1 X173.109 Y65.106 E5.12253
G1 X174.839 Y67.004 E5.2293
G1 X176.5 Y68.956 E5.33586
G1 X178.099 Y70.968 E5.44271
G1 X179.628 Y73.03 E5.54943
G1 X181.085 Y75.14 E5.65604
G1 X182.476 Y77.301 E5.76289
G1 X183.787 Y79.506 E5.86954
G1 X185.028 Y81.754 E5.9763
G1 X186.188 Y84.043 E6.08298
G1 X187.275 Y86.369 E6.18973
G1 X188.282 Y88.732 E6.29652
G1 X189.209 Y91.124 E6.40317
G1 X190.054 Y93.548 E6.5099
G1 X190.818 Y96 E6.61668
G1 X191.497 Y98.473 E6.7233
G1 X192.095 Y100.969 E6.83
G1 X192.607 Y103.485 E6.93675
G1 X193.036 Y106.014 E7.0434
G1 X193.38 Y108.56 E7.15021
G1 X193.638 Y111.112 E7.25685
G1 X193.81 Y113.676 E7.36369
G1 X193.895 Y116.239 E7.4703
G1 X193.894 Y118.848 E7.57877
G1 X193.805 Y121.411 E7.68539
G1 X193.634 Y123.934 E7.79053
G1 X193.373 Y126.488 E7.89727
G1 X193.023 Y129.071 E8.00564
G1 X192.6 Y131.56 E8.1106
G1 X192.085 Y134.076 E8.21737
G1 X191.477 Y136.613 E8.32583
G1 X190.793 Y139.084 E8.43243
G1 X190.04 Y141.496 E8.53748
G1 X189.191 Y143.918 E8.64418
G1 X188.249 Y146.35 E8.75262
G1 X187.238 Y148.709 E8.85932
G1 X186.169 Y150.998 E8.96435
G1 X185.004 Y153.287 E9.07113
G1 X183.765 Y155.535 E9.17785
G1 X182.45 Y157.738 E9.28452
G1 X181.061 Y159.9 E9.39135
G1 X179.6 Y162.008 E9.49798
G1 X178.046 Y164.102 E9.6064
G1 X176.445 Y166.111 E9.7132
G1 X174.779 Y168.063 E9.81989
G1 X173.075 Y169.928 E9.92492
G1 X171.284 Y171.766 E10.03162
G1 X169.431 Y173.542 E10.13833
G1 X167.525 Y175.251 E10.24476
G1 X165.549 Y176.902 E10.35181
G1 X163.529 Y178.482 E10.45843
G1 X161.459 Y179.991 E10.56493
G1 X159.329 Y181.434 E10.6719
G1 X157.158 Y182.804 E10.77863
G1 X154.94 Y184.099 E10.88541
G1 X152.682 Y185.319 E10.99211
G1 X150.383 Y186.464 E11.09889
G1 X148.05 Y187.528 E11.2055
G1 X145.682 Y188.513 E11.31212
G1 X143.279 Y189.422 E11.41894
G1 X140.847 Y190.247 E11.52571
G1 X138.39 Y190.991 E11.63244
G1 X135.909 Y191.651 E11.73917
G1 X133.409 Y192.227 E11.84583
G1 X130.892 Y192.718 E11.95245
G1 X128.354 Y193.126 E12.05932
G1 X125.808 Y193.446 E12.16601
G1 X123.251 Y193.683 E12.27277
G1 X120.688 Y193.834 E12.37951
G1 X118.085 Y193.897 E12.48776
G1 X115.519 Y193.875 E12.59445
G1 X112.993 Y193.766 E12.69957
G1 X110.431 Y193.573 E12.80638
G1 X107.842 Y193.286 E12.91468
G1 X105.342 Y192.926 E13.01969
G1 X102.811 Y192.474 E13.12658
G1 X100.264 Y191.929 E13.23487
G1 X97.81 Y191.319 E13.34
G1 X95.346 Y190.615 E13.44654
G1 X92.9 Y189.83 E13.55334
G1 X90.483 Y188.963 E13.6601
G1 X88.111 Y188.02 E13.76622
G1 X85.746 Y186.985 E13.87355
G1 X83.431 Y185.88 E13.9802
G1 X81.152 Y184.697 E14.08696
G1 X78.914 Y183.438 E14.19371
G1 X76.701 Y182.09 E14.30145
G1 X74.543 Y180.674 E14.40875
G1 X72.444 Y179.195 E14.51551
G1 X70.427 Y177.672 E14.62059
G1 X68.432 Y176.055 E14.72735
G1 X66.493 Y174.374 E14.83404
G1 X64.582 Y172.602 E14.94239
G1 X62.762 Y170.792 E15.04911
G1 X61.003 Y168.922 E15.15584
G1 X59.333 Y167.026 E15.26089
G1 X57.702 Y165.045 E15.36757
G1 X56.138 Y163.008 E15.47434
G1 X54.644 Y160.922 E15.58102
G1 X53.221 Y158.785 E15.68776
G1 X51.871 Y156.603 E15.79443
G1 X50.595 Y154.375 E15.90118
G1 X49.391 Y152.106 E16.00797
G1 X48.269 Y149.798 E16.11467
G1 X47.211 Y147.419 E16.22291
G1 X46.257 Y145.076 E16.32809
G1 X45.368 Y142.665 E16.43492
G1 X44.564 Y140.229 E16.54157
G1 X43.844 Y137.768 E16.64818
G1 X43.205 Y135.282 E16.75489
G1 X42.648 Y132.774 E16.86171
G1 X42.178 Y130.251 E16.9684
G1 X41.792 Y127.713 E17.07514
G1 X41.49 Y125.166 E17.18177
G1 X41.278 Y122.648 E17.28683
G1 X41.148 Y120.044 E17.39522
G1 X41.105 Y117.437 E17.50362
G1 X41.151 Y114.91 E17.6087
G1 X41.279 Y112.346 E17.71543
G1 X41.5 Y109.749 E17.82379
G1 X41.799 Y107.241 E17.9288
G1 X42.185 Y104.7 E18.03566
G1 X42.664 Y102.14 E18.14394
G1 X43.203 Y99.711 E18.24738
G1 X43.855 Y97.191 E18.3556
G1 X44.578 Y94.723 E18.46252
G1 X45.399 Y92.253 E18.57073
G1 X46.272 Y89.879 E18.67589
G1 X47.224 Y87.537 E18.781
G1 X48.289 Y85.159 E18.88933
G1 X49.433 Y82.814 E18.99781
G1 X50.636 Y80.549 E19.10443
G1 X51.915 Y78.324 E19.21113
G1 X53.246 Y76.175 E19.31622
G1 X54.67 Y74.041 E19.42288
G1 X56.166 Y71.953 E19.52967
G1 X57.73 Y69.921 E19.63628
G1 X59.364 Y67.936 E19.74317
G1 X61.061 Y66.015 E19.84974
G1 X62.823 Y64.145 E19.95656
G0 F6000 X63.104 Y64.429
G1 F1200 X64.918 Y62.633 E20.06269
G1 X66.79 Y60.895 E20.16889
G1 X68.75 Y59.201 E20.27659
G1 X70.707 Y57.618 E20.38124
G1 X72.746 Y56.08 E20.48742
G1 X74.832 Y54.611 E20.5935
G1 X76.968 Y53.213 E20.69963
G1 X79.152 Y51.887 E20.80586
G1 X81.377 Y50.637 E20.91196
G1 X83.645 Y49.46 E21.01819
G1 X85.949 Y48.361 E21.12432
G1 X88.29 Y47.339 E21.23052
G1 X90.664 Y46.397 E21.33671
G1 X93.067 Y45.537 E21.44282
G1 X95.5 Y44.755 E21.54907
G1 X97.955 Y44.058 E21.65517
G1 X100.43 Y43.444 E21.76118
G1 X102.93 Y42.91 E21.86747
G1 X105.444 Y42.463 E21.97363
G1 X107.971 Y42.1 E22.07976
G1 X110.511 Y41.823 E22.18599
G1 X113.056 Y41.63 E22.2921
G1 X115.609 Y41.524 E22.39834
G1 X118.16 Y41.503 E22.5044
G1 X120.715 Y41.568 E22.61066
G1 X123.301 Y41.722 E22.71836
G1 X125.804 Y41.955 E22.82287
G1 X128.339 Y42.276 E22.92911
G1 X130.897 Y42.689 E23.03684
G1 X133.366 Y43.172 E23.14143
G1 X135.852 Y43.748 E23.24752
G1 X138.319 Y44.406 E23.35368
G1 X140.801 Y45.158 E23.4615
G1 X143.18 Y45.969 E23.56599
G1 X145.57 Y46.872 E23.67221
G1 X147.963 Y47.871 E23.78003
G1 X150.285 Y48.933 E23.88618
G1 X152.567 Y50.072 E23.99222
G1 X154.78 Y51.269 E24.09682
G1 X156.984 Y52.56 E24.20301
G1 X159.144 Y53.921 E24.30916
G1 X161.256 Y55.355 E24.41529
G1 X163.318 Y56.861 E24.52145
G1 X165.329 Y58.433 E24.62757
G1 X167.288 Y60.074 E24.73381
G1 X169.183 Y61.773 E24.83963
G1 X171.03 Y63.547 E24.9461
G1 X172.813 Y65.375 E25.05226
G1 X174.534 Y67.263 E25.15848
G1 X176.187 Y69.205 E25.2645
G1 X177.778 Y71.206 E25.37079
G1 X179.299 Y73.257 E25.47695
G1 X180.749 Y75.357 E25.58304
G1 X182.132 Y77.505 E25.68926
G1 X183.437 Y79.699 E25.79539
G1 X184.671 Y81.935 E25.90157
G1 X185.826 Y84.212 E26.00772
G1 X186.907 Y86.526 E26.1139
G1 X187.909 Y88.876 E26.22011
G1 X188.831 Y91.256 E26.32623
G1 X189.672 Y93.667 E26.43239
G1 X190.432 Y96.106 E26.5386
G1 X191.108 Y98.566 E26.64467
G1 X191.703 Y101.049 E26.75082
G1 X192.213 Y103.552 E26.85702
G1 X192.64 Y106.068 E26.96312
G1 X192.982 Y108.6 E27.06934
G1 X193.239 Y111.139 E27.17544
G1 X193.41 Y113.689 E27.2817
G1 X193.495 Y116.239 E27.38777
G1 X193.494 Y118.834 E27.49566
G1 X193.406 Y121.384 E27.60174
G1 X193.236 Y123.893 E27.70629
G1 X192.977 Y126.434 E27.81248
G1 X192.629 Y129.004 E27.92031
G1 X192.208 Y131.48 E28.02472
G1 X191.696 Y133.983 E28.13094
G1 X191.091 Y136.506 E28.23881
G1 X190.411 Y138.965 E28.34488
G1 X189.662 Y141.364 E28.44937
G1 X188.818 Y143.774 E28.55553
G1 X187.881 Y146.193 E28.66338
G1 X186.876 Y148.54 E28.76953
G1 X185.813 Y150.817 E28.874
G1 X184.654 Y153.094 E28.98022
G1 X183.422 Y155.33 E29.08636
G1 X182.114 Y157.522 E29.19249
G1 X180.732 Y159.672 E29.29875
G1 X179.279 Y161.77 E29.40485
G1 X177.733 Y163.853 E29.5127
G1 X176.141 Y165.851 E29.61891
G1 X174.484 Y167.793 E29.72504
G1 X172.789 Y169.649 E29.82954
G1 X171.007 Y171.477 E29.93568
G1 X169.164 Y173.244 E30.04183
G1 X167.268 Y174.944 E30.1477
G1 X165.303 Y176.587 E30.25419
G1 X163.293 Y178.159 E30.36028
G1 X161.235 Y179.66 E30.46618
G1 X159.116 Y181.096 E30.5726
G1 X156.956 Y182.459 E30.67879
G1 X154.75 Y183.747 E30.78499
G1 X152.504 Y184.961 E30.89114
G1 X150.217 Y186.1 E30.99736
G1 X147.896 Y187.159 E31.10343
G1 X145.54 Y188.139 E31.20951
G1 X143.15 Y189.043 E31.31575
G1 X140.731 Y189.864 E31.42195
G1 X138.287 Y190.604 E31.52812
G1 X135.819 Y191.261 E31.6343
G1 X133.332 Y191.834 E31.74041
G1 X130.828 Y192.323 E31.84648
G1 X128.304 Y192.729 E31.95276
G1 X125.771 Y193.048 E32.0589
G1 X123.228 Y193.284 E32.16508
G1 X120.678 Y193.434 E32.27128
G1 X118.088 Y193.497 E32.37899
G1 X115.536 Y193.475 E32.4851
G1 X113.023 Y193.367 E32.58967
G1 X110.475 Y193.175 E32.69591
G1 X107.899 Y192.89 E32.80366
G1 X105.412 Y192.532 E32.90812
G1 X102.895 Y192.083 E33.01442
G1 X100.361 Y191.541 E33.12215
G1 X97.92 Y190.934 E33.22673
G1 X95.468 Y190.234 E33.33274
G1 X93.035 Y189.453 E33.43898
G1 X90.631 Y188.591 E33.54516
G1 X88.259 Y187.648 E33.65128
G1 X85.918 Y186.624 E33.75751
G1 X83.615 Y185.525 E33.8636
G1 X81.348 Y184.348 E33.9698
G1 X79.122 Y183.096 E34.07598
G1 X76.909 Y181.748 E34.18371
G1 X74.773 Y180.347 E34.28991
G1 X72.685 Y178.876 E34.3961
G1 X70.679 Y177.361 E34.50061
G1 X68.694 Y175.753 E34.60682
G1 X66.765 Y174.081 E34.71295
G1 X64.864 Y172.318 E34.82074
G1 X63.053 Y170.518 E34.9269
G1 X61.303 Y168.658 E35.03308
G1 X59.642 Y166.772 E35.13756
G1 X58.019 Y164.801 E35.24371
G1 X56.463 Y162.775 E35.34992
G1 X54.977 Y160.7 E35.45603
G1 X53.561 Y158.574 E35.56223
G1 X52.218 Y156.404 E35.66833
G1 X50.948 Y154.188 E35.77451
G1 X49.751 Y151.931 E35.88073
G1 X48.634 Y149.635 E35.98688
G1 X47.581 Y147.268 E36.09459
G1 X46.632 Y144.938 E36.19919
G1 X45.748 Y142.54 E36.30544
G1 X44.948 Y140.117 E36.41153
G1 X44.231 Y137.668 E36.51762
G1 X43.595 Y135.195 E36.62378
G1 X43.041 Y132.701 E36.73
G1 X42.573 Y130.191 E36.83615
G1 X42.189 Y127.666 E36.94233
G1 X41.889 Y125.132 E37.04842
G1 X41.677 Y122.614 E37.15348
G1 X41.548 Y120.037 E37.26075
G1 X41.505 Y117.444 E37.36857
G1 X41.55 Y114.93 E37.47311
G1 X41.678 Y112.38 E37.57926
G1 X41.897 Y109.796 E37.68707
G1 X42.194 Y107.301 E37.79153
G1 X42.578 Y104.774 E37.8978
G1 X43.055 Y102.227 E38.00553
G1 X43.594 Y99.798 E38.10898
G1 X44.239 Y97.303 E38.21612
G1 X44.958 Y94.849 E38.32243
G1 X45.774 Y92.391 E38.43011
G1 X46.643 Y90.03 E38.5347
G1 X47.595 Y87.688 E38.63981
G1 X48.648 Y85.334 E38.74702
G1 X49.786 Y83.002 E38.8549
G1 X50.983 Y80.748 E38.96101
G1 X52.255 Y78.535 E39.06713
G1 X53.579 Y76.397 E39.17168
G1 X54.995 Y74.274 E39.27778
G1 X56.483 Y72.197 E39.384
G1 X58.039 Y70.175 E39.49008
G1 X59.664 Y68.201 E39.59638
G1 X61.352 Y66.289 E39.70241
G1 X63.104 Y64.429 E39.80865
G0 F6000 X63.386 Y64.713
G1 F1200 X65.19 Y62.926 E39.91422
G1 X67.052 Y61.198 E40.01983
G1 X69.002 Y59.512 E40.127
G1 X70.948 Y57.937 E40.23109
G1 X72.976 Y56.407 E40.3367
G1 X75.051 Y54.946 E40.44221
G1 X77.176 Y53.555 E40.5478
G1 X79.348 Y52.236 E40.65345
G1 X81.561 Y50.992 E40.759
G1 X83.817 Y49.821 E40.86467
G1 X86.109 Y48.728 E40.97024
G1 X88.437 Y47.711 E41.07586
G1 X90.799 Y46.774 E41.18151
G1 X93.189 Y45.918 E41.28705
G1 X95.609 Y45.14 E41.39274
G1 X98.051 Y44.446 E41.49828
G1 X100.514 Y43.835 E41.60379
G1 X103 Y43.304 E41.70948
G1 X105.501 Y42.859 E41.81509
G1 X108.014 Y42.498 E41.92064
G1 X110.541 Y42.222 E42.02632
G1 X113.073 Y42.03 E42.13189
G1 X115.612 Y41.924 E42.23755
G1 X118.15 Y41.903 E42.34307
G1 X120.691 Y41.967 E42.44874
G1 X123.264 Y42.12 E42.55591
G1 X125.754 Y42.352 E42.65988
G1 X128.275 Y42.671 E42.76552
G1 X130.82 Y43.082 E42.8727
G1 X133.276 Y43.562 E42.97674
G1 X135.749 Y44.135 E43.08228
G1 X138.203 Y44.789 E43.18787
G1 X140.672 Y45.537 E43.29512
G1 X143.039 Y46.343 E43.39908
G1 X145.416 Y47.241 E43.50472
G1 X147.797 Y48.235 E43.61199
G1 X150.106 Y49.291 E43.71755
G1 X152.377 Y50.424 E43.82307
G1 X154.578 Y51.614 E43.92709
G1 X156.771 Y52.898 E44.03275
G1 X158.919 Y54.252 E44.13831
G1 X161.02 Y55.678 E44.24388
G1 X163.072 Y57.176 E44.34951
G1 X165.072 Y58.74 E44.45506
G1 X167.021 Y60.372 E44.56075
G1 X168.906 Y62.062 E44.666
G1 X170.744 Y63.826 E44.77192
G1 X172.517 Y65.644 E44.87749
G1 X174.229 Y67.522 E44.98315
G1 X175.874 Y69.454 E45.08864
G1 X177.457 Y71.444 E45.19436
G1 X178.97 Y73.484 E45.29995
G1 X180.413 Y75.574 E45.40554
G1 X181.788 Y77.71 E45.51116
G1 X183.087 Y79.892 E45.61673
G1 X184.314 Y82.116 E45.72234
G1 X185.464 Y84.381 E45.82795
G1 X186.539 Y86.683 E45.93357
G1 X187.536 Y89.02 E46.03921
G1 X188.453 Y91.388 E46.14478
G1 X189.29 Y93.786 E46.25038
G1 X190.046 Y96.212 E46.35602
G1 X190.719 Y98.659 E46.46153
G1 X191.311 Y101.129 E46.56713
G1 X191.819 Y103.619 E46.67279
G1 X192.244 Y106.122 E46.77834
G1 X192.584 Y108.64 E46.88398
G1 X192.84 Y111.166 E46.98953
G1 X193.01 Y113.702 E47.0952
G1 X193.095 Y116.239 E47.20074
G1 X193.094 Y118.82 E47.30804
G1 X193.007 Y121.357 E47.41358
G1 X192.838 Y123.853 E47.51759
G1 X192.581 Y126.38 E47.62319
G1 X192.235 Y128.937 E47.73047
G1 X191.816 Y131.4 E47.83434
G1 X191.307 Y133.89 E47.94
G1 X190.705 Y136.399 E48.04728
G1 X190.029 Y138.846 E48.15282
G1 X189.284 Y141.232 E48.25674
G1 X188.445 Y143.63 E48.36237
G1 X187.513 Y146.036 E48.46964
G1 X186.514 Y148.371 E48.57523
G1 X185.456 Y150.636 E48.67916
G1 X184.304 Y152.901 E48.78481
G1 X183.078 Y155.125 E48.89039
G1 X181.777 Y157.306 E48.99598
G1 X180.403 Y159.444 E49.10164
G1 X178.958 Y161.532 E49.20721
G1 X177.42 Y163.604 E49.31449
G1 X175.837 Y165.591 E49.42011
G1 X174.189 Y167.523 E49.52569
G1 X172.503 Y169.37 E49.62966
G1 X170.73 Y171.188 E49.73523
G1 X168.897 Y172.946 E49.84082
G1 X167.011 Y174.637 E49.94614
G1 X165.057 Y176.272 E50.05206
G1 X163.057 Y177.836 E50.15762
G1 X161.01 Y179.329 E50.26296
G1 X158.903 Y180.758 E50.3688
G1 X156.754 Y182.114 E50.47445
G1 X154.56 Y183.395 E50.58007
G1 X152.326 Y184.603 E50.68566
G1 X150.051 Y185.736 E50.79132
G1 X147.742 Y186.79 E50.89685
G1 X145.398 Y187.765 E51.00239
G1 X143.021 Y188.664 E51.10805
G1 X140.615 Y189.481 E51.21369
G1 X138.184 Y190.217 E51.31929
G1 X135.729 Y190.871 E51.42492
G1 X133.255 Y191.441 E51.53047
G1 X130.764 Y191.928 E51.63599
G1 X128.254 Y192.332 E51.74169
G1 X125.734 Y192.65 E51.84729
G1 X123.205 Y192.885 E51.95289
G1 X120.668 Y193.034 E52.05854
G1 X118.091 Y193.097 E52.16572
G1 X115.553 Y193.075 E52.27124
G1 X113.053 Y192.968 E52.37527
G1 X110.519 Y192.777 E52.48092
G1 X107.956 Y192.494 E52.58813
G1 X105.482 Y192.138 E52.69204
G1 X102.979 Y191.692 E52.79774
G1 X100.458 Y191.153 E52.90492
G1 X98.03 Y190.549 E53.00894
G1 X95.59 Y189.853 E53.11443
G1 X93.17 Y189.076 E53.22011
G1 X90.779 Y188.219 E53.3257
G1 X88.419 Y187.281 E53.43129
G1 X86.09 Y186.263 E53.53696
G1 X83.799 Y185.17 E53.64249
G1 X81.544 Y183.999 E53.74813
G1 X79.33 Y182.754 E53.85374
G1 X77.128 Y181.413 E53.96093
G1 X75.003 Y180.02 E54.06656
G1 X72.926 Y178.557 E54.17219
G1 X70.931 Y177.05 E54.27613
G1 X68.956 Y175.451 E54.38178
G1 X67.037 Y173.788 E54.48735
G1 X65.146 Y172.034 E54.59459
G1 X63.344 Y170.244 E54.70018
G1 X61.603 Y168.394 E54.8058
G1 X59.951 Y166.518 E54.90973
G1 X58.336 Y164.557 E55.01534
G1 X56.788 Y162.542 E55.12099
G1 X55.31 Y160.478 E55.22653
G1 X53.901 Y158.364 E55.33215
G1 X52.565 Y156.205 E55.43771
G1 X51.301 Y154.001 E55.54334
G1 X50.111 Y151.756 E55.64898
G1 X48.999 Y149.472 E55.75459
