;FLAVOR:Marlin
;TIME:2410
;Filament used: 1.12901m
;Layer height: 0.2
;MINX:94.2
;MINY:103.7
;MINZ:0.25
;MAXX:140.8
;MAXY:131.3
;MAXZ:21.05
;Generated with Cura_SteamEngine 5.3.0
M140 S55
M105
M190 S55
M104 S212
M105
M109 S212
M82 ;absolute extrusion mode
START_PRINT
G92 E0
G92 E0
G1 F3000 E-6.5
;LAYER_COUNT:105
;LAYER:0
M107
G0 X97.294 Y105.25 Z0.25
;TYPE:SKIRT
G1 F3000 E0
G1 F600 X99.166 Y104.138 E0.09052
G1 X101.353 Y103.7 E0.18325
G1 X133.853 Y103.7 E1.53445
G1 X135.749 Y104.166 E1.61562
G1 X137.776 Y105.219 E1.71059
G1 X139.25 Y106.794 E1.80027
G1 X140.362 Y108.666 E1.89079
G1 X140.8 Y110.853 E1.98352
G1 X140.8 Y124.353 E2.54479
G1 X140.334 Y126.249 E2.62596
G1 X139.281 Y128.276 E2.72093
G1 X137.706 Y129.75 E2.81061
G1 X135.834 Y130.862 E2.90114
G1 X133.647 Y131.3 E2.99387
G1 X101.147 Y131.3 E4.34506
G1 X99.251 Y130.834 E4.42623
G1 X97.224 Y129.781 E4.5212
G1 X95.75 Y128.206 E4.61088
G1 X94.638 Y126.334 E4.70141
G1 X94.2 Y124.147 E4.79414
G1 X94.2 Y110.647 E5.3554
G1 X94.666 Y108.751 E5.43657
G1 X95.719 Y106.724 E5.53154
G1 X97.294 Y105.25 E5.62122
G0 F3000 X97.535 Y105.572
G1 F600 X99.312 Y104.516 E5.70716
G1 X101.391 Y104.1 E5.79531
G1 X133.807 Y104.1 E7.14301
G1 X135.606 Y104.542 E7.22003
G1 X137.531 Y105.542 E7.31022
G1 X138.928 Y107.035 E7.39522
G1 X139.984 Y108.812 E7.48116
G1 X140.4 Y110.891 E7.56931
G1 X140.4 Y124.307 E8.12708
G1 X139.958 Y126.106 E8.2041
G1 X138.958 Y128.031 E8.29429
G1 X137.465 Y129.428 E8.3793
G1 X135.688 Y130.484 E8.46524
G1 X133.609 Y130.9 E8.55338
G1 X101.193 Y130.9 E9.90109
G1 X99.394 Y130.458 E9.9781
G1 X97.469 Y129.458 E10.06829
G1 X96.072 Y127.965 E10.1533
G1 X95.016 Y126.188 E10.23924
G1 X94.6 Y124.109 E10.32739
G1 X94.6 Y110.693 E10.88516
G1 X95.042 Y108.894 E10.96218
G1 X96.042 Y106.969 E11.05236
G1 X97.535 Y105.572 E11.13737
G0 F3000 X97.776 Y105.894
G1 F600 X99.458 Y104.895 E11.2187
G1 X101.43 Y104.5 E11.30232
G1 X133.76 Y104.5 E12.64644
G1 X135.464 Y104.919 E12.7194
G1 X137.286 Y105.865 E12.80475
G1 X138.606 Y107.276 E12.88508
G1 X139.605 Y108.958 E12.96641
G1 X140 Y110.93 E13.05003
G1 X140 Y124.26 E13.60423
G1 X139.581 Y125.964 E13.67718
G1 X138.635 Y127.786 E13.76253
G1 X137.224 Y129.106 E13.84286
G1 X135.542 Y130.105 E13.9242
G1 X133.57 Y130.5 E14.00781
G1 X101.24 Y130.5 E15.35194
G1 X99.536 Y130.081 E15.42489
G1 X97.714 Y129.135 E15.51024
G1 X96.394 Y127.724 E15.59057
G1 X95.395 Y126.042 E15.67191
G1 X95 Y124.07 E15.75552
G1 X95 Y110.74 E16.30972
G1 X95.419 Y109.036 E16.38267
G1 X96.365 Y107.214 E16.46802
G1 X97.776 Y105.894 E16.54836
G0 F3000 X98.017 Y106.216
G1 F600 X99.604 Y105.273 E16.6251
G1 X101.468 Y104.9 E16.70414
G1 X133.714 Y104.9 E18.04477
G1 X135.321 Y105.295 E18.11357
G1 X137.041 Y106.188 E18.19414
G1 X138.284 Y107.517 E18.2698
G1 X139.227 Y109.104 E18.34655
G1 X139.6 Y110.968 E18.42558
G1 X139.6 Y124.214 E18.97628
G1 X139.205 Y125.821 E19.04508
G1 X138.312 Y127.541 E19.12565
G1 X136.983 Y128.784 E19.20131
G1 X135.396 Y129.727 E19.27806
G1 X133.532 Y130.1 E19.35709
G1 X101.286 Y130.1 E20.69772
G1 X99.679 Y129.705 E20.76652
G1 X97.959 Y128.812 E20.8471
G1 X96.716 Y127.483 E20.92275
G1 X95.773 Y125.896 E20.9995
G1 X95.4 Y124.032 E21.07853
G1 X95.4 Y110.786 E21.62924
G1 X95.795 Y109.179 E21.69804
G1 X96.688 Y107.459 E21.77861
G1 X98.017 Y106.216 E21.85426
G0 F3000 X98.258 Y106.538
G1 F600 X99.75 Y105.651 E21.92643
G1 X101.506 Y105.3 E22.00088
G1 X133.668 Y105.3 E23.33802
G1 X135.178 Y105.671 E23.40266
G1 X136.796 Y106.511 E23.47846
G1 X137.962 Y107.758 E23.54943
G1 X138.849 Y109.25 E23.6216
G1 X139.2 Y111.006 E23.69605
G1 X139.2 Y124.168 E24.24326
G1 X138.829 Y125.678 E24.30791
G1 X137.989 Y127.296 E24.3837
G1 X136.742 Y128.462 E24.45468
G1 X135.25 Y129.349 E24.52684
G1 X133.494 Y129.7 E24.60129
G1 X101.332 Y129.7 E25.93843
G1 X99.822 Y129.329 E26.00308
G1 X98.204 Y128.489 E26.07887
G1 X97.038 Y127.242 E26.14985
G1 X96.151 Y125.75 E26.22201
G1 X95.8 Y123.994 E26.29646
G1 X95.8 Y110.832 E26.84368
G1 X96.171 Y109.322 E26.90832
G1 X97.011 Y107.704 E26.98412
G1 X98.258 Y106.538 E27.05509
G0 F3000 X98.499 Y106.86
G1 F600 X99.896 Y106.029 E27.12267
G1 X101.544 Y105.7 E27.19254
G1 X133.621 Y105.7 E28.52615
G1 X135.036 Y106.048 E28.58673
G1 X136.551 Y106.834 E28.65769
G1 X137.64 Y107.999 E28.72399
G1 X138.471 Y109.396 E28.79157
G1 X138.8 Y111.044 E28.86144
G1 X138.8 Y124.121 E29.40512
G1 X138.452 Y125.536 E29.4657
G1 X137.666 Y127.051 E29.53666
G1 X136.501 Y128.14 E29.60296
G1 X135.104 Y128.971 E29.67054
G1 X133.456 Y129.3 E29.7404
G1 X101.379 Y129.3 E31.07401
G1 X99.964 Y128.952 E31.13459
G1 X98.449 Y128.166 E31.20555
G1 X97.36 Y127.001 E31.27185
G1 X96.529 Y125.604 E31.33943
G1 X96.2 Y123.956 E31.4093
G1 X96.2 Y110.879 E31.95298
G1 X96.548 Y109.464 E32.01356
G1 X97.334 Y107.949 E32.08452
G1 X98.499 Y106.86 E32.15082
G0 F3000 X98.738 Y107.184
G1 F600 X100.044 Y106.407 E32.214
G1 X101.582 Y106.1 E32.2792
G1 X133.575 Y106.1 E33.60932
G1 X134.893 Y106.424 E33.66575
G1 X136.306 Y107.157 E33.73193
G1 X137.316 Y108.238 E33.79343
G1 X138.093 Y109.544 E33.85661
G1 X138.4 Y111.082 E33.92182
G1 X138.4 Y124.075 E34.462
G1 X138.076 Y125.393 E34.51843
G1 X137.343 Y126.806 E34.58461
G1 X136.262 Y127.816 E34.64612
G1 X134.956 Y128.593 E34.7093
G1 X133.418 Y128.9 E34.7745
G1 X101.425 Y128.9 E36.10461
G1 X100.107 Y128.576 E36.16104
G1 X98.694 Y127.843 E36.22722
G1 X97.684 Y126.762 E36.28873
G1 X96.907 Y125.456 E36.35191
G1 X96.6 Y123.918 E36.41711
G1 X96.6 Y110.925 E36.9573
G1 X96.924 Y109.607 E37.01373
G1 X97.657 Y108.194 E37.07991
G1 X98.738 Y107.184 E37.14141
G0 F3000 X98.977 Y107.508
G1 F600 X100.192 Y106.785 E37.20019
G1 X101.62 Y106.5 E37.26073
G1 X133.529 Y106.5 E38.58736
G1 X134.75 Y106.8 E38.63963
G1 X136.061 Y107.48 E38.70103
G1 X136.992 Y108.477 E38.75774
G1 X137.715 Y109.692 E38.81652
G1 X138 Y111.12 E38.87706
G1 X138 Y124.029 E39.41376
G1 X137.7 Y125.25 E39.46603
G1 X137.02 Y126.561 E39.52743
G1 X136.023 Y127.492 E39.58414
G1 X134.808 Y128.215 E39.64293
G1 X133.38 Y128.5 E39.70347
G1 X101.471 Y128.5 E41.03009
G1 X100.25 Y128.2 E41.08236
G1 X98.939 Y127.52 E41.14376
G1 X98.008 Y126.523 E41.20047
G1 X97.285 Y125.308 E41.25925
G1 X97 Y123.88 E41.31979
G1 X97 Y110.971 E41.85649
G1 X97.3 Y109.75 E41.90876
G1 X97.98 Y108.439 E41.97016
G1 X98.977 Y107.508 E42.02688
G0 F3000 X99.216 Y107.832
G1 F600 X100.34 Y107.163 E42.08126
G1 X101.658 Y106.9 E42.13713
G1 X133.483 Y106.9 E43.46026
G1 X134.607 Y107.176 E43.50838
G1 X135.816 Y107.803 E43.565
G1 X136.668 Y108.716 E43.61692
G1 X137.337 Y109.84 E43.6713
G1 X137.6 Y111.158 E43.72718
G1 X137.6 Y123.983 E44.26038
G1 X137.324 Y125.107 E44.3085
G1 X136.697 Y126.316 E44.36512
G1 X135.784 Y127.168 E44.41704
G1 X134.66 Y127.837 E44.47142
G1 X133.342 Y128.1 E44.5273
G1 X101.517 Y128.1 E45.85043
G1 X100.393 Y127.824 E45.89855
G1 X99.184 Y127.197 E45.95517
G1 X98.332 Y126.284 E46.00709
G1 X97.663 Y125.16 E46.06147
G1 X97.4 Y123.842 E46.11735
G1 X97.4 Y111.017 E46.65055
G1 X97.676 Y109.893 E46.69867
G1 X98.303 Y108.684 E46.75529
G1 X99.216 Y107.832 E46.80721
G0 F3000 X99.458 Y108.154
G1 F600 X100.488 Y107.541 E46.85704
G1 X101.696 Y107.3 E46.90825
G1 X133.436 Y107.3 E48.22785
G1 X134.465 Y107.553 E48.2719
G1 X135.569 Y108.125 E48.3236
G1 X136.346 Y108.958 E48.37095
G1 X136.959 Y109.988 E48.42079
G1 X137.2 Y111.196 E48.472
G1 X137.2 Y123.936 E49.00167
G1 X136.947 Y124.965 E49.04572
G1 X136.375 Y126.069 E49.09742
G1 X135.542 Y126.846 E49.14478
G1 X134.512 Y127.459 E49.19461
G1 X133.304 Y127.7 E49.24582
G1 X101.564 Y127.7 E50.56542
G1 X100.535 Y127.447 E50.60947
G1 X99.431 Y126.875 E50.66117
G1 X98.654 Y126.042 E50.70853
G1 X98.041 Y125.012 E50.75836
G1 X97.8 Y123.804 E50.80957
G1 X97.8 Y111.064 E51.33924
G1 X98.053 Y110.035 E51.38329
G1 X98.625 Y108.931 E51.43499
G1 X99.458 Y108.154 E51.48235
G0 F3000 X99.7 Y108.476
G1 F600 X100.636 Y107.919 E51.52763
G1 X101.734 Y107.7 E51.57418
G1 X133.39 Y107.7 E52.89028
G1 X134.322 Y107.929 E52.93018
G1 X135.322 Y108.447 E52.977
G1 X136.024 Y109.2 E53.0198
G1 X136.581 Y110.136 E53.06509
G1 X136.8 Y111.234 E53.11164
G1 X136.8 Y123.89 E53.63781
G1 X136.571 Y124.822 E53.67771
G1 X136.053 Y125.822 E53.72453
G1 X135.3 Y126.524 E53.76734
G1 X134.364 Y127.081 E53.81262
G1 X133.266 Y127.3 E53.85917
G1 X101.61 Y127.3 E55.17527
G1 X100.678 Y127.071 E55.21517
G1 X99.678 Y126.553 E55.26199
G1 X98.976 Y125.8 E55.30479
G1 X98.419 Y124.864 E55.35008
G1 X98.2 Y123.766 E55.39663
G1 X98.2 Y111.11 E55.9228
G1 X98.429 Y110.178 E55.9627
G1 X98.947 Y109.178 E56.00952
G1 X99.7 Y108.476 E56.05232
G0 F3000 X99.942 Y108.798
G1 F600 X100.784 Y108.297 E56.09306
G1 X101.772 Y108.1 E56.13494
G1 X133.344 Y108.1 E57.44755
G1 X134.179 Y108.305 E57.4833
G1 X135.075 Y108.769 E57.52525
G1 X135.702 Y109.442 E57.56349
G1 X136.203 Y110.284 E57.60423
G1 X136.4 Y111.272 E57.64611
G1 X136.4 Y123.844 E58.16879
G1 X136.195 Y124.679 E58.20454
G1 X135.731 Y125.575 E58.24649
G1 X135.058 Y126.202 E58.28473
G1 X134.216 Y126.703 E58.32547
G1 X133.228 Y126.9 E58.36735
G1 X101.656 Y126.9 E59.67996
G1 X100.821 Y126.695 E59.71571
G1 X99.925 Y126.231 E59.75766
G1 X99.298 Y125.558 E59.7959
G1 X98.797 Y124.716 E59.83663
G1 X98.6 Y123.728 E59.87852
G1 X98.6 Y111.156 E60.4012
G1 X98.805 Y110.321 E60.43695
G1 X99.269 Y109.425 E60.4789
G1 X99.942 Y108.798 E60.51714
G0 F3000 X100.184 Y109.12
G1 F600 X100.932 Y108.675 E60.55333
G1 X101.81 Y108.5 E60.59055
G1 X133.298 Y108.5 E61.89967
G1 X134.036 Y108.681 E61.93126
G1 X134.828 Y109.091 E61.96834
G1 X135.38 Y109.684 E62.00202
G1 X135.825 Y110.432 E62.0382
G1 X136 Y111.31 E62.07542
G1 X136 Y123.798 E62.59462
G1 X135.819 Y124.536 E62.62621
G1 X135.409 Y125.328 E62.66328
G1 X134.816 Y125.88 E62.69697
G1 X134.068 Y126.325 E62.73315
G1 X133.19 Y126.5 E62.77037
G1 X101.702 Y126.5 E64.07949
G1 X100.964 Y126.319 E64.11108
G1 X100.172 Y125.909 E64.14816
G1 X99.62 Y125.316 E64.18184
G1 X99.175 Y124.568 E64.21803
G1 X99 Y123.69 E64.25525
G1 X99 Y111.202 E64.77444
G1 X99.181 Y110.464 E64.80603
G1 X99.591 Y109.672 E64.84311
G1 X100.184 Y109.12 E64.87679
G0 F3000 X100.423 Y109.444
G1 F600 X101.08 Y109.053 E64.90858
G1 X101.848 Y108.9 E64.94114
G1 X133.248 Y108.9 E66.2466
G1 X133.897 Y109.059 E66.27438
G1 X134.583 Y109.414 E66.30649
G1 X135.056 Y109.923 E66.33538
G1 X135.447 Y110.58 E66.36717
G1 X135.6 Y111.348 E66.39972
G1 X135.6 Y123.748 E66.91525
G1 X135.441 Y124.397 E66.94304
G1 X135.086 Y125.083 E66.97515
G1 X134.577 Y125.556 E67.00404
G1 X133.92 Y125.947 E67.03582
G1 X133.152 Y126.1 E67.06838
G1 X101.752 Y126.1 E68.37384
G1 X101.103 Y125.941 E68.40162
G1 X100.417 Y125.586 E68.43373
G1 X99.944 Y125.077 E68.46262
G1 X99.553 Y124.42 E68.49441
G1 X99.4 Y123.652 E68.52697
G1 X99.4 Y111.252 E69.0425
G1 X99.559 Y110.603 E69.07028
G1 X99.914 Y109.917 E69.10239
G1 X100.423 Y109.444 E69.13128
G0 F3000 X100.662 Y109.768
G1 F600 X101.228 Y109.431 E69.15867
G1 X101.886 Y109.3 E69.18656
G1 X133.198 Y109.3 E70.48836
G1 X133.758 Y109.437 E70.51233
G1 X134.338 Y109.737 E70.53948
G1 X134.732 Y110.162 E70.56357
G1 X135.069 Y110.728 E70.59096
G1 X135.2 Y111.386 E70.61885
G1 X135.2 Y123.698 E71.13073
G1 X135.063 Y124.258 E71.15469
G1 X134.763 Y124.838 E71.18184
G1 X134.338 Y125.232 E71.20594
G1 X133.772 Y125.569 E71.23332
G1 X133.114 Y125.7 E71.26122
G1 X101.802 Y125.7 E72.56302
G1 X101.242 Y125.563 E72.58699
G1 X100.662 Y125.263 E72.61414
G1 X100.268 Y124.838 E72.63823
G1 X99.931 Y124.272 E72.66562
G1 X99.8 Y123.614 E72.69351
G1 X99.8 Y111.302 E73.20538
G1 X99.937 Y110.742 E73.22935
G1 X100.237 Y110.162 E73.2565
G1 X100.662 Y109.768 E73.2806
G0 F3000 X100.901 Y110.092
G1 F600 X101.376 Y109.809 E73.30358
G1 X101.924 Y109.7 E73.32681
G1 X133.148 Y109.7 E74.62496
G1 X133.619 Y109.815 E74.64511
G1 X134.092 Y110.06 E74.66726
G1 X134.408 Y110.401 E74.68659
G1 X134.691 Y110.876 E74.70957
G1 X134.8 Y111.424 E74.7328
G1 X134.8 Y123.648 E75.24102
G1 X134.685 Y124.119 E75.26118
G1 X134.44 Y124.592 E75.28332
G1 X134.099 Y124.908 E75.30265
G1 X133.624 Y125.191 E75.32564
G1 X133.076 Y125.3 E75.34887
G1 X101.852 Y125.3 E76.64701
G1 X101.381 Y125.185 E76.66717
G1 X100.908 Y124.94 E76.68932
G1 X100.592 Y124.599 E76.70864
G1 X100.309 Y124.124 E76.73163
G1 X100.2 Y123.576 E76.75486
G1 X100.2 Y111.352 E77.26308
G1 X100.315 Y110.881 E77.28323
G1 X100.56 Y110.408 E77.30538
G1 X100.901 Y110.092 E77.32471
G0 F3000 X101.14 Y110.416
G1 F600 X100.883 Y110.654 E77.33927
G1 X100.693 Y111.02 E77.35642
G1 X100.6 Y111.402 E77.37276
G1 X100.6 Y123.538 E77.87732
G1 X100.687 Y123.976 E77.89588
G1 X100.916 Y124.36 E77.91447
G1 X101.154 Y124.617 E77.92903
G1 X101.52 Y124.807 E77.94618
G1 X101.902 Y124.9 E77.96252
G1 X133.038 Y124.9 E79.25701
G1 X133.476 Y124.813 E79.27557
G1 X133.86 Y124.584 E79.29416
G1 X134.117 Y124.346 E79.30872
G1 X134.307 Y123.98 E79.32587
G1 X134.4 Y123.598 E79.34222
G1 X134.4 Y111.462 E79.84677
G1 X134.313 Y111.024 E79.86534
G1 X134.084 Y110.64 E79.88393
G1 X133.846 Y110.383 E79.89849
G1 X133.48 Y110.193 E79.91563
G1 X133.098 Y110.1 E79.93198
G1 X101.962 Y110.1 E81.22646
G1 X101.524 Y110.187 E81.24503
G1 X101.14 Y110.416 E81.26362
G0 F3000 X101.345 Y110.76
G1 F600 X101.672 Y110.565 E81.27945
G1 X102 Y110.5 E81.29335
G1 X133.049 Y110.5 E82.58421
G1 X133.338 Y110.57 E82.59658
G1 X133.601 Y110.707 E82.60891
G1 X133.74 Y110.845 E82.61705
G1 X133.935 Y111.172 E82.63288
G1 X134 Y111.5 E82.64678
G1 X134 Y123.549 E83.14772
G1 X133.93 Y123.838 E83.16008
G1 X133.793 Y124.101 E83.17241
G1 X133.655 Y124.24 E83.18055
G1 X133.328 Y124.435 E83.19638
G1 X133 Y124.5 E83.21029
G1 X101.951 Y124.5 E84.50115
G1 X101.662 Y124.43 E84.51352
G1 X101.399 Y124.293 E84.52584
G1 X101.26 Y124.155 E84.53399
G1 X101.065 Y123.828 E84.54982
G1 X101 Y123.5 E84.56372
G1 X101 Y111.451 E85.06466
G1 X101.07 Y111.162 E85.07702
G1 X101.207 Y110.899 E85.08935
G1 X101.345 Y110.76 E85.09749
G0 F3000 X101.55 Y111.104
G1 F600 X101.82 Y110.943 E85.11056
G1 X102 Y110.9 E85.11826
G1 X133 Y110.9 E86.40709
G1 X133.244 Y110.959 E86.41752
G1 X133.396 Y111.05 E86.42489
G1 X133.557 Y111.32 E86.43796
G1 X133.6 Y111.5 E86.44565
G1 X133.6 Y123.5 E86.94455
G1 X133.541 Y123.744 E86.95499
G1 X133.45 Y123.896 E86.96236
G1 X133.18 Y124.057 E86.97543
G1 X133 Y124.1 E86.98312
G1 X102 Y124.1 E88.27195
G1 X101.756 Y124.041 E88.28239
G1 X101.604 Y123.95 E88.28975
G1 X101.443 Y123.68 E88.30282
G1 X101.4 Y123.5 E88.31052
G1 X101.4 Y111.5 E88.80942
G1 X101.459 Y111.256 E88.81985
G1 X101.55 Y111.104 E88.82722
G0 F3000 X101.839 Y111.381
G1 F600 X102 Y111.3 E88.83471
G1 X133 Y111.3 E90.12354
G1 X133.119 Y111.339 E90.12875
G1 X133.2 Y111.5 E90.13624
G1 X133.2 Y123.5 E90.63514
G1 X133.161 Y123.619 E90.64035
G1 X133 Y123.7 E90.64784
G1 X102 Y123.7 E91.93667
G1 X101.881 Y123.661 E91.94188
G1 X101.8 Y123.5 E91.94937
G1 X101.8 Y111.5 E92.44827
G1 X101.839 Y111.381 E92.45348
G0 F3000 X102.2 Y111.7
G1 F600 X132.8 Y111.7 E93.72568
G1 X132.8 Y123.3 E94.20795
G1 X102.2 Y123.3 E95.48015
G1 X102.2 Y111.7 E95.96243
G0 F3000 X102.6 Y112.1
G1 F600 X132.4 Y112.1 E97.20137
G1 X132.4 Y122.9 E97.65038
G1 X102.6 Y122.9 E98.88932
G1 X102.6 Y112.1 E99.33833
G0 F3000 X103 Y112.5
G1 F600 X132 Y112.5 E100.54401
G1 X132 Y122.5 E100.95976
G1 X103 Y122.5 E102.16544
G1 X103 Y112.5 E102.58119
G0 F3000 X103.4 Y112.9
G1 F600 X111.398 Y112.9 E102.91371
G1 X111.297 Y113.087 E102.92255
G1 X111.213 Y113.411 E102.93646
G1 X111.2 Y113.6 E102.94434
G1 X111.2 Y121.4 E103.26862
G1 X111.24 Y121.732 E103.28253
G1 X111.357 Y122.044 E103.29638
G1 X111.395 Y122.1 E103.29919
G1 X103.4 Y122.1 E103.63159
G1 X103.4 Y112.9 E104.01408
G0 F3000 X103.8 Y113.3
G1 F600 X110.846 Y113.3 E104.30702
G1 X110.8 Y113.6 E104.31964
G1 X110.8 Y121.4 E104.64392
G1 X110.832 Y121.7 E104.65647
G1 X103.8 Y121.7 E104.94882
G1 X103.8 Y113.3 E105.29805
G0 F3000 X104.2 Y113.7
G1 F600 X110.4 Y113.7 E105.55582
G1 X110.4 Y121.3 E105.87179
G1 X104.2 Y121.3 E106.12956
G1 X104.2 Y113.7 E106.44553
G0 F3000 X104.6 Y114.1
G1 F600 X110 Y114.1 E106.67003
G1 X110 Y120.9 E106.95275
G1 X104.6 Y120.9 E107.17725
G1 X104.6 Y114.1 E107.45996
G0 F3000 X105 Y114.5
G1 F600 X109.6 Y114.5 E107.65121
G1 X109.6 Y120.5 E107.90066
G1 X105 Y120.5 E108.09191
G1 X105 Y114.5 E108.34136
G0 F3000 X105.4 Y114.9
