;FLAVOR:Marlin
;TIME:589
;Filament used: 0.325516m
;Layer height: 0.2
;MINX:104.7
;MINY:110.466
;MINZ:0.25
;MAXX:130.3
;MAXY:125.576
;MAXZ:11.05
;Generated with Cura_SteamEngine 5.3.0
M140 S55
M105
M190 S55
M104 S212
M105
M109 S212
M82 ;absolute extrusion mode
START_PRINT
G92 E0
G92 E0
G1 F3000 E-6.5
;LAYER_COUNT:55
;LAYER:0
M107
G0 X105.06 Y113.658 Z0.25
;TYPE:SKIRT
G1 F3000 E0
G1 F600 X105.401 Y113.342 E0.01933
G1 X105.876 Y113.059 E0.04232
G1 X106.424 Y112.95 E0.06555
G1 X113.95 Y112.95 E0.37844
G1 X113.95 Y112.119 E0.41299
G1 X114.065 Y111.648 E0.43315
G1 X114.31 Y111.175 E0.45529
G1 X114.651 Y110.859 E0.47462
G1 X115.126 Y110.576 E0.49761
G1 X115.674 Y110.467 E0.52084
G1 X116.893 Y110.466 E0.57152
G1 X117.322 Y110.569 E0.58986
G1 X117.518 Y110.658 E0.59881
G1 X117.766 Y110.548 E0.61009
G1 X118.174 Y110.467 E0.62738
G1 X119.393 Y110.466 E0.67806
G1 X119.87 Y110.581 E0.69846
G1 X120.349 Y110.831 E0.72093
G1 X120.653 Y111.165 E0.7397
G1 X120.941 Y111.646 E0.76301
G1 X121.05 Y112.189 E0.78604
G1 X121.05 Y112.95 E0.81768
G1 X128.648 Y112.95 E1.13356
G1 X129.119 Y113.065 E1.15372
G1 X129.592 Y113.31 E1.17587
G1 X129.908 Y113.651 E1.1952
G1 X130.191 Y114.126 E1.21818
G1 X130.3 Y114.674 E1.24141
G1 X130.3 Y116.898 E1.33388
G1 X130.185 Y117.369 E1.35403
G1 X129.94 Y117.842 E1.37618
G1 X129.599 Y118.158 E1.39551
G1 X129.124 Y118.441 E1.4185
G1 X128.576 Y118.55 E1.44173
G1 X122.227 Y118.55 E1.70569
G1 X122.227 Y123.923 E1.92907
G1 X122.112 Y124.394 E1.94923
G1 X121.866 Y124.87 E1.9715
G1 X121.529 Y125.18 E1.99054
G1 X121.041 Y125.47 E2.01414
G1 X120.508 Y125.575 E2.03673
G1 X114.429 Y125.576 E2.28946
G1 X113.953 Y125.461 E2.30982
G1 X113.481 Y125.216 E2.33193
G1 X113.165 Y124.875 E2.35126
G1 X112.882 Y124.4 E2.37425
G1 X112.773 Y123.852 E2.39748
G1 X112.773 Y118.55 E2.61791
G1 X106.352 Y118.55 E2.88486
G1 X105.881 Y118.435 E2.90502
G1 X105.408 Y118.19 E2.92717
G1 X105.092 Y117.849 E2.94649
G1 X104.809 Y117.374 E2.96948
G1 X104.7 Y116.826 E2.99271
G1 X104.7 Y114.602 E3.08517
G1 X104.815 Y114.131 E3.10533
G1 X105.06 Y113.658 E3.12748
G0 F3000 X105.383 Y113.904
G1 F600 X105.64 Y113.666 E3.14204
G1 X106.024 Y113.437 E3.16063
G1 X106.462 Y113.35 E3.1792
G1 X114.35 Y113.35 E3.50714
G1 X114.35 Y112.169 E3.55624
G1 X114.443 Y111.787 E3.57259
G1 X114.633 Y111.421 E3.58973
G1 X114.89 Y111.183 E3.60429
G1 X115.274 Y110.954 E3.62288
G1 X115.712 Y110.867 E3.64145
G1 X116.846 Y110.866 E3.68859
G1 X117.229 Y110.958 E3.70497
G1 X117.515 Y111.108 E3.7184
G1 X117.844 Y110.94 E3.73375
G1 X118.212 Y110.867 E3.74935
G1 X119.346 Y110.866 E3.7965
G1 X119.729 Y110.958 E3.81288
G1 X120.101 Y111.153 E3.83034
G1 X120.332 Y111.406 E3.84458
G1 X120.563 Y111.792 E3.86328
G1 X120.65 Y112.227 E3.88173
G1 X120.65 Y113.35 E3.92841
G1 X128.598 Y113.35 E4.25885
G1 X128.98 Y113.443 E4.2752
G1 X129.346 Y113.633 E4.29234
G1 X129.584 Y113.89 E4.30691
G1 X129.813 Y114.274 E4.3255
G1 X129.9 Y114.712 E4.34406
G1 X129.9 Y116.848 E4.43287
G1 X129.807 Y117.23 E4.44921
G1 X129.617 Y117.596 E4.46636
G1 X129.36 Y117.834 E4.48092
G1 X128.976 Y118.063 E4.49951
G1 X128.538 Y118.15 E4.51807
G1 X121.827 Y118.15 E4.79708
G1 X121.827 Y123.873 E5.03502
G1 X121.734 Y124.255 E5.05136
G1 X121.544 Y124.622 E5.06855
G1 X121.286 Y124.859 E5.08311
G1 X120.895 Y125.091 E5.10201
G1 X120.47 Y125.175 E5.12002
G1 X114.477 Y125.176 E5.36918
G1 X114.093 Y125.083 E5.38561
G1 X113.727 Y124.893 E5.40276
G1 X113.489 Y124.636 E5.41732
G1 X113.26 Y124.252 E5.43591
G1 X113.173 Y123.814 E5.45447
G1 X113.173 Y118.15 E5.68995
G1 X106.402 Y118.15 E5.97146
G1 X106.02 Y118.057 E5.9878
G1 X105.654 Y117.867 E6.00495
G1 X105.416 Y117.61 E6.01951
G1 X105.187 Y117.226 E6.0381
G1 X105.1 Y116.788 E6.05667
G1 X105.1 Y114.652 E6.14547
G1 X105.193 Y114.27 E6.16182
G1 X105.383 Y113.904 E6.17896
G0 F3000 X105.845 Y114.01
G1 F600 X106.172 Y113.815 E6.19479
G1 X106.5 Y113.75 E6.20869
G1 X114.75 Y113.75 E6.55169
G1 X114.75 Y112.218 E6.61538
G1 X114.82 Y111.929 E6.62774
G1 X114.957 Y111.666 E6.64007
G1 X115.095 Y111.527 E6.64821
G1 X115.422 Y111.332 E6.66404
G1 X115.75 Y111.267 E6.67795
G1 X116.798 Y111.266 E6.72152
G1 X117.088 Y111.336 E6.73392
G1 X117.353 Y111.475 E6.74636
G1 X117.498 Y111.625 E6.75503
G1 X117.595 Y111.527 E6.76077
G1 X117.922 Y111.332 E6.7766
G1 X118.25 Y111.267 E6.7905
G1 X119.298 Y111.266 E6.83407
G1 X119.588 Y111.336 E6.84647
G1 X119.853 Y111.475 E6.85891
G1 X119.989 Y111.611 E6.86691
G1 X120.184 Y111.937 E6.8827
G1 X120.25 Y112.266 E6.89665
G1 X120.25 Y113.75 E6.95835
G1 X128.549 Y113.75 E7.30338
G1 X128.838 Y113.82 E7.31574
G1 X129.101 Y113.957 E7.32807
G1 X129.24 Y114.095 E7.33622
G1 X129.435 Y114.422 E7.35205
G1 X129.5 Y114.75 E7.36595
G1 X129.5 Y116.799 E7.45114
G1 X129.43 Y117.088 E7.4635
G1 X129.293 Y117.351 E7.47583
G1 X129.155 Y117.49 E7.48397
G1 X128.828 Y117.685 E7.4998
G1 X128.5 Y117.75 E7.5137
G1 X121.427 Y117.75 E7.80776
G1 X121.427 Y123.824 E8.06029
G1 X121.357 Y124.113 E8.07265
G1 X121.22 Y124.376 E8.08498
G1 X121.082 Y124.515 E8.09312
G1 X120.749 Y124.713 E8.10923
G1 X120.434 Y124.775 E8.12258
G1 X114.525 Y124.776 E8.36825
G1 X114.235 Y124.706 E8.38065
G1 X113.972 Y124.569 E8.39298
G1 X113.833 Y124.431 E8.40112
G1 X113.638 Y124.104 E8.41695
G1 X113.573 Y123.776 E8.43085
G1 X113.573 Y117.75 E8.68138
G1 X106.451 Y117.75 E8.97748
G1 X106.162 Y117.68 E8.98985
G1 X105.899 Y117.543 E9.00217
G1 X105.76 Y117.405 E9.01032
G1 X105.565 Y117.078 E9.02615
G1 X105.5 Y116.75 E9.04005
G1 X105.5 Y114.701 E9.12524
G1 X105.57 Y114.412 E9.1376
G1 X105.707 Y114.149 E9.14993
G1 X105.845 Y114.01 E9.15807
G0 F3000 X106.05 Y114.354
G1 F600 X106.32 Y114.193 E9.17114
G1 X106.5 Y114.15 E9.17883
G1 X115.15 Y114.15 E9.53846
G1 X115.15 Y112.267 E9.61675
G1 X115.209 Y112.023 E9.62718
G1 X115.3 Y111.871 E9.63455
G1 X115.57 Y111.71 E9.64762
G1 X115.75 Y111.667 E9.65531
G1 X116.75 Y111.666 E9.69689
G1 X116.994 Y111.725 E9.70732
G1 X117.146 Y111.817 E9.71471
G1 X117.306 Y112.084 E9.72765
G1 X117.35 Y112.266 E9.73544
G1 X117.35 Y114.15 E9.81376
G1 X117.65 Y114.15 E9.82624
G1 X117.65 Y112.267 E9.90452
G1 X117.709 Y112.023 E9.91496
G1 X117.8 Y111.871 E9.92232
G1 X118.07 Y111.71 E9.93539
G1 X118.25 Y111.667 E9.94309
G1 X119.25 Y111.666 E9.98466
G1 X119.494 Y111.725 E9.9951
G1 X119.646 Y111.817 E10.00249
G1 X119.806 Y112.084 E10.01543
G1 X119.85 Y112.266 E10.02321
G1 X119.85 Y114.15 E10.10154
G1 X128.5 Y114.15 E10.46116
G1 X128.744 Y114.209 E10.4716
G1 X128.896 Y114.3 E10.47897
G1 X129.057 Y114.57 E10.49204
G1 X129.1 Y114.75 E10.49973
G1 X129.1 Y116.75 E10.58288
G1 X129.041 Y116.994 E10.59332
G1 X128.95 Y117.146 E10.60068
G1 X128.68 Y117.307 E10.61375
G1 X128.5 Y117.35 E10.62145
G1 X120.86 Y117.35 E10.93908
G1 X120.984 Y117.57 E10.94958
G1 X121.027 Y117.75 E10.95727
G1 X121.027 Y123.775 E11.20776
G1 X120.968 Y124.019 E11.2182
G1 X120.877 Y124.171 E11.22557
G1 X120.602 Y124.335 E11.23888
G1 X120.434 Y124.375 E11.24606
G1 X114.573 Y124.376 E11.48973
G1 X114.329 Y124.317 E11.50017
G1 X114.177 Y124.226 E11.50753
G1 X114.016 Y123.956 E11.5206
G1 X113.973 Y123.776 E11.5283
G1 X113.973 Y117.75 E11.77883
G1 X114.032 Y117.506 E11.78926
G1 X114.128 Y117.35 E11.79688
G1 X106.5 Y117.35 E12.11402
G1 X106.256 Y117.291 E12.12445
G1 X106.104 Y117.2 E12.13182
G1 X105.943 Y116.93 E12.14489
G1 X105.9 Y116.75 E12.15258
G1 X105.9 Y114.75 E12.23573
G1 X105.959 Y114.506 E12.24617
G1 X106.05 Y114.354 E12.25353
G0 F3000 X106.339 Y114.631
G1 F600 X106.5 Y114.55 E12.26103
G1 X115.55 Y114.55 E12.63728
G1 X115.55 Y112.267 E12.7322
G1 X115.589 Y112.148 E12.7374
G1 X115.75 Y112.067 E12.7449
G1 X116.75 Y112.066 E12.78647
G1 X116.868 Y112.105 E12.79164
G1 X116.95 Y112.266 E12.79915
G1 X116.95 Y114.55 E12.89411
G1 X118.05 Y114.55 E12.93984
G1 X118.05 Y112.267 E13.03476
G1 X118.089 Y112.148 E13.03996
G1 X118.25 Y112.067 E13.04746
G1 X119.25 Y112.066 E13.08903
G1 X119.368 Y112.105 E13.0942
G1 X119.45 Y112.266 E13.10171
G1 X119.45 Y114.55 E13.19667
G1 X128.5 Y114.55 E13.57292
G1 X128.619 Y114.589 E13.57813
G1 X128.7 Y114.75 E13.58562
G1 X128.7 Y116.75 E13.66877
G1 X128.661 Y116.869 E13.67398
G1 X128.5 Y116.95 E13.68147
G1 X120.162 Y116.95 E14.02813
G1 X120.329 Y117.383 E14.04742
G1 X120.434 Y117.552 E14.05569
G1 X120.546 Y117.589 E14.0606
G1 X120.627 Y117.75 E14.06809
G1 X120.627 Y123.775 E14.31858
G1 X120.588 Y123.894 E14.32379
G1 X120.427 Y123.975 E14.33128
G1 X114.573 Y123.976 E14.57466
G1 X114.454 Y123.937 E14.57987
G1 X114.373 Y123.776 E14.58736
G1 X114.373 Y117.75 E14.83789
G1 X114.412 Y117.631 E14.8431
G1 X114.568 Y117.553 E14.85035
G1 X114.641 Y117.4 E14.8574
G1 X114.694 Y117.38 E14.85975
G1 X114.833 Y116.95 E14.87854
G1 X106.5 Y116.95 E15.22499
G1 X106.381 Y116.911 E15.23019
G1 X106.3 Y116.75 E15.23769
G1 X106.3 Y114.75 E15.32084
G1 X106.339 Y114.631 E15.32604
G1 F3000 E8.82604
G0 X106.339 Y114.085
G0 X105.847 Y114.097
G0 X105.847 Y117.403
G0 X114.773 Y117.936
G1 F3000 E15.32604
G1 F600 X114.848 Y117.911 E15.32933
G1 X114.924 Y117.793 E15.33517
G1 X114.94 Y117.72 E15.33827
G1 X114.967 Y117.711 E15.33946
G1 X115.038 Y117.612 E15.34452
G1 X115.202 Y117.11 E15.36648
G1 X119.794 Y117.11 E15.55739
G1 X119.992 Y117.622 E15.58021
G1 X120.059 Y117.703 E15.58458
G1 X120.083 Y117.799 E15.5887
G1 X120.15 Y117.904 E15.59388
G1 X120.227 Y117.932 E15.59728
G1 X120.227 Y123.575 E15.83189
G1 X114.773 Y123.576 E16.05864
G1 X114.773 Y117.936 E16.29313
G0 F3000 X115.173 Y118.141
G1 F600 X115.263 Y118.024 E16.29926
G1 X115.302 Y117.915 E16.30408
G1 X115.418 Y117.736 E16.31294
G1 X115.492 Y117.51 E16.32283
G1 X119.52 Y117.51 E16.4903
G1 X119.619 Y117.766 E16.50171
G1 X119.692 Y117.886 E16.50755
G1 X119.695 Y117.896 E16.50798
G1 X119.785 Y118.094 E16.51702
G1 X119.827 Y118.135 E16.51946
G1 X119.827 Y123.175 E16.729
G1 X115.173 Y123.176 E16.92249
G1 X115.173 Y118.141 E17.13182
G0 F3000 X115.573 Y118.268
G1 F600 X115.634 Y118.175 E17.13645
G1 X115.656 Y118.111 E17.13926
G1 X115.771 Y117.91 E17.14889
G1 X119.246 Y117.91 E17.29336
G1 X119.345 Y118.086 E17.30176
G1 X119.413 Y118.254 E17.30929
G1 X119.427 Y118.272 E17.31024
G1 X119.427 Y122.775 E17.49745
G1 X115.573 Y122.776 E17.65768
G1 X115.573 Y118.268 E17.84511
G0 F3000 X115.973 Y118.378
G1 F600 X115.992 Y118.357 E17.84628
G1 X116.016 Y118.31 E17.84848
G1 X119.003 Y118.31 E17.97266
G1 X119.027 Y118.373 E17.97546
G1 X119.027 Y122.375 E18.14185
G1 X115.973 Y122.376 E18.26882
G1 X115.973 Y118.378 E18.43504
G0 F3000 X116.373 Y118.71
G1 F600 X118.627 Y118.71 E18.52875
G1 X118.627 Y121.975 E18.66449
G1 X116.373 Y121.976 E18.7582
G1 X116.373 Y118.71 E18.89399
G0 F3000 X116.773 Y119.11
G1 F600 X118.227 Y119.11 E18.95444
G1 X118.227 Y121.575 E19.05692
G1 X116.773 Y121.576 E19.11737
G1 X116.773 Y119.11 E19.21989
G0 F3000 X117.173 Y119.51
G1 F600 X117.827 Y119.51 E19.24708
G1 X117.827 Y121.175 E19.31631
G1 X117.173 Y121.176 E19.3435
G1 X117.173 Y119.51 E19.41276
G1 F3000 E12.91276
;MESH:SwitchZ4_V2.stl
G0 X117.173 Y117.415
G0 X117.173 Y116.33
G0 X107.5 Y115.75
;TYPE:WALL-INNER
G1 F3000 E19.41276
G1 F1782.2 X115.883 Y115.75 E19.76477
G1 F1545.1 X116.25 Y115.688 E19.7828
G1 F1558.4 X116.75 Y115.75 E19.80699
G1 F1782.2 X118.383 Y115.75 E19.87556
G1 F1545.1 X118.75 Y115.688 E19.89359
G1 F1558.4 X119.25 Y115.75 E19.91778
G1 F1800 X127.5 Y115.75 E20.26078
G0 F3000 X118.75 Y115.65
G0 X118.75 Y115.023
G1 F1800 X118.688 Y115.161 E20.26707
G1 X118.533 Y115.28 E20.27519
G1 X118.331 Y115.35 E20.28408
G1 X116.75 Y115.35 E20.34981
G1 X116.467 Y115.28 E20.36193
G1 X116.312 Y115.161 E20.37006
G1 X116.25 Y115.023 E20.37635
G1 X116.188 Y115.161 E20.38264
G1 X116.033 Y115.28 E20.39076
G1 X115.831 Y115.35 E20.39965
G1 X107.1 Y115.35 E20.76264
G1 X107.1 Y116.15 E20.7959
G1 X127.9 Y116.15 E21.66066
G1 X127.9 Y115.35 E21.69392
G1 X119.25 Y115.35 E22.05355
G1 X118.967 Y115.28 E22.06567
G1 X118.812 Y115.161 E22.07379
G1 X118.75 Y115.023 E22.08008
G1 F3000 E15.58008
G0 X118.75 Y115.65
G0 X128.03 Y116.28
G0 X128.3 Y116.55
;TYPE:WALL-OUTER
G1 F3000 E22.08008
G1 F1800 X128.3 Y114.95 E22.1466
G1 X119.178 Y114.95 E22.52585
G1 F1600 X119 Y114.772 E22.53763
G1 F1440 X119 Y112.517 E22.65482
G1 X118.5 Y112.517 E22.6808
G1 X118.5 Y114.772 E22.79799
G1 F1600 X118.324 Y114.948 E22.80963
G1 F1800 X116.678 Y114.95 E22.87807
G1 F1600 X116.5 Y114.772 E22.88984
G1 F1440 X116.5 Y112.517 E23.00703
G1 X116 Y112.517 E23.03301
G1 X116 Y114.772 E23.1502
G1 F1600 X115.824 Y114.948 E23.16185
M104 S210
G1 F1800 X106.7 Y114.95 E23.54118
G1 X106.7 Y116.55 E23.6077
G1 X128.3 Y116.55 E24.50572
;MESH:NOMESH
G0 F300 X128.3 Y116.55 Z0.45
G0 F3000 X128.03 Y116.28
G0 X115.204 Y116.25
G0 X115.204 Y117.11
;TIME_ELAPSED:60.777824
;LAYER:1
M140 S50
M106 S85
;TYPE:SUPPORT
G1 F1588.7 X119.794 Y117.11 E24.65839
G1 X120.01 Y117.668 E24.67829
G1 X120.055 Y117.691 E24.67997
G1 X120.097 Y117.838 E24.68505
G1 X120.227 Y117.919 E24.69015
G1 X120.227 Y123.575 E24.87827
G1 X114.773 Y123.575 E25.05967
G1 X114.773 Y117.924 E25.24762
G1 X114.91 Y117.839 E25.25298
G1 X114.943 Y117.716 E25.25722
G1 X115.04 Y117.613 E25.26192
G1 X115.204 Y117.11 E25.27952
G1 F3000 E18.77952
G0 F6000 X115.204 Y116.25
G0 X113.141 Y116.31
G0 X113.141 Y117.415
G0 X113.92 Y124.429
G0 X116.001 Y124.44
G0 X116 Y123.295
G1 F3000 E25.27952
G1 F1588.7 X115.053 Y123.295 E25.31102
G1 X115.053 Y118.044 E25.48567
G1 X115.148 Y117.985 E25.48939
G1 X115.304 Y117.707 E25.49999
G1 X115.407 Y117.39 E25.51108
G1 X116 Y117.39 E25.5308
G1 X119.602 Y117.39 E25.6506
G1 X119.732 Y117.726 E25.66258
G1 X119.854 Y117.979 E25.67193
G1 X119.947 Y118.038 E25.67559
G1 X119.947 Y123.295 E25.85044
G1 X116 Y123.295 E25.98172
G1 X116 Y117.39 E26.17812
G1 F3000 E19.67812
;MESH:SwitchZ4_V2.stl
G0 F6000 X116 Y116.33
G0 X107.5 Y115.75
;TYPE:WALL-INNER
G1 F3000 E26.17812
G1 F1572.9 X115.883 Y115.75 E26.45972
G1 F1363.7 X116.25 Y115.688 E26.47415
G1 F1375.5 X116.75 Y115.75 E26.4935
G1 F1572.9 X118.383 Y115.75 E26.54836
G1 F1363.7 X118.75 Y115.688 E26.56278
G1 F1375.5 X119.25 Y115.75 E26.58214
G1 F1588.7 X127.5 Y115.75 E26.85653
G0 F6000 X118.75 Y115.65
G0 X118.75 Y115.023
G1 F1588.7 X118.688 Y115.161 E26.86156
G1 X118.533 Y115.28 E26.86806
G1 X118.331 Y115.35 E26.87517
G1 X116.75 Y115.35 E26.92776
G1 X116.467 Y115.28 E26.93745
G1 X116.312 Y115.161 E26.94395
G1 X116.25 Y115.023 E26.94899
G1 X116.188 Y115.161 E26.95402
G1 X116.033 Y115.28 E26.96052
G1 X115.831 Y115.35 E26.96763
G1 X107.1 Y115.35 E27.25802
G1 X107.1 Y116.15 E27.28463
G1 X127.9 Y116.15 E27.97644
G1 X127.9 Y115.35 E28.00305
G1 X119.25 Y115.35 E28.29075
G1 X118.967 Y115.28 E28.30044
G1 X118.812 Y115.161 E28.30694
G1 X118.75 Y115.023 E28.31198
G1 F3000 E21.81198
G0 F6000 X118.75 Y115.65
G0 X128.03 Y116.28
G0 X128.3 Y116.55
;TYPE:WALL-OUTER
G1 F3000 E28.31198
G1 F1588.7 X128.3 Y114.95 E28.36519
G1 X119.178 Y114.95 E28.66859
G1 F1412.1 X119 Y114.772 E28.67801
G1 F1270.9 X119 Y112.24 E28.78328
G1 X118.5 Y112.24 E28.80407
G1 X118.5 Y114.772 E28.90933
G1 F1412.1 X118.324 Y114.948 E28.91865
G1 F1588.7 X116.678 Y114.95 E28.97339
G1 F1412.1 X116.5 Y114.772 E28.98281
G1 F1270.9 X116.5 Y112.24 E29.08808
G1 X116 Y112.24 E29.10887
G1 X116 Y114.772 E29.21414
G1 F1412.1 X115.824 Y114.948 E29.22345
G1 F1588.7 X106.7 Y114.95 E29.52692
G1 X106.7 Y116.55 E29.58013
G1 X128.3 Y116.55 E30.29855
;MESH:NOMESH
G0 F300 X128.3 Y116.55 Z0.65
G0 F6000 X128.03 Y116.28
G0 X115.204 Y116.25
G0 X115.204 Y117.11
;TIME_ELAPSED:71.381247
;LAYER:2
M106 S170
;TYPE:SUPPORT
G1 F1707.4 X119.794 Y117.11 E30.45122
G1 X120.01 Y117.668 E30.47112
G1 X120.055 Y117.691 E30.4728
G1 X120.097 Y117.838 E30.47788
G1 X120.227 Y117.919 E30.48298
G1 X120.227 Y123.575 E30.6711
G1 X114.773 Y123.575 E30.8525
G1 X114.773 Y117.924 E31.04045
G1 X114.91 Y117.839 E31.04581
G1 X114.943 Y117.716 E31.05005
G1 X115.04 Y117.613 E31.05475
G1 X115.204 Y117.11 E31.07235
G1 F3000 E24.57235
G0 F9000 X115.204 Y116.25
G0 X113.141 Y116.31
G0 X113.141 Y117.415
G0 X113.92 Y124.429
G0 X116.001 Y124.44
G0 X116 Y123.295
G1 F3000 E31.07235
G1 F1707.4 X115.053 Y123.295 E31.10385
G1 X115.053 Y118.044 E31.2785
G1 X115.148 Y117.985 E31.28222
G1 X115.304 Y117.707 E31.29282
G1 X115.407 Y117.39 E31.3039
G1 X116 Y117.39 E31.32363
G1 X119.602 Y117.39 E31.44343
