;FLAVOR:Marlin
;TIME:12519
;Filament used: 7.93605m
;Layer height: 0.2
;MINX:42.137
;MINY:41.205
;MINZ:0.25
;MAXX:192.863
;MAXY:193.795
;MAXZ:30.05
;Generated with Cura_SteamEngine 5.3.0
M140 S85
M105
M190 S85
M104 S240
M105
M109 S240
M82 ;absolute extrusion mode
START_PRINT
G92 E0
G92 E0
G1 F1500 E-8
;LAYER_COUNT:150
;LAYER:0
M107
G0 F6000 X63.105 Y63.853 Z0.25
;TYPE:SKIRT
G1 F1500 E0
G1 F1200 X68.923 Y58.528 E0.3279
G1 X69.283 Y58.331 E0.34496
G1 X69.805 Y58.235 E0.36703
G1 X70.249 Y58.294 E0.38565
G1 X70.599 Y58.497 E0.40247
G1 X70.831 Y58.698 E0.41524
G1 X71.029 Y58.993 E0.43001
G1 X71.16 Y59.333 E0.44516
G1 X71.183 Y59.794 E0.46435
G1 X71.097 Y60.133 E0.47889
G1 X69.436 Y63.879 E0.64925
G1 X68.485 Y67.674 E0.81191
G1 X68.203 Y71.573 E0.97443
G1 X68.6 Y75.469 E1.13725
G1 X69.657 Y79.226 E1.29951
G1 X71.357 Y82.763 E1.46266
G1 X73.632 Y85.944 E1.62526
G1 X76.407 Y88.67 E1.78698
G1 X79.641 Y90.895 E1.95018
G1 X83.208 Y92.53 E2.11332
G1 X86.97 Y93.516 E2.27501
G1 X90.891 Y93.84 E2.43858
G1 X94.773 Y93.49 E2.60063
G1 X98.554 Y92.471 E2.76343
G1 X102.086 Y90.819 E2.92555
G1 X105.306 Y88.566 E3.08893
G1 X108.067 Y85.816 E3.25095
G1 X110.313 Y82.628 E3.41308
G1 X111.989 Y79.073 E3.57648
G1 X113.026 Y75.297 E3.73928
G1 X113.388 Y71.416 E3.90133
G1 X113.077 Y67.505 E4.06445
G1 X112.103 Y63.722 E4.22686
G1 X110.487 Y60.168 E4.38917
G1 X108.274 Y56.926 E4.55237
G1 X105.555 Y54.137 E4.7143
G1 X102.383 Y51.852 E4.87683
G1 X98.855 Y50.14 E5.03987
G1 X95.096 Y49.064 E5.20243
G1 X91.047 Y48.639 E5.37169
G1 X90.609 Y48.499 E5.39081
G1 X90.461 Y48.413 E5.39792
G1 X90.094 Y48.077 E5.41861
G1 X89.906 Y47.667 E5.43736
G1 X89.849 Y47.112 E5.46056
G1 X89.958 Y46.687 E5.4788
G1 X90.154 Y46.381 E5.49391
G1 X90.436 Y46.102 E5.5104
G1 X90.811 Y45.916 E5.5278
G1 X98.254 Y43.565 E5.85232
G1 X105.761 Y42.008 E6.17106
G1 X113.526 Y41.205 E6.49562
G1 X121.474 Y41.205 E6.82606
G1 X129.239 Y42.008 E7.15061
G1 X136.746 Y43.565 E7.46936
G1 X144.229 Y45.928 E7.79561
G1 X144.629 Y46.151 E7.81465
G1 X144.757 Y46.264 E7.82175
G1 X145.05 Y46.666 E7.84243
G1 X145.154 Y47.108 E7.8613
G1 X145.097 Y47.665 E7.88458
G1 X144.932 Y48.001 E7.90015
G1 X144.701 Y48.286 E7.9154
G1 X144.317 Y48.536 E7.93445
G1 X143.915 Y48.643 E7.95174
G1 X139.904 Y49.064 E8.11942
G1 X136.145 Y50.14 E8.28197
G1 X132.617 Y51.852 E8.44501
G1 X129.445 Y54.137 E8.60754
G1 X126.726 Y56.926 E8.76948
G1 X124.513 Y60.168 E8.93267
G1 X122.896 Y63.725 E9.09512
G1 X121.923 Y67.505 E9.2574
G1 X121.612 Y71.42 E9.42068
G1 X121.974 Y75.297 E9.58256
G1 X123.011 Y79.073 E9.74536
G1 X124.687 Y82.628 E9.90877
G1 X126.933 Y85.816 E10.0709
G1 X129.694 Y88.566 E10.23291
G1 X132.914 Y90.819 E10.3963
G1 X136.446 Y92.471 E10.55841
G1 X140.227 Y93.49 E10.72121
G1 X144.109 Y93.84 E10.88326
G1 X148.03 Y93.516 E11.04684
G1 X151.792 Y92.53 E11.20852
G1 X155.359 Y90.895 E11.37166
G1 X158.593 Y88.67 E11.53486
G1 X161.368 Y85.944 E11.69659
G1 X163.643 Y82.763 E11.85918
G1 X165.343 Y79.226 E12.02233
G1 X166.4 Y75.469 E12.1846
G1 X166.797 Y71.57 E12.34754
G1 X166.515 Y67.674 E12.50994
G1 X165.563 Y63.876 E12.67272
G1 X163.884 Y60.103 E12.84442
G1 X163.812 Y59.703 E12.86132
G1 X163.886 Y59.176 E12.88344
G1 X164.081 Y58.776 E12.90194
G1 X164.455 Y58.448 E12.92262
G1 X164.611 Y58.364 E12.92999
G1 X165.049 Y58.241 E12.9489
G1 X165.417 Y58.256 E12.96422
G1 X165.796 Y58.361 E12.98057
G1 X166.149 Y58.594 E12.99815
G1 X171.893 Y63.851 E13.32188
G1 X177.02 Y69.603 E13.64223
G1 X181.663 Y76.029 E13.97183
G1 X185.543 Y82.757 E14.29473
G1 X188.696 Y89.787 E14.61505
G1 X191.184 Y97.317 E14.94476
G1 X192.847 Y104.861 E15.26593
G1 X192.853 Y105.32 E15.28502
G1 X192.819 Y105.487 E15.2921
G1 X192.664 Y105.838 E15.30805
G1 X192.439 Y106.132 E15.32344
G1 X192.011 Y106.407 E15.3446
G1 X191.706 Y106.487 E15.3577
G1 X191.407 Y106.508 E15.37017
G1 X191.045 Y106.452 E15.3854
G1 X190.636 Y106.245 E15.40445
G1 X190.337 Y105.946 E15.42203
G1 X187.957 Y102.673 E15.59028
G1 X185.164 Y99.969 E15.7519
G1 X181.921 Y97.77 E15.91481
G1 X178.359 Y96.17 E16.07715
G1 X174.554 Y95.201 E16.24039
G1 X170.66 Y94.907 E16.40275
G1 X166.766 Y95.288 E16.56541
G1 X163.007 Y96.33 E16.72759
G1 X159.472 Y98.014 E16.89038
G1 X156.271 Y100.287 E17.0536
G1 X153.537 Y103.053 E17.2153
G1 X151.302 Y106.273 E17.37826
G1 X149.66 Y109.822 E17.54083
G1 X148.652 Y113.619 E17.70416
G1 X148.312 Y117.498 E17.86605
G1 X148.652 Y121.381 E18.0281
G1 X149.66 Y125.178 E18.19143
G1 X151.302 Y128.727 E18.35401
G1 X153.537 Y131.947 E18.51697
G1 X156.271 Y134.713 E18.67866
G1 X159.472 Y136.985 E18.84186
G1 X163.008 Y138.67 E19.00471
G1 X166.766 Y139.712 E19.16684
G1 X170.66 Y140.093 E19.32951
G1 X174.554 Y139.799 E19.49186
G1 X178.359 Y138.83 E19.65511
G1 X181.921 Y137.23 E19.81745
G1 X185.164 Y135.031 E19.98035
G1 X187.957 Y132.327 E20.14197
G1 X190.395 Y128.974 E20.31433
G1 X190.786 Y128.645 E20.33558
G1 X191.221 Y128.508 E20.35454
G1 X191.592 Y128.484 E20.36999
G1 X192.093 Y128.628 E20.39167
G1 X192.263 Y128.727 E20.39984
G1 X192.55 Y129.008 E20.41654
G1 X192.748 Y129.319 E20.43187
G1 X192.863 Y129.762 E20.4509
G1 X192.839 Y130.178 E20.46822
G1 X191.184 Y137.683 E20.78774
G1 X188.697 Y145.211 E21.11736
G1 X185.562 Y152.205 E21.43601
G1 X181.586 Y159.088 E21.76648
G1 X177.021 Y165.396 E22.09021
G1 X171.895 Y171.147 E22.4105
G1 X166.077 Y176.472 E22.7384
G1 X165.717 Y176.669 E22.75547
G1 X165.195 Y176.765 E22.77753
G1 X164.751 Y176.706 E22.79615
G1 X164.401 Y176.503 E22.81298
G1 X164.169 Y176.302 E22.82574
G1 X163.971 Y176.007 E22.84051
G1 X163.84 Y175.667 E22.85566
G1 X163.817 Y175.206 E22.87485
G1 X163.903 Y174.867 E22.88939
G1 X165.564 Y171.121 E23.05975
G1 X166.515 Y167.326 E23.22241
G1 X166.797 Y163.427 E23.38493
G1 X166.4 Y159.531 E23.54775
G1 X165.343 Y155.774 E23.71001
G1 X163.643 Y152.237 E23.87317
G1 X161.368 Y149.056 E24.03576
G1 X158.593 Y146.33 E24.19748
G1 X155.359 Y144.105 E24.36069
G1 X151.792 Y142.47 E24.52382
G1 X148.03 Y141.484 E24.68551
G1 X144.109 Y141.16 E24.84908
G1 X140.227 Y141.51 E25.01113
G1 X136.446 Y142.529 E25.17393
G1 X132.914 Y144.181 E25.33605
G1 X129.694 Y146.434 E25.49943
G1 X126.933 Y149.184 E25.66145
G1 X124.687 Y152.372 E25.82358
G1 X123.011 Y155.927 E25.98698
G1 X121.974 Y159.703 E26.14978
G1 X121.612 Y163.584 E26.31183
G1 X121.923 Y167.495 E26.47495
G1 X122.896 Y171.275 E26.63723
G1 X124.513 Y174.832 E26.79967
G1 X126.726 Y178.074 E26.96287
G1 X129.445 Y180.863 E27.1248
G1 X132.617 Y183.148 E27.28734
G1 X136.146 Y184.86 E27.45041
G1 X139.904 Y185.936 E27.61293
G1 X143.955 Y186.361 E27.78227
G1 X144.393 Y186.501 E27.80139
G1 X144.541 Y186.587 E27.8085
G1 X144.908 Y186.923 E27.82919
G1 X145.096 Y187.333 E27.84794
G1 X145.153 Y187.888 E27.87114
G1 X145.044 Y188.313 E27.88938
G1 X144.848 Y188.619 E27.90449
G1 X144.566 Y188.898 E27.92098
G1 X144.191 Y189.084 E27.93838
G1 X136.746 Y191.435 E28.26298
G1 X129.239 Y192.992 E28.58172
G1 X121.474 Y193.795 E28.90628
G1 X113.526 Y193.795 E29.23672
G1 X105.761 Y192.992 E29.56127
G1 X98.254 Y191.435 E29.88002
G1 X90.773 Y189.072 E30.20619
G1 X90.373 Y188.849 E30.22523
G1 X90.245 Y188.736 E30.23233
G1 X89.952 Y188.334 E30.25301
G1 X89.848 Y187.892 E30.27189
G1 X89.905 Y187.335 E30.29516
G1 X90.07 Y186.999 E30.31073
G1 X90.301 Y186.714 E30.32598
G1 X90.685 Y186.464 E30.34503
G1 X91.087 Y186.357 E30.36232
G1 X95.096 Y185.936 E30.52992
G1 X98.854 Y184.86 E30.69243
G1 X102.383 Y183.148 E30.85551
G1 X105.555 Y180.863 E31.01804
G1 X108.274 Y178.074 E31.17997
G1 X110.487 Y174.832 E31.34317
G1 X112.104 Y171.275 E31.50561
G1 X113.077 Y167.495 E31.66789
G1 X113.388 Y163.58 E31.83117
G1 X113.026 Y159.703 E31.99306
G1 X111.989 Y155.927 E32.15586
G1 X110.313 Y152.372 E32.31926
G1 X108.067 Y149.184 E32.48139
G1 X105.306 Y146.434 E32.64341
G1 X102.086 Y144.181 E32.80679
G1 X98.554 Y142.529 E32.96891
G1 X94.773 Y141.51 E33.13171
G1 X90.891 Y141.16 E33.29376
G1 X86.97 Y141.484 E33.45733
G1 X83.208 Y142.47 E33.61902
G1 X79.641 Y144.105 E33.78216
G1 X76.407 Y146.33 E33.94536
G1 X73.632 Y149.056 E34.10708
G1 X71.357 Y152.237 E34.26968
G1 X69.657 Y155.774 E34.43283
G1 X68.6 Y159.531 E34.59509
G1 X68.203 Y163.43 E34.75803
G1 X68.485 Y167.326 E34.92043
G1 X69.436 Y171.121 E35.08309
G1 X71.116 Y174.897 E35.25491
G1 X71.188 Y175.297 E35.27181
G1 X71.114 Y175.824 E35.29394
G1 X70.919 Y176.224 E35.31244
G1 X70.545 Y176.552 E35.33312
G1 X70.389 Y176.636 E35.34048
G1 X69.951 Y176.759 E35.3594
G1 X69.583 Y176.744 E35.37471
G1 X69.204 Y176.639 E35.39106
G1 X68.851 Y176.406 E35.40865
G1 X63.105 Y171.147 E35.73249
G1 X57.978 Y165.396 E36.05281
G1 X53.336 Y158.969 E36.38242
G1 X49.456 Y152.241 E36.70532
G1 X46.303 Y145.211 E37.02564
G1 X43.816 Y137.683 E37.35526
G1 X42.153 Y130.139 E37.67643
G1 X42.147 Y129.68 E37.69551
G1 X42.181 Y129.513 E37.7026
G1 X42.336 Y129.162 E37.71855
G1 X42.561 Y128.868 E37.73394
G1 X42.989 Y128.593 E37.75509
G1 X43.294 Y128.513 E37.7682
G1 X43.593 Y128.492 E37.78067
G1 X43.955 Y128.548 E37.79589
G1 X44.364 Y128.755 E37.81495
G1 X44.663 Y129.054 E37.83253
G1 X47.043 Y132.327 E38.00078
G1 X49.836 Y135.031 E38.1624
G1 X53.079 Y137.23 E38.32531
G1 X56.641 Y138.83 E38.48765
G1 X60.446 Y139.799 E38.65089
G1 X64.34 Y140.093 E38.81325
G1 X68.234 Y139.712 E38.97591
G1 X71.992 Y138.67 E39.13805
G1 X75.528 Y136.985 E39.3009
G1 X78.729 Y134.713 E39.46409
G1 X81.463 Y131.947 E39.62579
G1 X83.698 Y128.727 E39.78875
G1 X85.34 Y125.178 E39.95132
G1 X86.348 Y121.381 E40.11465
G1 X86.688 Y117.498 E40.27671
G1 X86.348 Y113.619 E40.43859
G1 X85.339 Y109.819 E40.60205
G1 X83.698 Y106.273 E40.7645
G1 X81.463 Y103.053 E40.92746
G1 X78.729 Y100.287 E41.08915
G1 X75.528 Y98.014 E41.25237
G1 X71.993 Y96.33 E41.41517
G1 X68.234 Y95.288 E41.57734
G1 X64.34 Y94.907 E41.74001
G1 X60.446 Y95.201 E41.90236
G1 X56.641 Y96.17 E42.06561
G1 X53.079 Y97.77 E42.22795
G1 X49.836 Y99.969 E42.39085
G1 X47.043 Y102.673 E42.55247
G1 X44.605 Y106.026 E42.72483
G1 X44.214 Y106.355 E42.74608
G1 X43.779 Y106.492 E42.76504
G1 X43.408 Y106.516 E42.78049
G1 X42.907 Y106.372 E42.80217
G1 X42.737 Y106.273 E42.81034
G1 X42.45 Y105.992 E42.82704
G1 X42.252 Y105.681 E42.84237
G1 X42.137 Y105.238 E42.8614
G1 X42.161 Y104.822 E42.87872
G1 X43.816 Y97.317 E43.19824
G1 X46.303 Y89.789 E43.52786
G1 X49.438 Y82.795 E43.84651
G1 X53.414 Y75.912 E44.17698
G1 X57.978 Y69.604 E44.50069
G1 X63.105 Y63.853 E44.821
G0 F6000 X63.404 Y64.119
G1 F1200 X69.157 Y58.856 E45.14517
G1 X69.42 Y58.712 E45.15764
G1 X69.816 Y58.639 E45.17438
G1 X70.116 Y58.679 E45.18696
G1 X70.398 Y58.843 E45.20053
G1 X70.529 Y58.966 E45.208
G1 X70.697 Y59.216 E45.22052
G1 X70.764 Y59.418 E45.22937
G1 X70.781 Y59.751 E45.24323
G1 X70.709 Y60.034 E45.25537
G1 X69.056 Y63.749 E45.42442
G1 X68.088 Y67.611 E45.58995
G1 X67.801 Y71.579 E45.75535
G1 X68.205 Y75.543 E45.92101
G1 X69.282 Y79.37 E46.0863
G1 X71.01 Y82.965 E46.25213
G1 X73.326 Y86.203 E46.41764
G1 X76.156 Y88.983 E46.58257
G1 X79.442 Y91.244 E46.74841
G1 X83.07 Y92.907 E46.91433
G1 X86.905 Y93.912 E47.07916
G1 X90.888 Y94.242 E47.24532
G1 X94.844 Y93.885 E47.41046
G1 X98.69 Y92.848 E47.57607
G1 X102.289 Y91.165 E47.74125
G1 X105.561 Y88.876 E47.90726
G1 X108.375 Y86.073 E48.07239
G1 X110.662 Y82.827 E48.23748
G1 X112.366 Y79.213 E48.40359
G1 X113.42 Y75.372 E48.56919
G1 X113.79 Y71.416 E48.73438
G1 X113.474 Y67.442 E48.90012
G1 X112.481 Y63.589 E49.06554
G1 X110.836 Y59.969 E49.23085
G1 X108.586 Y56.674 E49.39674
G1 X105.813 Y53.829 E49.56191
G1 X102.59 Y51.507 E49.72706
G1 X98.998 Y49.764 E49.89305
G1 X95.174 Y48.67 E50.05841
G1 X91.129 Y48.245 E50.22751
G1 X90.731 Y48.118 E50.24488
G1 X90.423 Y47.836 E50.26224
G1 X90.297 Y47.562 E50.27478
G1 X90.254 Y47.141 E50.29237
G1 X90.329 Y46.85 E50.30487
G1 X90.435 Y46.666 E50.31369
G1 X90.673 Y46.431 E50.3276
G1 X90.932 Y46.297 E50.33972
G1 X98.335 Y43.957 E50.66251
G1 X105.842 Y42.4 E50.98126
G1 X113.567 Y41.603 E51.30413
G1 X121.433 Y41.603 E51.63116
G1 X129.158 Y42.4 E51.95404
G1 X136.665 Y43.957 E52.27278
G1 X144.07 Y46.297 E52.59565
G1 X144.434 Y46.5 E52.61298
G1 X144.68 Y46.837 E52.63033
G1 X144.749 Y47.132 E52.64292
G1 X144.706 Y47.554 E52.66056
G1 X144.573 Y47.825 E52.67311
G1 X144.432 Y47.984 E52.68195
G1 X144.154 Y48.165 E52.69574
G1 X143.873 Y48.245 E52.70788
G1 X139.826 Y48.67 E52.87706
G1 X136.002 Y49.764 E53.04243
G1 X132.41 Y51.507 E53.20842
G1 X129.187 Y53.829 E53.37357
G1 X126.414 Y56.674 E53.53874
G1 X124.163 Y59.971 E53.70471
G1 X122.518 Y63.589 E53.86995
G1 X121.526 Y67.442 E54.03536
G1 X121.21 Y71.42 E54.20127
G1 X121.58 Y75.372 E54.36629
G1 X122.634 Y79.213 E54.53189
G1 X124.338 Y82.827 E54.698
G1 X126.625 Y86.073 E54.86309
G1 X129.439 Y88.876 E55.02822
G1 X132.711 Y91.165 E55.19424
G1 X136.31 Y92.848 E55.35942
G1 X140.156 Y93.885 E55.52502
G1 X144.112 Y94.242 E55.69016
G1 X148.095 Y93.912 E55.85633
G1 X151.93 Y92.907 E56.02115
G1 X155.558 Y91.244 E56.18708
G1 X158.844 Y88.983 E56.35291
G1 X161.674 Y86.203 E56.51784
G1 X163.99 Y82.965 E56.68335
G1 X165.718 Y79.37 E56.84918
G1 X166.795 Y75.543 E57.01447
G1 X167.199 Y71.576 E57.18025
G1 X166.912 Y67.611 E57.34553
G1 X165.943 Y63.746 E57.51119
G1 X164.27 Y59.987 E57.68225
G1 X164.217 Y59.694 E57.69463
G1 X164.273 Y59.295 E57.71138
G1 X164.405 Y59.024 E57.72391
G1 X164.719 Y58.749 E57.74127
G1 X165.097 Y58.643 E57.75759
G1 X165.311 Y58.642 E57.76649
G1 X165.63 Y58.73 E57.78024
G1 X165.879 Y58.889 E57.79253
G1 X171.594 Y64.117 E58.11455
G1 X176.721 Y69.869 E58.4349
G1 X181.316 Y76.229 E58.76111
G1 X185.196 Y82.957 E59.084
G1 X188.331 Y89.951 E59.40266
G1 X190.793 Y97.403 E59.72895
G1 X192.448 Y104.908 E60.04846
G1 X192.453 Y105.325 E60.0658
G1 X192.317 Y105.633 E60.0798
G1 X192.164 Y105.833 E60.09027
G1 X191.848 Y106.036 E60.10588
G1 X191.678 Y106.088 E60.11327
G1 X191.379 Y106.109 E60.12574
G1 X191.17 Y106.067 E60.1346
G1 X190.875 Y105.918 E60.14834
G1 X190.661 Y105.711 E60.16072
G1 X188.263 Y102.413 E60.33025
G1 X185.414 Y99.655 E60.4951
G1 X182.117 Y97.419 E60.66073
G1 X178.49 Y95.79 E60.82603
G1 X174.621 Y94.805 E60.99202
G1 X170.657 Y94.505 E61.15729
G1 X166.694 Y94.893 E61.32284
G1 X162.865 Y95.955 E61.48804
G1 X159.267 Y97.669 E61.65374
G1 X156.014 Y99.979 E61.81961
G1 X153.225 Y102.8 E61.98454
G1 X150.954 Y106.072 E62.15013
G1 X149.281 Y109.688 E62.31577
G1 X148.257 Y113.544 E62.48164
G1 X147.911 Y117.498 E62.64666
G1 X148.257 Y121.456 E62.81184
G1 X149.281 Y125.312 E62.97771
G1 X150.954 Y128.928 E63.14336
G1 X153.225 Y132.2 E63.30895
G1 X156.014 Y135.021 E63.47387
G1 X159.267 Y137.33 E63.63972
G1 X162.866 Y139.045 E63.80547
G1 X166.694 Y140.107 E63.97063
G1 X170.657 Y140.495 E64.13618
G1 X174.621 Y140.195 E64.30146
G1 X178.49 Y139.21 E64.46744
G1 X182.117 Y137.581 E64.63275
G1 X185.414 Y135.345 E64.79837
G1 X188.263 Y132.587 E64.96323
G1 X190.69 Y129.249 E65.13481
G1 X190.982 Y129.003 E65.15069
G1 X191.297 Y128.904 E65.16441
G1 X191.547 Y128.888 E65.17483
G1 X191.983 Y129.013 E65.19369
G1 X192.27 Y129.294 E65.21038
G1 X192.377 Y129.479 E65.21927
G1 X192.46 Y129.8 E65.23305
G1 X192.448 Y130.092 E65.2452
G1 X190.793 Y137.597 E65.56472
G1 X188.332 Y145.047 E65.89092
G1 X185.197 Y152.041 E66.20957
G1 X181.262 Y158.854 E66.53667
G1 X176.722 Y165.13 E66.85871
G1 X171.596 Y170.881 E67.179
G1 X165.843 Y176.144 E67.50317
G1 X165.58 Y176.288 E67.51564
G1 X165.184 Y176.361 E67.53238
G1 X164.884 Y176.321 E67.54496
G1 X164.602 Y176.157 E67.55853
G1 X164.471 Y176.034 E67.566
G1 X164.303 Y175.784 E67.57852
G1 X164.236 Y175.582 E67.58737
G1 X164.219 Y175.249 E67.60123
G1 X164.291 Y174.966 E67.61337
G1 X165.944 Y171.251 E67.78242
G1 X166.912 Y167.389 E67.94795
G1 X167.199 Y163.421 E68.11335
G1 X166.795 Y159.457 E68.27901
G1 X165.718 Y155.63 E68.4443
G1 X163.99 Y152.035 E68.61013
G1 X161.674 Y148.797 E68.77564
G1 X158.844 Y146.017 E68.94057
G1 X155.558 Y143.756 E69.1064
G1 X151.93 Y142.093 E69.27233
G1 X148.095 Y141.088 E69.43716
G1 X144.112 Y140.758 E69.60332
G1 X140.156 Y141.115 E69.76846
G1 X136.31 Y142.152 E69.93406
G1 X132.711 Y143.835 E70.09925
G1 X129.439 Y146.124 E70.26526
G1 X126.625 Y148.927 E70.43039
G1 X124.338 Y152.173 E70.59548
G1 X122.634 Y155.787 E70.76159
G1 X121.58 Y159.628 E70.92719
