;FLAVOR:Marlin
;TIME:11272
;Filament used: 8.14613m
;Layer height: 0.2
;MINX:90.7
;MINY:79.62
;MINZ:0.25
;MAXX:144.3
;MAXY:153.372
;MAXZ:56.65
;Generated with Cura_SteamEngine 5.3.0
M140 S55
M105
M190 S55
M104 S212
M105
M109 S212
M82 ;absolute extrusion mode
START_PRINT
G92 E0
G92 E0
G1 F3000 E-6.5
;LAYER_COUNT:283
;LAYER:0
M107
G0 X91.06 Y80.328 Z0.25
;TYPE:SKIRT
G1 F3000 E0
G1 F600 X91.401 Y80.012 E0.01933
G1 X91.876 Y79.729 E0.04232
G1 X92.424 Y79.62 E0.06555
G1 X142.648 Y79.62 E2.15362
G1 X143.119 Y79.735 E2.17377
G1 X143.592 Y79.98 E2.19592
G1 X143.908 Y80.321 E2.21525
G1 X144.191 Y80.796 E2.23824
G1 X144.3 Y81.344 E2.26147
G1 X144.3 Y149.146 E5.08035
G1 X144.185 Y149.617 E5.1005
G1 X143.94 Y150.09 E5.12265
G1 X143.599 Y150.406 E5.14198
G1 X143.124 Y150.689 E5.16497
G1 X142.576 Y150.798 E5.18819
G1 X92.352 Y150.798 E7.27627
G1 X91.881 Y150.683 E7.29642
G1 X91.408 Y150.438 E7.31857
G1 X91.092 Y150.097 E7.3379
G1 X90.809 Y149.622 E7.36089
G1 X90.7 Y149.074 E7.38412
G1 X90.7 Y81.272 E10.20299
G1 X90.815 Y80.801 E10.22315
G1 X91.06 Y80.328 E10.2453
G0 F3000 X91.383 Y80.574
G1 F600 X91.193 Y80.94 E10.26244
G1 X91.1 Y81.322 E10.27879
G1 X91.1 Y149.036 E13.09401
G1 X91.187 Y149.474 E13.11258
G1 X91.416 Y149.858 E13.13116
G1 X91.654 Y150.115 E13.14573
G1 X92.02 Y150.305 E13.16287
G1 X92.402 Y150.398 E13.17922
G1 X142.538 Y150.398 E15.26363
G1 X142.976 Y150.311 E15.28219
G1 X143.36 Y150.082 E15.30078
G1 X143.617 Y149.844 E15.31535
G1 X143.807 Y149.478 E15.33249
G1 X143.9 Y149.096 E15.34884
G1 X143.9 Y81.382 E18.16406
G1 X143.813 Y80.944 E18.18262
G1 X143.584 Y80.56 E18.20121
G1 X143.346 Y80.303 E18.21577
G1 X142.98 Y80.113 E18.23292
G1 X142.598 Y80.02 E18.24926
G1 X92.462 Y80.02 E20.33368
G1 X92.024 Y80.107 E20.35224
G1 X91.64 Y80.336 E20.37083
G1 X91.383 Y80.574 E20.38539
G0 F3000 X91.707 Y80.819
G1 F600 X91.845 Y80.68 E20.39354
G1 X92.172 Y80.485 E20.40937
G1 X92.5 Y80.42 E20.42327
G1 X142.549 Y80.42 E22.50406
G1 X142.838 Y80.49 E22.51643
G1 X143.101 Y80.627 E22.52875
G1 X143.24 Y80.765 E22.5369
G1 X143.435 Y81.092 E22.55273
G1 X143.5 Y81.42 E22.56663
G1 X143.5 Y149.047 E25.37823
G1 X143.43 Y149.336 E25.3906
G1 X143.293 Y149.599 E25.40292
G1 X143.155 Y149.738 E25.41107
G1 X142.828 Y149.933 E25.4269
G1 X142.5 Y149.998 E25.4408
G1 X92.451 Y149.998 E27.52159
G1 X92.162 Y149.928 E27.53396
G1 X91.899 Y149.791 E27.54629
G1 X91.76 Y149.653 E27.55443
G1 X91.565 Y149.326 E27.57026
G1 X91.5 Y148.998 E27.58416
G1 X91.5 Y81.371 E30.39576
G1 X91.57 Y81.082 E30.40813
G1 X91.707 Y80.819 E30.42045
G0 F3000 X92.05 Y81.024
G1 F600 X92.32 Y80.863 E30.43352
G1 X92.5 Y80.82 E30.44122
G1 X142.5 Y80.82 E32.51998
G1 X142.744 Y80.879 E32.53041
G1 X142.896 Y80.97 E32.53778
G1 X143.057 Y81.24 E32.55085
G1 X143.1 Y81.42 E32.55854
G1 X143.1 Y148.998 E35.36811
G1 X143.041 Y149.242 E35.37855
G1 X142.95 Y149.394 E35.38591
G1 X142.68 Y149.555 E35.39898
G1 X142.5 Y149.598 E35.40667
G1 X92.5 Y149.598 E37.48543
G1 X92.256 Y149.539 E37.49587
G1 X92.104 Y149.448 E37.50324
G1 X91.943 Y149.178 E37.5163
G1 X91.9 Y148.998 E37.524
G1 X91.9 Y81.42 E40.33357
G1 X91.959 Y81.176 E40.344
G1 X92.05 Y81.024 E40.35137
G0 F3000 X92.339 Y81.301
G1 F600 X92.5 Y81.22 E40.35886
G1 X142.5 Y81.22 E42.43762
G1 X142.619 Y81.259 E42.44283
G1 X142.7 Y81.42 E42.45032
G1 X142.7 Y147.341 E45.191
G1 X142.652 Y147.465 E45.19652
G1 X142.7 Y147.56 E45.20095
G1 X142.7 Y148.998 E45.26073
G1 X142.661 Y149.117 E45.26594
G1 X142.5 Y149.198 E45.27343
G1 X92.5 Y149.198 E47.35219
G1 X92.381 Y149.159 E47.3574
G1 X92.3 Y148.998 E47.36489
G1 X92.3 Y147.56 E47.42468
G1 X92.348 Y147.436 E47.4302
G1 X92.3 Y147.341 E47.43463
G1 X92.3 Y81.42 E50.17531
G1 X92.339 Y81.301 E50.18051
G1 F3000 E43.68051
;MESH:porta_pennello_da_barbaM.stl
G0 X92.914 Y81.834
G0 X141.1 Y145.941
;TYPE:WALL-INNER
G1 F3000 E50.18051
G1 F1800 X141.1 Y82.82 E52.80478
G1 X93.9 Y82.82 E54.76713
G1 X93.9 Y145.941 E57.39139
G1 X141.1 Y145.941 E59.35374
G0 F3000 X141.5 Y146.341
G1 F1800 X141.5 Y82.42 E62.01127
G1 X93.5 Y82.42 E64.00687
G1 X93.5 Y146.341 E66.6644
G1 X141.5 Y146.341 E68.66001
G0 F3000 X141.9 Y146.741
G1 F1800 X141.9 Y82.02 E71.3508
G1 X93.1 Y82.02 E73.37966
G1 X93.1 Y146.741 E76.07045
G1 X141.9 Y146.741 E78.09932
G0 F3000 X142.3 Y147.141
;TYPE:WALL-OUTER
G1 F1800 X142.3 Y81.62 E80.82337
G1 X92.7 Y81.62 E82.88549
G1 X92.7 Y147.141 E85.60954
G1 X142.3 Y147.141 E87.67167
G0 F3000 X142.03 Y146.871
G0 X140.74 Y145.581
;TYPE:SKIN
G1 F1500 X94.26 Y145.581 E89.60408
G1 X94.26 Y83.18 E92.19841
G1 X140.74 Y83.18 E94.13083
G1 X140.74 Y145.581 E96.72516
G1 F3000 E90.22516
G0 X95.034 Y145.38
G1 F3000 E96.72516
G1 F1500 X94.459 Y144.805 E96.75897
G0 F3000 X94.459 Y144.239
G1 F1500 X95.6 Y145.38 E96.82606
G0 F3000 X96.165 Y145.38
G1 F1500 X94.459 Y143.674 E96.92636
G0 F3000 X94.459 Y143.108
G1 F1500 X96.731 Y145.38 E97.05995
G0 F3000 X97.297 Y145.38
G1 F1500 X94.459 Y142.542 E97.22681
G0 F3000 X94.459 Y141.977
G1 F1500 X97.862 Y145.38 E97.42689
G0 F3000 X98.428 Y145.38
G1 F1500 X94.459 Y141.411 E97.66026
G0 F3000 X94.459 Y140.845
G1 F1500 X98.994 Y145.38 E97.9269
G0 F3000 X99.559 Y145.38
G1 F1500 X94.459 Y140.28 E98.22676
G0 F3000 X94.459 Y139.714
G1 F1500 X100.125 Y145.38 E98.5599
G0 F3000 X100.691 Y145.38
G1 F1500 X94.459 Y139.148 E98.92631
G0 F3000 X94.459 Y138.583
G1 F1500 X101.256 Y145.38 E99.32595
G0 F3000 X101.822 Y145.38
G1 F1500 X94.459 Y138.017 E99.75887
G0 F3000 X94.459 Y137.451
G1 F1500 X102.388 Y145.38 E100.22506
G0 F3000 X102.954 Y145.38
G1 F1500 X94.459 Y136.885 E100.72453
G0 F3000 X94.459 Y136.32
G1 F1500 X103.519 Y145.38 E101.25723
G0 F3000 X104.085 Y145.38
G1 F1500 X94.459 Y135.754 E101.8232
G0 F3000 X94.459 Y135.188
G1 F1500 X104.651 Y145.38 E102.42245
G0 F3000 X105.216 Y145.38
G1 F1500 X94.459 Y134.623 E103.05492
G0 F3000 X94.459 Y134.057
G1 F1500 X105.782 Y145.38 E103.72067
G0 F3000 X106.348 Y145.38
G1 F1500 X94.459 Y133.491 E104.4197
G0 F3000 X94.459 Y132.926
G1 F1500 X106.913 Y145.38 E105.15195
G0 F3000 X107.479 Y145.38
G1 F1500 X94.459 Y132.36 E105.91747
G0 F3000 X94.459 Y131.794
G1 F1500 X108.045 Y145.38 E106.71628
G0 F3000 X108.61 Y145.38
G1 F1500 X94.459 Y131.229 E107.5483
G0 F3000 X94.459 Y130.663
G1 F1500 X109.176 Y145.38 E108.4136
G0 F3000 X109.742 Y145.38
G1 F1500 X94.459 Y130.097 E109.31219
G0 F3000 X94.459 Y129.532
G1 F1500 X110.307 Y145.38 E110.24399
G0 F3000 X110.873 Y145.38
G1 F1500 X94.459 Y128.966 E111.20907
G0 F3000 X94.459 Y128.4
G1 F1500 X111.439 Y145.38 E112.20743
G0 F3000 X112.005 Y145.38
G1 F1500 X94.459 Y127.835 E113.23903
G0 F3000 X94.459 Y127.269
G1 F1500 X112.57 Y145.38 E114.30389
G0 F3000 X113.136 Y145.38
G1 F1500 X94.459 Y126.703 E115.40203
G0 F3000 X94.459 Y126.137
G1 F1500 X113.702 Y145.38 E116.53344
G0 F3000 X114.267 Y145.38
G1 F1500 X94.459 Y125.572 E117.69808
G0 F3000 X94.459 Y125.006
G1 F1500 X114.833 Y145.38 E118.89599
G0 F3000 X115.399 Y145.38
G1 F1500 X94.459 Y124.44 E120.12718
G0 F3000 X94.459 Y123.875
G1 F1500 X115.964 Y145.38 E121.39159
G0 F3000 X116.53 Y145.38
G1 F1500 X94.459 Y123.309 E122.68928
G0 F3000 X94.459 Y122.743
G1 F1500 X117.096 Y145.38 E124.02025
G0 F3000 X117.661 Y145.38
G1 F1500 X94.459 Y122.178 E125.38444
G0 F3000 X94.459 Y121.612
G1 F1500 X118.227 Y145.38 E126.78191
G0 F3000 X118.793 Y145.38
G1 F1500 X94.459 Y121.046 E128.21265
G0 F3000 X94.459 Y120.481
G1 F1500 X119.358 Y145.38 E129.67662
G0 F3000 X119.924 Y145.38
G1 F1500 X94.459 Y119.915 E131.17386
G0 F3000 X94.459 Y119.349
G1 F1500 X120.49 Y145.38 E132.70439
G0 F3000 X121.055 Y145.38
G1 F1500 X94.459 Y118.784 E134.26813
G0 F3000 X94.459 Y118.218
G1 F1500 X121.621 Y145.38 E135.86515
G0 F3000 X122.187 Y145.38
G1 F1500 X94.459 Y117.652 E137.49545
G0 F3000 X94.459 Y117.086
G1 F1500 X122.753 Y145.38 E139.15903
G0 F3000 X123.318 Y145.38
G1 F1500 X94.459 Y116.521 E140.85583
G0 F3000 X94.459 Y115.955
G1 F1500 X123.884 Y145.38 E142.58591
G0 F3000 X124.45 Y145.38
G1 F1500 X94.459 Y115.389 E144.34926
G0 F3000 X94.459 Y114.824
G1 F1500 X125.015 Y145.38 E146.14584
G0 F3000 X125.581 Y145.38
G1 F1500 X94.458 Y114.257 E147.97575
G0 F3000 X94.458 Y113.692
G1 F1500 X126.147 Y145.38 E149.83891
G0 F3000 X126.712 Y145.38
G1 F1500 X94.458 Y113.126 E151.73533
G0 F3000 X94.458 Y112.56
G1 F1500 X127.278 Y145.38 E153.66502
G0 F3000 X127.844 Y145.38
G1 F1500 X94.458 Y111.995 E155.62796
G0 F3000 X94.458 Y111.429
G1 F1500 X128.409 Y145.38 E157.62414
G0 F3000 X128.975 Y145.38
G1 F1500 X94.458 Y110.863 E159.65361
G0 F3000 X94.458 Y110.298
G1 F1500 X129.541 Y145.38 E161.71633
G0 F3000 X130.106 Y145.38
G1 F1500 X94.458 Y109.732 E163.81229
G0 F3000 X94.458 Y109.166
G1 F1500 X130.672 Y145.38 E165.94154
G0 F3000 X131.238 Y145.38
G1 F1500 X94.458 Y108.6 E168.10406
G0 F3000 X94.458 Y108.035
G1 F1500 X131.803 Y145.38 E170.2998
G0 F3000 X132.369 Y145.38
G1 F1500 X94.458 Y107.469 E172.52883
G0 F3000 X94.458 Y106.903
G1 F1500 X132.935 Y145.38 E174.79113
G0 F3000 X133.501 Y145.38
G1 F1500 X94.458 Y106.338 E177.08667
G0 F3000 X94.458 Y105.772
G1 F1500 X134.066 Y145.38 E179.41547
G0 F3000 X134.632 Y145.38
G1 F1500 X94.458 Y105.206 E181.77755
G0 F3000 X94.458 Y104.641
G1 F1500 X135.198 Y145.38 E184.17288
G0 F3000 X135.763 Y145.38
G1 F1500 X94.458 Y104.075 E186.60145
G0 F3000 X94.458 Y103.509
G1 F1500 X136.329 Y145.38 E189.06331
G0 F3000 X136.895 Y145.38
G1 F1500 X94.458 Y102.944 E191.55841
G0 F3000 X94.458 Y102.378
G1 F1500 X137.46 Y145.38 E194.08676
G0 F3000 X138.026 Y145.38
G1 F1500 X94.458 Y101.812 E196.6484
G0 F3000 X94.458 Y101.247
G1 F1500 X138.592 Y145.38 E199.24328
G0 F3000 X139.157 Y145.38
G1 F1500 X94.458 Y100.681 E201.87141
G0 F3000 X94.458 Y100.115
G1 F1500 X139.723 Y145.38 E204.53281
G0 F3000 X140.289 Y145.38
G1 F1500 X94.458 Y99.55 E207.22747
G0 F3000 X94.458 Y98.984
G1 F1500 X140.539 Y145.065 E209.93686
G0 F3000 X140.539 Y144.499
G1 F1500 X94.458 Y98.418 E212.64624
G0 F3000 X94.458 Y97.852
G1 F1500 X140.539 Y143.933 E215.35563
G0 F3000 X140.539 Y143.368
G1 F1500 X94.458 Y97.287 E218.06502
G0 F3000 X94.458 Y96.721
G1 F1500 X140.539 Y142.802 E220.7744
G0 F3000 X140.539 Y142.236
G1 F1500 X94.458 Y96.155 E223.48379
G0 F3000 X94.458 Y95.59
G1 F1500 X140.539 Y141.67 E226.19315
G0 F3000 X140.539 Y141.105
G1 F1500 X94.458 Y95.024 E228.90253
G0 F3000 X94.458 Y94.458
G1 F1500 X140.539 Y140.539 E231.61192
G0 F3000 X140.539 Y139.973
G1 F1500 X94.458 Y93.893 E234.32128
G0 F3000 X94.458 Y93.327
G1 F1500 X140.539 Y139.408 E237.03066
G0 F3000 X140.539 Y138.842
G1 F1500 X94.458 Y92.761 E239.74005
G0 F3000 X94.458 Y92.196
G1 F1500 X140.539 Y138.276 E242.4494
G0 F3000 X140.539 Y137.711
G1 F1500 X94.458 Y91.63 E245.15879
G0 F3000 X94.458 Y91.064
G1 F1500 X140.539 Y137.145 E247.86818
G0 F3000 X140.539 Y136.579
G1 F1500 X94.458 Y90.499 E250.57753
G0 F3000 X94.458 Y89.933
G1 F1500 X140.539 Y136.014 E253.28692
G0 F3000 X140.539 Y135.448
G1 F1500 X94.458 Y89.367 E255.99631
G0 F3000 X94.458 Y88.802
G1 F1500 X140.539 Y134.882 E258.70566
G0 F3000 X140.539 Y134.317
G1 F1500 X94.458 Y88.236 E261.41505
G0 F3000 X94.458 Y87.67
G1 F1500 X140.539 Y133.751 E264.12444
G0 F3000 X140.539 Y133.185
G1 F1500 X94.458 Y87.104 E266.83382
G0 F3000 X94.458 Y86.539
G1 F1500 X140.539 Y132.619 E269.54318
G0 F3000 X140.539 Y132.054
G1 F1500 X94.458 Y85.973 E272.25256
G0 F3000 X94.458 Y85.407
G1 F1500 X140.539 Y131.488 E274.96195
G0 F3000 X140.539 Y130.922
G1 F1500 X94.458 Y84.842 E277.67131
G0 F3000 X94.458 Y84.276
G1 F1500 X140.539 Y130.357 E280.38069
G0 F3000 X140.539 Y129.791
G1 F1500 X94.458 Y83.71 E283.09008
G0 F3000 X94.693 Y83.379
G1 F1500 X140.539 Y129.225 E285.78565
G0 F3000 X140.539 Y128.66
G1 F1500 X95.259 Y83.379 E288.44797
G0 F3000 X95.824 Y83.379
G1 F1500 X140.539 Y128.094 E291.07704
G0 F3000 X140.539 Y127.528
G1 F1500 X96.39 Y83.379 E293.67283
G0 F3000 X96.956 Y83.379
G1 F1500 X140.539 Y126.963 E296.23537
G0 F3000 X140.539 Y126.397
G1 F1500 X97.522 Y83.379 E298.76464
G0 F3000 X98.087 Y83.379
G1 F1500 X140.539 Y125.831 E301.26065
G0 F3000 X140.539 Y125.266
G1 F1500 X98.653 Y83.379 E303.72342
G0 F3000 X99.219 Y83.379
G1 F1500 X140.539 Y124.7 E306.15291
G0 F3000 X140.539 Y124.134
G1 F1500 X99.784 Y83.379 E308.54914
G0 F3000 X100.35 Y83.379
G1 F1500 X140.539 Y123.569 E310.91213
G0 F3000 X140.539 Y123.003
G1 F1500 X100.916 Y83.379 E313.24184
G0 F3000 X101.481 Y83.379
G1 F1500 X140.539 Y122.437 E315.5383
G0 F3000 X140.539 Y121.871
G1 F1500 X102.047 Y83.379 E317.80148
G0 F3000 X102.613 Y83.379
G1 F1500 X140.539 Y121.306 E320.03142
G0 F3000 X140.539 Y120.74
G1 F1500 X103.178 Y83.379 E322.2281
G0 F3000 X103.744 Y83.379
G1 F1500 X140.539 Y120.174 E324.39151
G0 F3000 X140.539 Y119.609
G1 F1500 X104.31 Y83.379 E326.52166
G0 F3000 X104.875 Y83.379
G1 F1500 X140.539 Y119.043 E328.61857
G0 F3000 X140.539 Y118.477
G1 F1500 X105.441 Y83.379 E330.6822
G0 F3000 X106.007 Y83.379
G1 F1500 X140.539 Y117.912 E332.71258
G0 F3000 X140.539 Y117.346
G1 F1500 X106.573 Y83.379 E334.70968
G0 F3000 X107.138 Y83.379
G1 F1500 X140.539 Y116.78 E336.67353
G0 F3000 X140.539 Y116.215
G1 F1500 X107.704 Y83.379 E338.60413
G0 F3000 X108.27 Y83.379
G1 F1500 X140.539 Y115.649 E340.50145
G0 F3000 X140.539 Y115.083
G1 F1500 X108.835 Y83.379 E342.36552
G0 F3000 X109.401 Y83.379
G1 F1500 X140.539 Y114.518 E344.19635
G0 F3000 X140.539 Y113.952
G1 F1500 X109.967 Y83.379 E345.99389
G0 F3000 X110.532 Y83.379
G1 F1500 X140.539 Y113.386 E347.75819
G0 F3000 X140.539 Y112.821
G1 F1500 X111.098 Y83.379 E349.48924
G0 F3000 X111.664 Y83.379
G1 F1500 X140.539 Y112.255 E351.18701
G0 F3000 X140.539 Y111.689
G1 F1500 X112.229 Y83.379 E352.85153
G0 F3000 X112.795 Y83.379
G1 F1500 X140.539 Y111.123 E354.48277
G0 F3000 X140.539 Y110.558
G1 F1500 X113.361 Y83.379 E356.08076
G0 F3000 X113.926 Y83.379
G1 F1500 X140.539 Y109.992 E357.6455
G0 F3000 X140.539 Y109.426
G1 F1500 X114.492 Y83.379 E359.17697
G0 F3000 X115.058 Y83.379
G1 F1500 X140.539 Y108.861 E360.67518
G0 F3000 X140.539 Y108.295
G1 F1500 X115.623 Y83.379 E362.14015
G0 F3000 X116.189 Y83.379
G1 F1500 X140.539 Y107.729 E363.57183
G0 F3000 X140.539 Y107.164
G1 F1500 X116.755 Y83.379 E364.97027
G0 F3000 X117.321 Y83.379
G1 F1500 X140.539 Y106.598 E366.33543
G0 F3000 X140.539 Y106.032
G1 F1500 X117.886 Y83.379 E367.66734
G0 F3000 X118.452 Y83.379
G1 F1500 X140.539 Y105.467 E368.966
G0 F3000 X140.539 Y104.901
G1 F1500 X119.018 Y83.379 E370.23138
G0 F3000 X119.583 Y83.379
G1 F1500 X140.539 Y104.335 E371.46351
G0 F3000 X140.539 Y103.77
G1 F1500 X120.149 Y83.379 E372.6624
G0 F3000 X120.715 Y83.379
G1 F1500 X140.539 Y103.204 E373.828
G0 F3000 X140.539 Y102.638
G1 F1500 X121.28 Y83.379 E374.96036
G0 F3000 X121.846 Y83.379
G1 F1500 X140.539 Y102.072 E376.05943
G0 F3000 X140.539 Y101.507
G1 F1500 X122.412 Y83.379 E377.12526
G0 F3000 X122.977 Y83.379
G1 F1500 X140.539 Y100.941 E378.15784
G0 F3000 X140.539 Y100.375
G1 F1500 X123.543 Y83.379 E379.15714
G0 F3000 X124.109 Y83.379
G1 F1500 X140.539 Y99.81 E380.12319
G0 F3000 X140.539 Y99.244
G1 F1500 X124.674 Y83.379 E381.05599
G0 F3000 X125.24 Y83.379
G1 F1500 X140.539 Y98.678 E381.95551
G0 F3000 X140.539 Y98.113
G1 F1500 X125.806 Y83.379 E382.82179
G0 F3000 X126.372 Y83.379
G1 F1500 X140.539 Y97.547 E383.65478
G0 F3000 X140.539 Y96.981
G1 F1500 X126.937 Y83.379 E384.45453
G0 F3000 X127.503 Y83.379
G1 F1500 X140.539 Y96.416 E385.22102
G0 F3000 X140.539 Y95.85
G1 F1500 X128.069 Y83.379 E385.95424
G0 F3000 X128.634 Y83.379
G1 F1500 X140.539 Y95.284 E386.65421
G0 F3000 X140.539 Y94.719
G1 F1500 X129.2 Y83.379 E387.32093
G0 F3000 X129.766 Y83.379
G1 F1500 X140.539 Y94.153 E387.95437
G0 F3000 X140.539 Y93.587
G1 F1500 X130.331 Y83.379 E388.55456
G0 F3000 X130.897 Y83.379
G1 F1500 X140.539 Y93.022 E389.1215
G0 F3000 X140.539 Y92.456
G1 F1500 X131.463 Y83.379 E389.65516
G0 F3000 X132.028 Y83.379
G1 F1500 X140.539 Y91.89 E390.15558
G0 F3000 X140.539 Y91.324
G1 F1500 X132.594 Y83.379 E390.62271
G0 F3000 X133.16 Y83.379
G1 F1500 X140.539 Y90.759 E391.0566
G0 F3000 X140.539 Y90.193
G1 F1500 X133.725 Y83.379 E391.45724
G0 F3000 X134.291 Y83.379
G1 F1500 X140.539 Y89.627 E391.8246
G0 F3000 X140.539 Y89.062
G1 F1500 X134.857 Y83.379 E392.15871
G0 F3000 X135.422 Y83.379
G1 F1500 X140.539 Y88.496 E392.45957
G0 F3000 X140.539 Y87.93
