;FLAVOR:Marlin
;TIME:720
;Filament used: 0.448318m
;Layer height: 0.2
;MINX:69.039
;MINY:81.767
;MINZ:0.25
;MAXX:157.783
;MAXY:127.409
;MAXZ:0.65
;Generated with Cura_SteamEngine 5.3.0
M140 S55
M105
M190 S55
M104 S212
M105
M109 S212
M82 ;absolute extrusion mode
START_PRINT
G92 E0
G92 E0
G1 F3000 E-6.5
;LAYER_COUNT:3
;LAYER:0
M107
G0 X82.212 Y83.326 Z0.25
;TYPE:SKIRT
G1 F3000 E0
G1 F600 X82.48 Y83.191 E0.01248
G1 X82.657 Y83.16 E0.01995
G1 X86.038 Y83.337 E0.1607
G1 X89.413 Y83.327 E0.30102
G1 X92.795 Y83.131 E0.44186
G1 X93.041 Y83.175 E0.45225
G1 X93.199 Y83.258 E0.45967
G1 X93.373 Y83.508 E0.47234
G1 X93.428 Y83.679 E0.47981
G1 X94.902 Y100.896 E1.19822
G1 X94.865 Y101.141 E1.20853
G1 X94.732 Y101.358 E1.21911
G1 X94.621 Y101.451 E1.22513
G1 X94.385 Y101.543 E1.23566
G1 X89.931 Y101.78 E1.4211
G1 X85.519 Y101.8 E1.60453
G1 X81.14 Y101.607 E1.78676
G1 X80.9 Y101.537 E1.79716
G1 X80.704 Y101.378 E1.80765
G1 X80.627 Y101.257 E1.81361
G1 X80.565 Y101.008 E1.82428
G1 X82.028 Y83.708 E2.5461
G1 X82.108 Y83.47 E2.55654
G1 X82.212 Y83.326 E2.56392
G0 F3000 X82.476 Y83.627
G1 F600 X82.636 Y83.559 E2.57115
G1 X86.036 Y83.737 E2.7127
G1 X89.419 Y83.727 E2.85335
G1 X92.818 Y83.53 E2.9949
G1 X92.939 Y83.562 E3.0001
G1 X93.029 Y83.713 E3.00741
G1 X94.503 Y100.93 E3.72583
G1 X94.475 Y101.051 E3.73099
G1 X94.364 Y101.144 E3.73701
G1 X89.929 Y101.38 E3.92166
G1 X85.537 Y101.4 E4.10426
G1 X81.158 Y101.207 E4.28649
G1 X81.041 Y101.163 E4.29169
G1 X80.964 Y101.042 E4.29765
G1 X82.427 Y83.742 E5.01947
G1 X82.476 Y83.627 E5.02467
G1 F3000 E-1.47533
G0 X82.504 Y83.087
G0 X93.427 Y83.041
G0 X102.603 Y84.283
G0 X102.668 Y84.288
G1 F3000 E5.02467
G1 F600 X102.748 Y84.05 E5.03511
G1 X102.852 Y83.906 E5.04249
G1 X103.12 Y83.771 E5.05497
G1 X103.297 Y83.74 E5.06244
G1 X106.678 Y83.917 E5.2032
G1 X110.053 Y83.908 E5.34351
G1 X113.435 Y83.711 E5.48436
G1 X113.681 Y83.755 E5.49475
G1 X113.839 Y83.838 E5.50217
G1 X114.013 Y84.088 E5.51483
G1 X114.068 Y84.259 E5.5223
G1 X115.542 Y101.476 E6.24072
G1 X115.505 Y101.721 E6.25102
G1 X115.372 Y101.938 E6.2616
G1 X115.261 Y102.031 E6.26762
G1 X115.025 Y102.123 E6.27815
G1 X110.571 Y102.361 E6.46359
G1 X106.159 Y102.381 E6.64703
G1 X101.78 Y102.187 E6.82926
G1 X101.54 Y102.117 E6.83966
G1 X101.344 Y101.958 E6.85015
G1 X101.267 Y101.837 E6.85611
G1 X101.205 Y101.588 E6.86678
G1 X102.668 Y84.288 E7.5886
G0 F3000 X103.116 Y84.207
G1 F600 X103.276 Y84.139 E7.59583
G1 X106.676 Y84.317 E7.73737
G1 X110.059 Y84.308 E7.87802
G1 X113.458 Y84.11 E8.01958
G1 X113.579 Y84.142 E8.02478
G1 X113.669 Y84.293 E8.03209
G1 X115.143 Y101.51 E8.75051
G1 X115.115 Y101.631 E8.75567
G1 X115.004 Y101.724 E8.76169
G1 X110.569 Y101.961 E8.94634
G1 X106.177 Y101.981 E9.12894
G1 X101.798 Y101.787 E9.31118
G1 X101.681 Y101.743 E9.31637
G1 X101.604 Y101.622 E9.32234
G1 X103.067 Y84.322 E10.04415
G1 X103.116 Y84.207 E10.04935
G1 F3000 E3.54935
G0 X103.144 Y83.667
G0 X123.131 Y83.176
G0 X123.196 Y83.181
G1 F3000 E10.04935
G1 F600 X123.276 Y82.943 E10.05979
G1 X123.38 Y82.799 E10.06717
G1 X123.648 Y82.664 E10.07965
G1 X123.825 Y82.633 E10.08712
G1 X127.206 Y82.81 E10.22788
G1 X130.581 Y82.801 E10.3682
G1 X133.963 Y82.604 E10.50904
G1 X134.209 Y82.648 E10.51943
G1 X134.367 Y82.731 E10.52685
G1 X134.541 Y82.981 E10.53952
G1 X134.596 Y83.152 E10.54698
G1 X136.07 Y100.369 E11.2654
G1 X136.033 Y100.614 E11.2757
G1 X135.9 Y100.831 E11.28628
G1 X135.789 Y100.924 E11.2923
G1 X135.553 Y101.016 E11.30284
G1 X131.099 Y101.254 E11.48828
G1 X126.687 Y101.274 E11.67171
G1 X122.308 Y101.08 E11.85394
G1 X122.068 Y101.01 E11.86434
G1 X121.872 Y100.851 E11.87483
G1 X121.795 Y100.73 E11.88079
G1 X121.733 Y100.481 E11.89146
G1 X123.196 Y83.181 E12.61328
G0 F3000 X123.644 Y83.1
G1 F600 X123.804 Y83.032 E12.62051
G1 X127.204 Y83.21 E12.76206
G1 X130.587 Y83.201 E12.90271
G1 X133.986 Y83.003 E13.04426
G1 X134.107 Y83.035 E13.04946
G1 X134.197 Y83.186 E13.05677
G1 X135.671 Y100.403 E13.77519
G1 X135.643 Y100.524 E13.78035
G1 X135.532 Y100.617 E13.78637
G1 X131.097 Y100.854 E13.97102
G1 X126.705 Y100.874 E14.15362
G1 X122.326 Y100.68 E14.33586
G1 X122.209 Y100.636 E14.34106
G1 X122.132 Y100.515 E14.34702
G1 X123.595 Y83.215 E15.06884
G1 X123.644 Y83.1 E15.07403
G1 F3000 E8.57403
G0 X123.672 Y82.56
G0 X144.844 Y82.338
G0 X144.908 Y82.343
G1 F3000 E15.07403
G1 F600 X144.988 Y82.105 E15.08447
G1 X145.092 Y81.961 E15.09186
G1 X145.361 Y81.826 E15.10437
G1 X145.538 Y81.795 E15.11184
G1 X148.92 Y81.973 E15.25264
G1 X152.293 Y81.963 E15.39288
G1 X155.676 Y81.767 E15.53376
G1 X155.922 Y81.811 E15.54415
G1 X156.08 Y81.894 E15.55157
G1 X156.254 Y82.144 E15.56423
G1 X156.309 Y82.315 E15.5717
G1 X157.783 Y99.532 E16.29012
G1 X157.746 Y99.777 E16.30042
G1 X157.613 Y99.994 E16.311
G1 X157.502 Y100.087 E16.31702
G1 X157.266 Y100.179 E16.32755
G1 X152.812 Y100.416 E16.51299
G1 X148.4 Y100.436 E16.69642
G1 X144.02 Y100.243 E16.8787
G1 X143.78 Y100.173 E16.88909
G1 X143.584 Y100.014 E16.89959
G1 X143.507 Y99.893 E16.90555
G1 X143.445 Y99.644 E16.91622
G1 X144.908 Y82.343 E17.63808
G0 F3000 X145.356 Y82.262
G1 F600 X145.517 Y82.194 E17.64534
G1 X148.918 Y82.373 E17.78694
G1 X152.299 Y82.363 E17.9275
G1 X155.699 Y82.166 E18.06909
G1 X155.82 Y82.198 E18.0743
G1 X155.91 Y82.349 E18.08161
G1 X157.384 Y99.566 E18.80002
G1 X157.356 Y99.687 E18.80519
G1 X157.245 Y99.78 E18.81121
G1 X152.81 Y100.016 E18.99586
G1 X148.418 Y100.036 E19.17846
G1 X144.038 Y99.843 E19.36073
G1 X143.921 Y99.799 E19.36593
G1 X143.844 Y99.678 E19.37189
G1 X145.307 Y82.377 E20.09375
G1 X145.356 Y82.262 E20.09895
G1 F3000 E13.59895
G0 X144.853 Y82.22
G0 X142.665 Y108.677
G0 X142.669 Y108.74
G1 F3000 E20.09895
G1 F600 X142.915 Y108.784 E20.10934
G1 X143.073 Y108.867 E20.11676
G1 X143.247 Y109.117 E20.12942
G1 X143.302 Y109.288 E20.13689
G1 X144.776 Y126.505 E20.85531
G1 X144.739 Y126.75 E20.86561
G1 X144.606 Y126.967 E20.87619
G1 X144.495 Y127.06 E20.88221
G1 X144.259 Y127.152 E20.89274
G1 X139.805 Y127.389 E21.07818
G1 X135.393 Y127.409 E21.26161
G1 X131.014 Y127.216 E21.44384
G1 X130.774 Y127.146 E21.45424
G1 X130.578 Y126.987 E21.46473
G1 X130.501 Y126.866 E21.47069
G1 X130.439 Y126.617 E21.48136
G1 X131.902 Y109.317 E22.20318
G1 X131.982 Y109.079 E22.21362
G1 X132.086 Y108.935 E22.221
G1 X132.354 Y108.8 E22.23348
G1 X132.531 Y108.769 E22.24095
G1 X135.912 Y108.946 E22.38171
G1 X139.287 Y108.936 E22.52203
G1 X142.669 Y108.74 E22.66287
G1 F3000 E16.16287
G0 X142.665 Y108.677
G0 X132.378 Y108.696
G0 X132.35 Y109.236
G1 F3000 E22.66287
G1 F600 X132.51 Y109.168 E22.6701
G1 X135.91 Y109.346 E22.81165
G1 X139.293 Y109.336 E22.9523
G1 X142.692 Y109.139 E23.09385
G1 X142.813 Y109.171 E23.09905
G1 X142.903 Y109.322 E23.10636
G1 X144.377 Y126.539 E23.82478
G1 X144.349 Y126.66 E23.82994
G1 X144.238 Y126.753 E23.83596
G1 X139.803 Y126.989 E24.02061
G1 X135.411 Y127.009 E24.20321
G1 X131.032 Y126.816 E24.38544
G1 X130.915 Y126.772 E24.39064
G1 X130.838 Y126.651 E24.3966
G1 X132.301 Y109.351 E25.11842
G1 X132.35 Y109.236 E25.12362
G1 F3000 E18.62362
G0 X131.847 Y109.194
G0 X123.255 Y108.708
G0 X123.192 Y108.714
G1 F3000 E25.12362
G1 F600 X124.667 Y125.931 E25.84204
G1 X124.63 Y126.176 E25.85234
G1 X124.497 Y126.393 E25.86292
G1 X124.386 Y126.486 E25.86894
G1 X124.15 Y126.578 E25.87947
G1 X119.695 Y126.815 E26.06495
G1 X115.284 Y126.835 E26.24834
G1 X110.904 Y126.642 E26.43062
G1 X110.664 Y126.572 E26.44101
G1 X110.468 Y126.413 E26.4515
G1 X110.391 Y126.292 E26.45747
G1 X110.329 Y126.043 E26.46814
G1 X111.792 Y108.742 E27.18999
G1 X111.872 Y108.504 E27.20043
G1 X111.976 Y108.36 E27.20782
G1 X112.245 Y108.225 E27.22033
G1 X112.422 Y108.194 E27.2278
G1 X115.803 Y108.372 E27.36856
G1 X119.177 Y108.362 E27.50884
G1 X122.559 Y108.166 E27.64968
G1 X122.805 Y108.21 E27.66007
G1 X122.963 Y108.293 E27.66749
G1 X123.137 Y108.543 E27.68015
G1 X123.192 Y108.714 E27.68762
G1 F3000 E21.18762
G0 X123.255 Y108.708
G0 X123.191 Y108.076
G0 X112.268 Y108.121
G0 X112.24 Y108.661
G1 F3000 E27.68762
G1 F600 X112.401 Y108.593 E27.69489
G1 X115.801 Y108.772 E27.83644
G1 X119.183 Y108.762 E27.97705
G1 X122.582 Y108.565 E28.1186
G1 X122.703 Y108.597 E28.1238
G1 X122.793 Y108.748 E28.13111
G1 X124.268 Y125.965 E28.84953
G1 X124.24 Y126.086 E28.8547
G1 X124.129 Y126.179 E28.86072
G1 X119.693 Y126.415 E29.0454
G1 X115.302 Y126.435 E29.22796
G1 X110.922 Y126.242 E29.41024
G1 X110.805 Y126.198 E29.41544
G1 X110.728 Y126.077 E29.4214
G1 X112.191 Y108.776 E30.14326
G1 X112.24 Y108.661 E30.14845
G1 F3000 E23.64845
G0 X111.737 Y108.619
G0 X101.74 Y109.279
G0 X101.677 Y109.285
G1 F3000 E30.14845
G1 F600 X103.151 Y126.502 E30.86687
G1 X103.114 Y126.747 E30.87717
G1 X102.981 Y126.964 E30.88776
G1 X102.87 Y127.057 E30.89378
G1 X102.634 Y127.149 E30.90431
G1 X98.18 Y127.387 E31.08975
G1 X93.768 Y127.407 E31.27318
G1 X89.388 Y127.213 E31.45546
G1 X89.148 Y127.143 E31.46585
G1 X88.952 Y126.984 E31.47634
G1 X88.875 Y126.863 E31.48231
G1 X88.813 Y126.614 E31.49297
G1 X90.276 Y109.314 E32.21479
G1 X90.356 Y109.076 E32.22523
G1 X90.46 Y108.932 E32.23262
G1 X90.728 Y108.797 E32.24509
G1 X90.905 Y108.766 E32.25256
G1 X94.287 Y108.943 E32.39336
G1 X97.661 Y108.933 E32.53364
G1 X101.044 Y108.737 E32.67452
G1 X101.29 Y108.781 E32.68491
G1 X101.448 Y108.864 E32.69233
G1 X101.622 Y109.114 E32.705
G1 X101.677 Y109.285 E32.71246
G1 F3000 E26.21246
G0 X101.74 Y109.279
G0 X101.676 Y108.647
G0 X90.752 Y108.693
G0 X90.724 Y109.233
G1 F3000 E32.71246
G1 F600 X90.884 Y109.165 E32.71969
G1 X94.285 Y109.343 E32.86128
G1 X97.667 Y109.333 E33.00189
G1 X101.067 Y109.136 E33.14348
G1 X101.188 Y109.168 E33.14869
G1 X101.278 Y109.319 E33.15599
G1 X102.752 Y126.536 E33.87441
G1 X102.724 Y126.657 E33.87958
G1 X102.613 Y126.75 E33.8856
G1 X98.178 Y126.987 E34.07025
G1 X93.786 Y127.007 E34.25285
G1 X89.406 Y126.813 E34.43512
G1 X89.289 Y126.769 E34.44032
G1 X89.212 Y126.648 E34.44628
G1 X90.675 Y109.348 E35.1681
G1 X90.724 Y109.233 E35.1733
G1 F3000 E28.6733
G0 X90.221 Y109.191
G0 X81.965 Y109.019
G0 X81.902 Y109.025
G1 F3000 E35.1733
G1 F600 X83.376 Y126.242 E35.89172
G1 X83.339 Y126.487 E35.90202
G1 X83.206 Y126.704 E35.9126
G1 X83.095 Y126.797 E35.91862
G1 X82.859 Y126.889 E35.92915
G1 X78.405 Y127.126 E36.11459
G1 X73.993 Y127.146 E36.29802
G1 X69.614 Y126.953 E36.48025
G1 X69.374 Y126.883 E36.49065
G1 X69.178 Y126.724 E36.50114
G1 X69.101 Y126.603 E36.5071
G1 X69.039 Y126.354 E36.51777
G1 X70.502 Y109.054 E37.23959
G1 X70.582 Y108.816 E37.25003
G1 X70.686 Y108.672 E37.25741
G1 X70.954 Y108.537 E37.26989
G1 X71.131 Y108.506 E37.27736
G1 X74.512 Y108.683 E37.41812
G1 X77.887 Y108.673 E37.55844
G1 X81.269 Y108.477 E37.69928
G1 X81.515 Y108.521 E37.70967
G1 X81.673 Y108.604 E37.71709
G1 X81.847 Y108.854 E37.72975
G1 X81.902 Y109.025 E37.73722
G1 F3000 E31.23722
G0 X81.965 Y109.019
G0 X81.901 Y108.387
G0 X70.978 Y108.433
G0 X70.95 Y108.973
G1 F3000 E37.73722
G1 F600 X71.11 Y108.905 E37.74445
G1 X74.51 Y109.083 E37.886
G1 X77.893 Y109.073 E38.02665
G1 X81.292 Y108.876 E38.1682
G1 X81.413 Y108.908 E38.1734
G1 X81.503 Y109.059 E38.18071
G1 X82.977 Y126.276 E38.89913
G1 X82.949 Y126.397 E38.90429
G1 X82.838 Y126.49 E38.91031
G1 X78.403 Y126.726 E39.09496
G1 X74.011 Y126.746 E39.27756
G1 X69.632 Y126.553 E39.45979
G1 X69.515 Y126.509 E39.46499
G1 X69.438 Y126.388 E39.47095
G1 X70.901 Y109.088 E40.19277
G1 X70.95 Y108.973 E40.19797
G1 F3000 E33.69797
;MESH:roulette-wheel-23.stl
G0 X70.978 Y108.433
G0 X85.515 Y101.864
G0 X85.561 Y100.781
G0 X92.786 Y99.625
;TYPE:WALL-INNER
G1 F3000 E40.19797
G1 F1800 X91.552 Y85.207 E40.79959
G1 X89.52 Y85.325 E40.88421
G1 X85.96 Y85.336 E41.03222
G1 X83.907 Y85.229 E41.11769
G1 X82.685 Y99.673 E41.72035
G1 X85.578 Y99.8 E41.84074
G1 X89.879 Y99.78 E42.01956
G1 X92.786 Y99.625 E42.14059
G0 F3000 X93.219 Y100.002
G1 F1800 X91.917 Y84.785 E42.77555
G1 X89.497 Y84.926 E42.87633
G1 X85.981 Y84.936 E43.02251
G1 X83.541 Y84.809 E43.12409
G1 X82.252 Y100.054 E43.76017
G1 X85.57 Y100.2 E43.89825
G1 X89.891 Y100.18 E44.07789
G1 X93.219 Y100.002 E44.21645
G0 F3000 X93.653 Y100.379
G1 F1800 X92.282 Y84.363 E44.88476
G1 X89.441 Y84.527 E45.00307
G1 X86.002 Y84.537 E45.14605
G1 X83.175 Y84.389 E45.26374
G1 X81.818 Y100.435 E45.93324
G1 X85.562 Y100.6 E46.08905
G1 X89.902 Y100.58 E46.26948
G1 X93.653 Y100.379 E46.42566
G0 F3000 X94.087 Y100.757
;TYPE:WALL-OUTER
G1 F1800 X92.648 Y83.941 E47.12734
G1 X89.44 Y84.127 E47.26094
G1 X86.023 Y84.137 E47.403
G1 X82.809 Y83.969 E47.5368
G1 X81.384 Y100.817 E48.23976
G1 X85.554 Y101 E48.4133
G1 X89.914 Y100.98 E48.59457
G1 X94.087 Y100.757 E48.76831
G0 F3000 X93.795 Y100.505
G0 X92.395 Y99.284
;TYPE:SKIN
G1 F1500 X89.86 Y99.42 E48.87385
G1 X85.591 Y99.44 E49.05134
G1 X83.075 Y99.33 E49.15604
G1 X84.237 Y85.607 E49.72862
G1 X85.949 Y85.696 E49.79989
G1 X89.539 Y85.685 E49.94915
G1 X91.224 Y85.588 E50.01932
G1 X92.395 Y99.284 E50.59081
G0 F3000 X83.336 Y98.61
G1 F1500 X83.891 Y99.164 E50.62341
G0 F3000 X84.482 Y99.19
G1 F1500 X83.38 Y98.088 E50.68821
G0 F3000 X83.425 Y97.567
G1 F1500 X85.074 Y99.216 E50.78516
G0 F3000 X85.662 Y99.238
G1 F1500 X83.469 Y97.045 E50.9141
G0 F3000 X83.512 Y96.523
G1 F1500 X86.225 Y99.236 E51.07361
G0 F3000 X86.788 Y99.233
G1 F1500 X83.557 Y96.002 E51.26359
G0 F3000 X83.601 Y95.48
G1 F1500 X87.351 Y99.231 E51.4841
G0 F3000 X87.914 Y99.228
G1 F1500 X83.645 Y94.959 E51.7351
G0 F3000 X83.689 Y94.437
G1 F1500 X88.477 Y99.225 E52.01662
G0 F3000 X89.04 Y99.222
G1 F1500 X83.734 Y93.916 E52.32859
G0 F3000 X83.778 Y93.394
G1 F1500 X89.603 Y99.219 E52.67108
G0 F3000 X90.151 Y99.202
G1 F1500 X83.822 Y92.873 E53.0432
G0 F3000 X83.866 Y92.351
G1 F1500 X90.688 Y99.173 E53.44431
G0 F3000 X91.225 Y99.145
G1 F1500 X83.91 Y91.829 E53.87443
G0 F3000 X83.954 Y91.308
G1 F1500 X91.762 Y99.116 E54.33351
G0 F3000 X92.165 Y98.953
G1 F1500 X83.998 Y90.786 E54.8137
G0 F3000 X84.043 Y90.265
G1 F1500 X92.113 Y98.335 E55.28818
G0 F3000 X92.06 Y97.717
G1 F1500 X84.087 Y89.743 E55.75699
G0 F3000 X84.131 Y89.222
G1 F1500 X92.007 Y97.098 E56.22007
G0 F3000 X91.954 Y96.479
G1 F1500 X84.175 Y88.7 E56.67745
G0 F3000 X84.219 Y88.179
G1 F1500 X91.901 Y95.861 E57.12912
G0 F3000 X91.848 Y95.242
G1 F1500 X84.263 Y87.657 E57.57509
G0 F3000 X84.307 Y87.136
G1 F1500 X91.795 Y94.623 E58.01533
G0 F3000 X91.742 Y94.005
G1 F1500 X84.352 Y86.614 E58.44986
G0 F3000 X84.396 Y86.093
G1 F1500 X91.689 Y93.386 E58.87866
G0 F3000 X91.636 Y92.768
G1 F1500 X84.699 Y85.83 E59.28656
G0 F3000 X85.296 Y85.862
G1 F1500 X91.583 Y92.149 E59.65621
G0 F3000 X91.53 Y91.53
G1 F1500 X85.893 Y85.893 E59.98764
G0 F3000 X86.46 Y85.894
G1 F1500 X91.477 Y90.912 E60.28265
G0 F3000 X91.424 Y90.293
G1 F1500 X87.024 Y85.892 E60.54139
G0 F3000 X87.587 Y85.89
G1 F1500 X91.372 Y89.675 E60.76393
G0 F3000 X91.319 Y89.056
G1 F1500 X88.152 Y85.889 E60.95014
G0 F3000 X88.715 Y85.887
G1 F1500 X91.266 Y88.437 E61.1001
G0 F3000 X91.213 Y87.819
G1 F1500 X89.28 Y85.885 E61.21378
G0 F3000 X89.829 Y85.869
G1 F1500 X91.16 Y87.2 E61.29204
G0 F3000 X91.107 Y86.581
G1 F1500 X90.364 Y85.838 E61.33572
G0 F3000 X90.898 Y85.807
G1 F1500 X91.054 Y85.962 E61.34486
G1 F3000 E54.84486
;MESH:roulette-wheel-25.stl
G0 X93.855 Y100.557
G0 X94.929 Y100.465
G0 X101.181 Y101.102
G0 X102.256 Y101.192
G0 X113.426 Y100.205
;TYPE:WALL-INNER
G1 F3000 E61.34486
G1 F1800 X112.192 Y85.787 E61.94649
G1 X110.161 Y85.906 E62.03107
G1 X106.6 Y85.916 E62.17912
G1 X104.547 Y85.809 E62.26459
G1 X103.324 Y100.252 E62.86721
G1 X106.218 Y100.381 E62.98765
G1 X110.519 Y100.361 E63.16646
G1 X113.426 Y100.205 E63.2875
G0 F3000 X113.859 Y100.582
G1 F1800 X112.557 Y85.365 E63.92246
G1 X110.138 Y85.507 E64.0232
G1 X106.621 Y85.516 E64.16942
G1 X104.181 Y85.389 E64.271
G1 X102.891 Y100.634 E64.90708
G1 X106.21 Y100.781 E65.0452
G1 X110.53 Y100.761 E65.22481
G1 X113.859 Y100.582 E65.36341
G0 F3000 X114.293 Y100.96
G1 F1800 X112.922 Y84.943 E66.03176
G1 X110.081 Y85.108 E66.15007
G1 X106.642 Y85.117 E66.29305
G1 X103.815 Y84.969 E66.41074
G1 X102.457 Y101.015 E67.08024
G1 X106.202 Y101.181 E67.2361
G1 X110.542 Y101.161 E67.41653
G1 X114.293 Y100.96 E67.57271
G0 F3000 X114.727 Y101.337
;TYPE:WALL-OUTER
