;FLAVOR:Marlin
;TIME:3288
;Filament used: 3.86066m
;Layer height: 0.2
;MINX:93.828
;MINY:93.801
;MINZ:0.25
;MAXX:141.169
;MAXY:141.198
;MAXZ:17.85
;Generated with Cura_SteamEngine 5.3.0
M140 S55
M105
M190 S55
M104 S212
M105
M109 S212
M82 ;absolute extrusion mode
START_PRINT
G92 E0
G92 E0
G1 F3000 E-6.5
;LAYER_COUNT:89
;LAYER:0
M107
;MESH:22mm-Bolt-for-Height-Adjustment.stl
G0 X117.692 Y136.523 Z0.25
;TYPE:WALL-INNER
G1 F3000 E0
G1 F1800 X118.434 Y136.502 E0.04629
G1 X119.157 Y136.455 E0.09148
G1 X119.867 Y136.381 E0.13599
G1 X120.573 Y136.28 E0.18047
G1 X121.261 Y136.155 E0.22408
G1 X121.961 Y136 E0.26879
G1 X122.663 Y135.819 E0.314
G1 X123.342 Y135.614 E0.35823
G1 X124.047 Y135.372 E0.40471
G1 X124.703 Y135.119 E0.44856
G1 X125.369 Y134.832 E0.49379
G1 X125.985 Y134.54 E0.5363
G1 X126.635 Y134.203 E0.58196
G1 X127.264 Y133.843 E0.62716
G1 X127.861 Y133.472 E0.67099
G1 X128.464 Y133.066 E0.71632
G1 X129.034 Y132.649 E0.76037
G1 X129.593 Y132.208 E0.80477
G1 X130.136 Y131.745 E0.84927
G1 X130.665 Y131.258 E0.89411
G1 X131.162 Y130.765 E0.93777
G1 X131.68 Y130.211 E0.98507
G1 X132.145 Y129.671 E1.02951
G1 X132.592 Y129.116 E1.07395
G1 X133.016 Y128.543 E1.1184
G1 X133.418 Y127.956 E1.16277
G1 X133.845 Y127.272 E1.21306
G1 X133.865 Y127.265 E1.21438
G1 X134.154 Y126.742 E1.25164
G1 X134.49 Y126.108 E1.29639
G1 X134.757 Y125.557 E1.33458
G1 X135.086 Y124.819 E1.38497
G1 X135.35 Y124.145 E1.43011
G1 X135.588 Y123.469 E1.4748
G1 X135.768 Y122.893 E1.51243
G1 X135.783 Y122.883 E1.51356
G1 X135.981 Y122.116 E1.56296
G1 X136.143 Y121.405 E1.60844
G1 X136.283 Y120.671 E1.65504
G1 X136.389 Y119.968 E1.69937
G1 X136.466 Y119.271 E1.7431
G1 X136.518 Y118.58 E1.78632
G1 X136.547 Y117.834 E1.83288
G1 X136.546 Y117.121 E1.87734
G1 X136.519 Y116.422 E1.92096
G1 X136.463 Y115.699 E1.96619
G1 X136.383 Y114.99 E2.01068
G1 X136.276 Y114.284 E2.05521
G1 X136.143 Y113.584 E2.09965
G1 X135.975 Y112.862 E2.14588
G1 X135.758 Y112.083 E2.19631
G1 X135.766 Y112.067 E2.19742
G1 X135.63 Y111.688 E2.22253
G1 X135.641 Y111.671 E2.2238
G1 X135.304 Y110.722 E2.2866
G1 X135.078 Y110.163 E2.3242
G1 X134.788 Y109.505 E2.36905
G1 X134.425 Y108.772 E2.42006
G1 X134.431 Y108.752 E2.42136
G1 X133.814 Y107.674 E2.49882
G1 X133.816 Y107.658 E2.49982
G1 X133.36 Y106.951 E2.55229
G1 X132.994 Y106.426 E2.5922
G1 X132.571 Y105.855 E2.63652
G1 X132.12 Y105.298 E2.68121
G1 X131.631 Y104.734 E2.72776
G1 X131.145 Y104.217 E2.77201
G1 X130.515 Y103.603 E2.82688
G1 X130.515 Y103.587 E2.82787
G1 X129.564 Y102.768 E2.90614
G1 X129.005 Y102.331 E2.95039
G1 X128.437 Y101.917 E2.99422
G1 X127.834 Y101.511 E3.03956
G1 X127.228 Y101.134 E3.08407
G1 X126.614 Y100.785 E3.12811
G1 X125.976 Y100.453 E3.17296
G1 X125.131 Y100.056 E3.23118
G1 X125.122 Y100.061 E3.23183
G1 X124.675 Y99.87 E3.26214
G1 X123.98 Y99.604 E3.30855
G1 X123.315 Y99.378 E3.35235
G1 X122.633 Y99.174 E3.39674
G1 X121.93 Y98.993 E3.44201
G1 X121.232 Y98.839 E3.48659
G1 X120.543 Y98.715 E3.53025
G1 X119.836 Y98.615 E3.57478
G1 X119.157 Y98.546 E3.61734
G1 X118.401 Y98.496 E3.66459
G1 X117.691 Y98.476 E3.70888
G1 X116.989 Y98.482 E3.75266
G1 X116.267 Y98.518 E3.79775
G1 X115.436 Y98.594 E3.84979
G1 X115.423 Y98.583 E3.85085
G1 X114.825 Y98.668 E3.88852
G1 X114.124 Y98.782 E3.93281
G1 X113.601 Y98.888 E3.96609
G1 X113.586 Y98.877 E3.96725
G1 X112.6 Y99.127 E4.03068
G1 X112.584 Y99.118 E4.03183
G1 X111.348 Y99.505 E4.1126
G1 X110.692 Y99.743 E4.15612
G1 X110.021 Y100.017 E4.20131
G1 X109.381 Y100.307 E4.24513
G1 X108.737 Y100.626 E4.28995
G1 X108.107 Y100.97 E4.33472
G1 X107.493 Y101.335 E4.37926
G1 X106.878 Y101.733 E4.42495
G1 X106.286 Y102.15 E4.4701
G1 X105.718 Y102.581 E4.51457
G1 X105.176 Y103.028 E4.55838
G1 X104.631 Y103.51 E4.60375
G1 X104.122 Y103.998 E4.64773
G1 X103.622 Y104.515 E4.69258
G1 X103.153 Y105.036 E4.7363
G1 X102.687 Y105.593 E4.78159
G1 X102.252 Y106.158 E4.82606
G1 X101.844 Y106.728 E4.86977
G1 X101.444 Y107.335 E4.91511
G1 X101.075 Y107.944 E4.95951
G1 X100.713 Y108.594 E5.00591
G1 X100.394 Y109.224 E5.04995
G1 X100.095 Y109.875 E5.09462
G1 X99.732 Y110.766 E5.15462
G1 X99.719 Y110.769 E5.15546
G1 X99.348 Y111.886 E5.22886
G1 X99.152 Y112.563 E5.27281
G1 X98.981 Y113.249 E5.3169
G1 X98.833 Y113.96 E5.36219
G1 X98.714 Y114.663 E5.40665
G1 X98.638 Y115.237 E5.44276
G1 X98.623 Y115.249 E5.44396
G1 X98.554 Y116.064 E5.49497
G1 X98.513 Y116.792 E5.54044
G1 X98.501 Y117.505 E5.58491
G1 X98.514 Y118.206 E5.62864
G1 X98.557 Y118.96 E5.67573
G1 X98.645 Y119.823 E5.72983
G1 X98.634 Y119.837 E5.73094
G1 X98.7 Y120.261 E5.7577
G1 X98.818 Y120.909 E5.79878
G1 X98.805 Y120.925 E5.80006
G1 X98.984 Y121.768 E5.85381
G1 X99.156 Y122.458 E5.89815
G1 X99.4 Y123.275 E5.95133
G1 X99.392 Y123.293 E5.95256
G1 X99.576 Y123.806 E5.98654
G1 X99.767 Y124.297 E6.0194
G1 X99.757 Y124.314 E6.02063
G1 X100.106 Y125.15 E6.07713
G1 X100.404 Y125.796 E6.12149
G1 X100.742 Y126.459 E6.1679
G1 X101.09 Y127.082 E6.2124
G1 X101.461 Y127.691 E6.25687
G1 X101.861 Y128.297 E6.30216
G1 X102.269 Y128.867 E6.34587
G1 X102.71 Y129.436 E6.39077
G1 X103.168 Y129.983 E6.43526
G1 X103.642 Y130.508 E6.47937
G1 X104.139 Y131.02 E6.52387
G1 X104.654 Y131.511 E6.56824
G1 X105.188 Y131.983 E6.61269
G1 X105.747 Y132.44 E6.65771
G1 X106.321 Y132.877 E6.7027
G1 X106.917 Y133.293 E6.74803
G1 X107.518 Y133.681 E6.79264
G1 X108.133 Y134.045 E6.83721
G1 X108.758 Y134.384 E6.88155
G1 X109.409 Y134.705 E6.92682
G1 X110.049 Y134.994 E6.97061
G1 X110.721 Y135.267 E7.01584
G1 X111.381 Y135.505 E7.0596
G1 X112.059 Y135.723 E7.10401
G1 X112.744 Y135.915 E7.14838
G1 X113.451 Y136.082 E7.19368
G1 X114.152 Y136.224 E7.23828
G1 X114.843 Y136.335 E7.28193
G1 X115.596 Y136.426 E7.32923
G1 X116.296 Y136.484 E7.37303
G1 X116.99 Y136.517 E7.41636
G1 X117.692 Y136.523 E7.46014
G0 F3000 X117.698 Y137.123
;TYPE:WALL-OUTER
G1 F1800 X118.462 Y137.102 E7.50781
G1 X119.208 Y137.053 E7.55443
G1 X119.941 Y136.977 E7.60038
G1 X120.669 Y136.872 E7.64625
G1 X121.379 Y136.743 E7.69126
G1 X122.101 Y136.584 E7.73736
G1 X122.825 Y136.397 E7.78399
G1 X123.526 Y136.185 E7.82967
G1 X124.253 Y135.936 E7.87759
G1 X124.929 Y135.675 E7.92278
G1 X125.616 Y135.379 E7.96943
G1 X126.252 Y135.078 E8.01331
G1 X126.922 Y134.73 E8.06039
G1 X127.572 Y134.359 E8.10707
G1 X128.187 Y133.976 E8.15225
G1 X128.808 Y133.557 E8.19897
G1 X129.397 Y133.127 E8.24445
G1 X129.974 Y132.672 E8.29027
G1 X130.534 Y132.194 E8.33619
G1 X131.079 Y131.692 E8.3824
G1 X131.593 Y131.183 E8.42751
G1 X132.126 Y130.612 E8.47622
G1 X132.606 Y130.055 E8.52207
G1 X133.067 Y129.482 E8.56794
G1 X133.504 Y128.891 E8.61378
G1 X133.92 Y128.285 E8.65961
G1 X134.354 Y127.59 E8.71071
G1 X134.375 Y127.582 E8.71212
G1 X134.682 Y127.027 E8.75167
G1 X135.025 Y126.38 E8.79734
G1 X135.301 Y125.81 E8.83683
G1 X135.64 Y125.051 E8.88867
G1 X135.912 Y124.354 E8.93533
G1 X136.158 Y123.659 E8.98131
G1 X136.341 Y123.072 E9.01965
G1 X136.357 Y123.061 E9.02086
G1 X136.564 Y122.258 E9.07258
G1 X136.731 Y121.528 E9.11928
G1 X136.875 Y120.772 E9.16727
G1 X136.984 Y120.046 E9.21306
G1 X137.064 Y119.327 E9.25817
G1 X137.117 Y118.614 E9.30276
G1 X137.147 Y117.845 E9.35075
G1 X137.146 Y117.109 E9.39665
G1 X137.118 Y116.388 E9.44165
G1 X137.061 Y115.642 E9.48831
G1 X136.978 Y114.911 E9.53419
G1 X136.868 Y114.183 E9.5801
G1 X136.73 Y113.46 E9.626
G1 X136.557 Y112.714 E9.67376
G1 X136.336 Y111.922 E9.72504
G1 X136.345 Y111.904 E9.72629
G1 X136.204 Y111.514 E9.75216
G1 X136.216 Y111.496 E9.75351
G1 X135.865 Y110.509 E9.81883
G1 X135.631 Y109.929 E9.85784
G1 X135.332 Y109.251 E9.90405
G1 X134.963 Y108.506 E9.9559
G1 X134.969 Y108.484 E9.95732
G1 X134.334 Y107.376 E10.03696
G1 X134.336 Y107.358 E10.03809
G1 X133.858 Y106.617 E10.09308
G1 X133.481 Y106.076 E10.1342
G1 X133.045 Y105.488 E10.17985
G1 X132.58 Y104.912 E10.22602
G1 X132.076 Y104.332 E10.27394
G1 X131.573 Y103.797 E10.31973
G1 X130.934 Y103.173 E10.37543
G1 X130.933 Y103.156 E10.37649
G1 X129.945 Y102.304 E10.45785
G1 X129.367 Y101.852 E10.50361
G1 X128.781 Y101.425 E10.54883
G1 X128.16 Y101.007 E10.59551
G1 X127.535 Y100.618 E10.64142
G1 X126.901 Y100.258 E10.68689
G1 X126.243 Y99.915 E10.73316
G1 X125.368 Y99.504 E10.79345
G1 X125.358 Y99.509 E10.79415
G1 X124.9 Y99.314 E10.82519
G1 X124.184 Y99.04 E10.873
G1 X123.498 Y98.806 E10.9182
G1 X122.794 Y98.596 E10.96402
G1 X122.069 Y98.409 E11.01071
G1 X121.35 Y98.251 E11.05662
G1 X120.638 Y98.123 E11.10173
G1 X119.908 Y98.019 E11.14772
G1 X119.207 Y97.948 E11.19166
G1 X118.429 Y97.896 E11.24028
G1 X117.697 Y97.876 E11.28595
G1 X116.971 Y97.882 E11.33123
G1 X116.225 Y97.919 E11.37781
G1 X115.381 Y97.996 E11.43066
G1 X115.367 Y97.985 E11.43177
G1 X114.735 Y98.075 E11.47158
G1 X114.016 Y98.192 E11.51701
G1 X113.481 Y98.3 E11.55104
G1 X113.466 Y98.289 E11.5522
G1 X112.452 Y98.545 E11.61742
G1 X112.435 Y98.536 E11.61862
G1 X111.156 Y98.937 E11.70221
G1 X110.476 Y99.183 E11.74731
G1 X109.784 Y99.466 E11.79394
G1 X109.124 Y99.765 E11.83912
G1 X108.46 Y100.094 E11.88533
G1 X107.81 Y100.448 E11.93149
G1 X107.176 Y100.825 E11.97749
G1 X106.542 Y101.236 E12.02461
G1 X105.932 Y101.666 E12.07115
G1 X105.346 Y102.111 E12.11704
G1 X104.786 Y102.572 E12.16228
G1 X104.225 Y103.068 E12.20897
G1 X103.699 Y103.572 E12.2544
G1 X103.183 Y104.105 E12.30067
G1 X102.699 Y104.643 E12.3458
G1 X102.219 Y105.217 E12.39246
G1 X101.77 Y105.8 E12.43835
G1 X101.349 Y106.388 E12.48345
G1 X100.937 Y107.014 E12.53019
G1 X100.556 Y107.642 E12.57599
G1 X100.183 Y108.312 E12.62382
G1 X99.854 Y108.963 E12.6693
G1 X99.544 Y109.637 E12.71557
G1 X99.176 Y110.54 E12.77638
G1 X99.162 Y110.544 E12.77729
G1 X98.775 Y111.708 E12.85379
G1 X98.572 Y112.407 E12.89918
G1 X98.396 Y113.115 E12.94467
G1 X98.243 Y113.848 E12.99137
G1 X98.12 Y114.573 E13.03723
G1 X98.043 Y115.159 E13.07409
G1 X98.027 Y115.172 E13.07537
G1 X97.956 Y116.022 E13.12857
G1 X97.913 Y116.77 E13.17529
G1 X97.901 Y117.505 E13.22114
G1 X97.914 Y118.229 E13.26629
G1 X97.959 Y119.008 E13.31495
G1 X98.048 Y119.881 E13.36968
G1 X98.036 Y119.896 E13.37088
G1 X98.124 Y120.453 E13.40604
G1 X98.226 Y121.004 E13.44099
G1 X98.212 Y121.021 E13.44236
G1 X98.399 Y121.903 E13.49859
G1 X98.577 Y122.616 E13.54442
G1 X98.824 Y123.445 E13.59836
G1 X98.815 Y123.464 E13.59968
G1 X99.014 Y124.016 E13.63627
G1 X99.203 Y124.5 E13.66867
G1 X99.192 Y124.518 E13.66999
G1 X99.556 Y125.392 E13.72903
G1 X99.864 Y126.058 E13.77479
G1 X100.212 Y126.741 E13.82259
G1 X100.572 Y127.384 E13.86855
G1 X100.954 Y128.013 E13.91444
G1 X101.367 Y128.637 E13.96111
G1 X101.788 Y129.225 E14.00621
G1 X102.242 Y129.812 E14.05249
G1 X102.715 Y130.377 E14.09844
G1 X103.204 Y130.918 E14.14392
G1 X103.717 Y131.446 E14.18983
G1 X104.248 Y131.953 E14.23561
G1 X104.8 Y132.44 E14.28152
G1 X105.375 Y132.911 E14.32787
G1 X105.967 Y133.362 E14.37428
G1 X106.583 Y133.791 E14.4211
G1 X107.202 Y134.191 E14.46706
G1 X107.837 Y134.567 E14.51308
G1 X108.482 Y134.917 E14.55884
G1 X109.153 Y135.248 E14.6055
G1 X109.813 Y135.546 E14.65066
G1 X110.506 Y135.827 E14.6973
G1 X111.187 Y136.073 E14.74245
G1 X111.887 Y136.298 E14.78831
G1 X112.594 Y136.496 E14.83409
G1 X113.323 Y136.668 E14.88081
G1 X114.045 Y136.814 E14.92674
G1 X114.759 Y136.929 E14.97184
G1 X115.535 Y137.023 E15.02059
G1 X116.257 Y137.083 E15.06577
G1 X116.973 Y137.117 E15.11047
G1 X117.698 Y137.123 E15.15569
G0 F3000 X117.687 Y136.424
G0 X117.012 Y135.977
;TYPE:SKIN
G1 F1500 X116.325 Y135.944 E15.19858
G1 X115.657 Y135.888 E15.24039
G1 X114.913 Y135.798 E15.28712
G1 X114.256 Y135.693 E15.32861
G1 X113.573 Y135.554 E15.37208
G1 X112.873 Y135.389 E15.41693
G1 X112.21 Y135.203 E15.45987
G1 X111.55 Y134.991 E15.5031
G1 X110.921 Y134.764 E15.54481
G1 X110.256 Y134.494 E15.58957
G1 X109.644 Y134.218 E15.63143
G1 X109 Y133.901 E15.6762
G1 X108.395 Y133.572 E15.71914
G1 X107.808 Y133.224 E15.7617
G1 X107.214 Y132.841 E15.80578
G1 X106.641 Y132.441 E15.84936
G1 X106.082 Y132.016 E15.89315
G1 X105.534 Y131.567 E15.93733
G1 X105.014 Y131.107 E15.98063
G1 X104.516 Y130.632 E16.02354
G1 X104.036 Y130.137 E16.06654
G1 X103.572 Y129.624 E16.10968
G1 X103.135 Y129.102 E16.15214
G1 X102.7 Y128.539 E16.19651
G1 X102.311 Y127.995 E16.23821
G1 X101.914 Y127.397 E16.28297
G1 X101.554 Y126.803 E16.32629
G1 X101.215 Y126.198 E16.36954
G1 X100.888 Y125.554 E16.41458
G1 X100.598 Y124.927 E16.45766
G1 X100.261 Y124.121 E16.51214
G1 X100.266 Y124.086 E16.51435
G1 X100.081 Y123.611 E16.54614
G1 X99.909 Y123.132 E16.57788
G1 X99.911 Y123.099 E16.57994
G1 X99.675 Y122.307 E16.63148
G1 X99.509 Y121.64 E16.67434
G1 X99.337 Y120.834 E16.72574
G1 X99.347 Y120.798 E16.72807
G1 X99.247 Y120.256 E16.76244
G1 X99.171 Y119.775 E16.79281
G1 X99.18 Y119.743 E16.79488
G1 X99.097 Y118.925 E16.84616
G1 X99.054 Y118.179 E16.89276
G1 X99.042 Y117.512 E16.93436
G1 X99.071 Y116.292 E17.01046
G1 X99.086 Y116.278 E17.01174
G1 X99.16 Y115.315 E17.07197
G1 X99.177 Y115.282 E17.07429
G1 X99.248 Y114.752 E17.10764
G1 X99.334 Y114.248 E17.13952
G1 X99.326 Y114.238 E17.14032
G1 X99.507 Y113.377 E17.19519
G1 X99.676 Y112.696 E17.23895
G1 X99.884 Y111.95 E17.28724
G1 X99.901 Y111.939 E17.28851
G1 X100.227 Y110.961 E17.3528
G1 X100.24 Y110.948 E17.35394
G1 X100.588 Y110.098 E17.41122
G1 X100.885 Y109.454 E17.45545
G1 X101.187 Y108.852 E17.49745
G1 X101.539 Y108.223 E17.5424
G1 X101.898 Y107.63 E17.58563
G1 X102.294 Y107.029 E17.63051
G1 X102.683 Y106.485 E17.67222
G1 X103.114 Y105.926 E17.71624
G1 X103.558 Y105.395 E17.75941
G1 X104.014 Y104.888 E17.80193
G1 X104.509 Y104.376 E17.84634
G1 X104.992 Y103.912 E17.88811
G1 X105.531 Y103.436 E17.93296
G1 X106.049 Y103.009 E17.97482
G1 X106.6 Y102.591 E18.01795
G1 X107.175 Y102.186 E18.06181
G1 X107.779 Y101.795 E18.10668
G1 X108.375 Y101.439 E18.14998
G1 X108.986 Y101.106 E18.19337
G1 X109.617 Y100.794 E18.23727
G1 X110.449 Y100.417 E18.29423
G1 X110.458 Y100.423 E18.29491
G1 X110.888 Y100.247 E18.32388
G1 X111.521 Y100.017 E18.36589
G1 X112.724 Y99.642 E18.44447
G1 X112.754 Y99.645 E18.44635
G1 X113.696 Y99.407 E18.50694
G1 X113.731 Y99.414 E18.50917
G1 X114.229 Y99.313 E18.54085
G1 X114.818 Y99.217 E18.57807
G1 X115.475 Y99.123 E18.61946
G1 X115.506 Y99.131 E18.62146
G1 X116.299 Y99.058 E18.67112
G1 X117.01 Y99.022 E18.71552
G1 X117.683 Y99.017 E18.75749
G1 X118.368 Y99.035 E18.80022
G1 X119.118 Y99.086 E18.8471
G1 X119.776 Y99.151 E18.88834
G1 X120.463 Y99.25 E18.93162
G1 X121.119 Y99.367 E18.97318
G1 X121.799 Y99.518 E19.01662
G1 X122.494 Y99.697 E19.06137
G1 X123.157 Y99.895 E19.10452
G1 X123.79 Y100.111 E19.14623
G1 X124.466 Y100.369 E19.19136
G1 X124.878 Y100.545 E19.2193
G1 X124.903 Y100.546 E19.22086
G1 X125.73 Y100.933 E19.2778
G1 X126.362 Y101.262 E19.32223
G1 X126.947 Y101.594 E19.36418
G1 X127.536 Y101.962 E19.40749
G1 X128.131 Y102.364 E19.45227
G1 X128.674 Y102.759 E19.49415
G1 X129.215 Y103.181 E19.53694
G1 X130.141 Y103.98 E19.61321
G1 X130.152 Y104.004 E19.61486
G1 X130.754 Y104.591 E19.66729
G1 X131.23 Y105.097 E19.71062
G1 X131.702 Y105.64 E19.75548
G1 X132.143 Y106.187 E19.7993
G1 X132.552 Y106.737 E19.84205
G1 X132.907 Y107.249 E19.8809
G1 X133.349 Y107.931 E19.93158
G1 X133.355 Y107.961 E19.93349
G1 X133.948 Y108.996 E20.00788
G1 X133.951 Y109.032 E20.01013
G1 X134.295 Y109.729 E20.0586
G1 X134.578 Y110.369 E20.10224
G1 X134.801 Y110.921 E20.13937
G1 X135.127 Y111.838 E20.20006
G1 X135.122 Y111.873 E20.20227
G1 X135.247 Y112.22 E20.22527
G1 X135.243 Y112.253 E20.22734
G1 X135.449 Y112.988 E20.27495
G1 X135.613 Y113.691 E20.31996
G1 X135.742 Y114.37 E20.36307
G1 X135.846 Y115.055 E20.40627
G1 X135.925 Y115.744 E20.44952
G1 X135.979 Y116.454 E20.49393
G1 X136.006 Y117.126 E20.53587
G1 X136.007 Y117.817 E20.57896
G1 X135.978 Y118.543 E20.62428
G1 X135.927 Y119.228 E20.66711
G1 X135.854 Y119.891 E20.70871
G1 X135.751 Y120.573 E20.75172
G1 X135.616 Y121.287 E20.79704
G1 X135.456 Y121.985 E20.8417
G1 X135.264 Y122.723 E20.88925
G1 X135.245 Y122.751 E20.89136
G1 X135.077 Y123.293 E20.92675
G1 X134.844 Y123.951 E20.97028
G1 X134.589 Y124.604 E21.014
G1 X134.267 Y125.323 E21.06313
G1 X134.005 Y125.868 E21.10084
G1 X133.681 Y126.482 E21.14413
G1 X133.408 Y126.972 E21.17911
G1 X133.377 Y126.997 E21.1816
