;FLAVOR:Marlin
;TIME:2601
;Filament used: 2.91288m
;Layer height: 0.2
;MINX:93.828
;MINY:93.801
;MINZ:0.25
;MAXX:141.169
;MAXY:141.199
;MAXZ:17.65
;Generated with Cura_SteamEngine 5.3.0
M140 S55
M105
M190 S55
M104 S212
M105
M109 S212
M82 ;absolute extrusion mode
START_PRINT
G92 E0
G92 E0
G1 F3000 E-6.5
;LAYER_COUNT:88
;LAYER:0
M107
;MESH:22mm-Bolt-for-Tilt-Adjustment.stl
G0 X117.708 Y136.561 Z0.25
;TYPE:WALL-INNER
G1 F3000 E0
G1 F2049.3 X118.42 Y136.541 E0.03902
G1 F2053.2 X119.146 Y136.493 E0.07879
G1 F2057.1 X119.795 Y136.427 E0.11439
G1 F2053.2 X120.563 Y136.318 E0.1568
G1 F2049.3 X121.25 Y136.195 E0.19503
G1 F2057.1 X122.027 Y136.022 E0.23846
G1 F2045.5 X122.842 Y135.8 E0.28482
G1 X123.454 Y135.616 E0.31989
G1 F2057.1 X124.046 Y135.412 E0.35406
G1 F2049.3 X124.703 Y135.158 E0.39264
G1 F2045.5 X125.371 Y134.872 E0.43252
G1 F2041.6 X126.016 Y134.566 E0.47177
G1 F2037.7 X126.638 Y134.241 E0.51043
G1 X127.27 Y133.882 E0.55047
G1 F2053.2 X127.52 Y133.731 E0.56644
G1 F2072.9 X128.139 Y133.333 E0.60629
G1 X128.741 Y132.913 E0.64604
G1 F2053.2 X129.073 Y132.665 E0.6687
G1 F2037.7 X129.633 Y132.222 E0.70803
G1 F2045.5 X129.925 Y131.976 E0.72898
G1 F2069 X130.475 Y131.488 E0.76888
G1 F2080.9 X131.021 Y130.96 E0.80985
G1 X131.527 Y130.434 E0.84922
G1 F2069 X132.16 Y129.711 E0.90136
G1 F2053.2 X132.613 Y129.149 E0.94082
G1 F2061.1 X132.972 Y128.67 E0.97342
G1 X133.441 Y127.99 E1.01841
G1 F2033.9 X133.935 Y127.204 E1.06965
G1 F2045.5 X134.164 Y126.806 E1.09485
G1 F2072.9 X134.531 Y126.112 E1.13736
G1 F2076.9 X134.846 Y125.459 E1.17655
G1 F2061.1 X135.037 Y125.013 E1.20297
G1 F2065 X135.097 Y124.894 E1.21022
G1 F2084.9 X135.419 Y124.069 E1.2579
G1 F2069 X135.628 Y123.468 E1.29242
G1 F2041.6 X135.843 Y122.783 E1.3319
G1 F2053.2 X136.07 Y121.908 E1.38132
G1 F2076.9 X136.225 Y121.192 E1.42091
G1 X136.355 Y120.469 E1.46061
G1 F2084.9 X136.459 Y119.711 E1.50181
G1 F2080.9 X136.531 Y118.953 E1.54288
G1 X136.572 Y118.253 E1.58071
G1 X136.585 Y117.458 E1.6236
G1 F2065 X136.582 Y117.106 E1.64273
G1 F2053.2 X136.554 Y116.399 E1.68142
G1 X136.502 Y115.71 E1.71919
G1 F2069 X136.454 Y115.252 E1.74418
G1 F2080.9 X136.35 Y114.51 E1.78459
G1 F2072.9 X136.212 Y113.742 E1.82685
G1 F2061.1 X136.015 Y112.867 E1.8757
G1 F2033.9 X135.762 Y111.947 E1.92836
G1 X135.376 Y110.815 E1.99437
G1 F2041.6 X135.164 Y110.271 E2.02647
G1 X134.824 Y109.493 E2.07315
G1 F2049.3 X134.462 Y108.751 E2.11837
G1 F2053.2 X134.135 Y108.15 E2.15578
G1 F2065 X133.775 Y107.534 E2.19456
G1 F2057.1 X133.42 Y106.98 E2.23047
G1 F2053.2 X133.013 Y106.389 E2.2697
G1 X132.591 Y105.822 E2.30834
G1 F2045.5 X132.138 Y105.262 E2.34787
G1 F2061.1 X131.512 Y104.548 E2.39959
G1 X131.182 Y104.202 E2.42563
G1 F2037.7 X130.487 Y103.519 E2.47931
G1 F2057.1 X129.885 Y102.991 E2.523
G1 F2084.9 X129.316 Y102.522 E2.5627
G1 X128.721 Y102.072 E2.60287
G1 X128.111 Y101.648 E2.64286
G1 X127.478 Y101.243 E2.68332
G1 X126.838 Y100.868 E2.72326
G1 F2065 X126.015 Y100.434 E2.77384
G1 F2049.3 X125.342 Y100.115 E2.81463
G1 F2084.9 X124.559 Y99.777 E2.86055
G1 X124.431 Y99.736 E2.86779
G1 F2057.1 X124.007 Y99.574 E2.89255
G1 X123.34 Y99.347 E2.931
G1 X122.658 Y99.141 E2.96988
G1 F2061.1 X121.935 Y98.954 E3.01055
G1 F2057.1 X121.216 Y98.798 E3.05069
G1 F2053.2 X120.523 Y98.674 E3.08918
G1 F2057.1 X119.857 Y98.581 E3.12588
G1 F2061.1 X119.146 Y98.508 E3.16481
G1 X118.387 Y98.458 E3.20623
G1 F2057.1 X117.676 Y98.439 E3.24504
G1 F2061.1 X116.734 Y98.455 E3.29636
G1 F2072.9 X115.995 Y98.501 E3.33645
G1 F2057.1 X115.288 Y98.566 E3.37519
G1 F2053.2 X114.532 Y98.676 E3.41696
G1 F2049.3 X114.129 Y98.744 E3.43935
G1 F2022.5 X113.486 Y98.869 E3.4757
G1 F2037.7 X113.044 Y98.972 E3.5007
G1 F2026.3 X112.493 Y99.116 E3.53225
G1 F2030.1 X111.597 Y99.385 E3.58398
G1 F2065 X110.907 Y99.623 E3.62366
G1 F2057.1 X109.997 Y99.99 E3.6772
G1 F2037.7 X109.137 Y100.38 E3.72922
G1 F2033.9 X108.072 Y100.947 E3.79581
G1 F2049.3 X107.459 Y101.312 E3.83489
G1 F2057.1 X106.871 Y101.693 E3.87312
G1 X106.297 Y102.095 E3.91136
G1 X105.716 Y102.536 E3.95116
G1 X105.147 Y103.004 E3.99136
G1 X104.591 Y103.497 E4.03191
G1 X104.102 Y103.964 E4.06881
G1 F2053.2 X103.615 Y104.467 E4.10709
G1 X103.114 Y105.023 E4.148
G1 X102.648 Y105.582 E4.18779
G1 F2061.1 X102.086 Y106.319 E4.23827
G1 F2057.1 X101.804 Y106.72 E4.26502
G1 X101.258 Y107.565 E4.31992
G1 F2069 X100.882 Y108.206 E4.36024
G1 F2065 X100.527 Y108.869 E4.40112
G1 F2061.1 X100.204 Y109.539 E4.44163
G1 F2076.9 X99.811 Y110.45 E4.49525
G1 F2061.1 X99.665 Y110.828 E4.51732
G1 F2026.3 X99.314 Y111.858 E4.57761
G1 F2033.9 X99.174 Y112.332 E4.60488
G1 F2045.5 X98.942 Y113.256 E4.65717
G1 F2057.1 X98.828 Y113.784 E4.68664
G1 F2061.1 X98.675 Y114.674 E4.73583
G1 F2057.1 X98.585 Y115.351 E4.77309
G1 F2065 X98.515 Y116.082 E4.81301
G1 F2061.1 X98.475 Y116.807 E4.85256
G1 F2053.2 X98.462 Y117.542 E4.89275
G1 F2057.1 X98.479 Y118.29 E4.93357
G1 X98.517 Y118.948 E4.96954
G1 F2037.7 X98.614 Y119.92 E5.02335
G1 F2026.3 X98.791 Y121.026 E5.0854
G1 F2045.5 X98.995 Y121.973 E5.13856
G1 F2041.6 X99.123 Y122.453 E5.16588
G1 F2045.5 X99.41 Y123.428 E5.22165
G1 F2061.1 X99.645 Y124.112 E5.26104
G1 F2045.5 X99.802 Y124.517 E5.28488
G1 F2030.1 X100.171 Y125.394 E5.33749
G1 F2049.3 X100.555 Y126.18 E5.38541
G1 F2072.9 X100.905 Y126.835 E5.42563
G1 F2065 X101.275 Y127.466 E5.46539
G1 F2061.1 X101.687 Y128.107 E5.50689
G1 X102.094 Y128.694 E5.54579
G1 F2053.2 X102.666 Y129.441 E5.59723
G1 F2045.5 X103.15 Y130.017 E5.63852
G1 F2049.3 X103.604 Y130.522 E5.67571
G1 F2057.1 X104.102 Y131.035 E5.71473
G1 F2061.1 X104.642 Y131.549 E5.75533
G1 F2057.1 X105.176 Y132.022 E5.79426
G1 F2061.1 X105.747 Y132.489 E5.83443
G1 X106.316 Y132.92 E5.87331
G1 F2057.1 X106.925 Y133.344 E5.9138
G1 X107.496 Y133.711 E5.95084
G1 F2053.2 X108.101 Y134.069 E5.98927
G1 F2049.3 X108.728 Y134.41 E6.02837
G1 F2045.5 X109.378 Y134.733 E6.0682
G1 F2053.2 X110.251 Y135.121 E6.12043
G1 F2065 X110.955 Y135.393 E6.16146
G1 F2061.1 X111.649 Y135.634 E6.20147
G1 X112.359 Y135.849 E6.24187
G1 F2072.9 X113.114 Y136.044 E6.2841
G1 F2069 X113.814 Y136.197 E6.32297
G1 F2065 X114.543 Y136.327 E6.36323
G1 F2045.5 X115.55 Y136.462 E6.41899
G1 F2037.7 X116.05 Y136.507 E6.44664
G1 F2061.1 X116.764 Y136.547 E6.48559
G1 F2057.1 X117.708 Y136.561 E6.53711
G0 F3000 X117.536 Y136
;TYPE:WALL-OUTER
G1 F1800 X116.786 Y135.986 E6.58389
G1 X116.085 Y135.945 E6.62768
G1 X115.369 Y135.875 E6.67254
G1 X114.626 Y135.772 E6.71932
G1 X113.921 Y135.646 E6.76398
G1 X113.22 Y135.494 E6.80871
G1 X112.503 Y135.307 E6.85492
G1 X111.814 Y135.096 E6.89986
G1 X111.127 Y134.859 E6.94518
G1 X110.454 Y134.597 E6.99022
G1 X109.796 Y134.309 E7.03501
G1 X109.13 Y133.986 E7.08117
G1 X108.485 Y133.642 E7.12676
G1 X107.863 Y133.277 E7.17174
G1 X107.246 Y132.883 E7.21739
G1 X106.645 Y132.464 E7.26308
G1 X106.075 Y132.033 E7.30765
G1 X105.51 Y131.568 E7.35328
G1 X104.971 Y131.089 E7.39825
G1 X104.442 Y130.582 E7.44394
G1 X103.943 Y130.062 E7.48889
G1 X103.462 Y129.52 E7.53408
G1 X103.006 Y128.968 E7.57873
G1 X102.549 Y128.365 E7.62591
G1 X102.153 Y127.794 E7.66925
G1 X101.753 Y127.171 E7.71542
G1 X101.392 Y126.556 E7.75989
G1 X101.042 Y125.904 E7.80604
G1 X100.726 Y125.251 E7.85128
G1 X100.435 Y124.584 E7.89666
G1 X100.169 Y123.907 E7.94202
G1 X99.934 Y123.227 E7.98689
G1 X99.537 Y121.826 E8.0777
G1 X99.383 Y121.127 E8.12234
G1 X99.253 Y120.4 E8.1684
G1 X99.153 Y119.68 E8.21373
G1 X99.081 Y118.957 E8.25904
G1 X99.04 Y118.258 E8.30271
G1 X99.025 Y117.518 E8.34886
G1 X99.039 Y116.761 E8.39608
G1 X99.075 Y116.114 E8.43649
G1 X99.15 Y115.344 E8.48474
G1 X99.25 Y114.623 E8.53013
G1 X99.378 Y113.894 E8.57629
G1 X99.532 Y113.2 E8.62062
G1 X99.718 Y112.478 E8.66712
G1 X99.925 Y111.801 E8.71127
G1 X100.162 Y111.115 E8.75653
G1 X100.318 Y110.715 E8.7833
G1 X100.308 Y110.703 E8.78428
G1 X100.716 Y109.77 E8.84778
G1 X101.032 Y109.116 E8.89308
G1 X101.379 Y108.465 E8.93909
G1 X101.748 Y107.839 E8.9844
G1 X102.149 Y107.211 E9.03087
G1 X102.546 Y106.64 E9.07424
G1 X102.984 Y106.06 E9.11956
G1 X103.456 Y105.485 E9.16596
G1 X103.936 Y104.946 E9.21097
G1 X104.442 Y104.418 E9.25657
G1 X104.963 Y103.918 E9.30161
G1 X105.512 Y103.433 E9.34729
G1 X106.056 Y102.983 E9.39132
G1 X106.645 Y102.538 E9.43736
G1 X107.23 Y102.128 E9.48191
G1 X107.843 Y101.734 E9.52735
G1 X108.48 Y101.362 E9.57335
G1 X109.12 Y101.018 E9.61866
G1 X109.774 Y100.701 E9.66399
G1 X110.434 Y100.413 E9.7089
G1 X111.104 Y100.149 E9.75381
G1 X111.798 Y99.909 E9.7996
G1 X113.191 Y99.514 E9.8899
G1 X113.899 Y99.359 E9.93509
G1 X114.622 Y99.229 E9.98091
G1 X115.344 Y99.128 E10.02637
G1 X116.062 Y99.057 E10.07137
G1 X116.778 Y99.015 E10.11609
G1 X117.514 Y99 E10.162
G1 X118.263 Y99.014 E10.20872
G1 X118.965 Y99.055 E10.25257
G1 X119.681 Y99.125 E10.29744
G1 X120.424 Y99.228 E10.34422
G1 X121.135 Y99.355 E10.38926
G1 X121.829 Y99.506 E10.43355
G1 X122.547 Y99.693 E10.47982
G1 X123.236 Y99.904 E10.52476
G1 X123.91 Y100.136 E10.56921
G1 X124.308 Y100.291 E10.59585
G1 X124.36 Y100.298 E10.59912
G1 X125.253 Y100.691 E10.65996
G1 X125.919 Y101.013 E10.7061
G1 X126.565 Y101.359 E10.7518
G1 X127.186 Y101.722 E10.79666
G1 X127.799 Y102.113 E10.842
G1 X128.391 Y102.525 E10.88698
G1 X128.97 Y102.962 E10.93222
G1 X129.537 Y103.427 E10.97795
G1 X130.069 Y103.901 E11.02238
G1 X130.607 Y104.418 E11.06891
G1 X131.102 Y104.932 E11.11342
G1 X131.587 Y105.48 E11.15905
G1 X132.041 Y106.03 E11.20353
G1 X132.492 Y106.624 E11.25004
G1 X132.897 Y107.206 E11.29426
G1 X133.291 Y107.818 E11.33965
G1 X133.669 Y108.466 E11.38643
G1 X134.001 Y109.083 E11.43013
G1 X134.324 Y109.749 E11.47629
G1 X134.609 Y110.403 E11.52078
G1 X134.876 Y111.08 E11.56616
G1 X135.113 Y111.765 E11.61137
G1 X135.329 Y112.472 E11.65747
G1 X135.51 Y113.162 E11.70195
G1 X135.666 Y113.873 E11.74735
G1 X135.795 Y114.588 E11.79266
G1 X135.897 Y115.32 E11.83875
G1 X135.968 Y116.03 E11.88325
G1 X136.011 Y116.753 E11.92841
G1 X136.027 Y117.477 E11.97358
G1 X136.011 Y118.227 E12.02036
G1 X135.973 Y118.927 E12.06408
G1 X135.9 Y119.655 E12.1097
G1 X135.798 Y120.395 E12.15629
G1 X135.671 Y121.104 E12.20121
G1 X135.523 Y121.789 E12.24491
G1 X135.331 Y122.522 E12.29217
G1 X135.125 Y123.199 E12.3363
G1 X134.889 Y123.887 E12.38166
G1 X134.585 Y124.668 E12.43392
G1 X134.55 Y124.713 E12.43748
G1 X134.333 Y125.232 E12.47256
G1 X134.011 Y125.895 E12.51852
G1 X133.672 Y126.534 E12.56363
G1 X133.302 Y127.16 E12.60898
G1 X132.902 Y127.788 E12.65542
G1 X132.504 Y128.36 E12.69887
G1 X132.066 Y128.94 E12.7442
G1 X131.587 Y129.521 E12.79116
G1 X131.113 Y130.054 E12.83564
G1 X130.607 Y130.582 E12.88125
G1 X130.089 Y131.08 E12.92606
G1 X129.552 Y131.555 E12.97077
G1 X128.998 Y132.015 E13.01567
G1 X128.404 Y132.462 E13.06203
G1 X127.819 Y132.872 E13.10658
G1 X127.214 Y133.262 E13.15147
G1 X126.579 Y133.634 E13.19737
G1 X125.932 Y133.98 E13.24312
G1 X125.29 Y134.292 E13.28764
G1 X124.616 Y134.587 E13.33352
G1 X123.957 Y134.847 E13.3777
G1 X123.27 Y135.085 E13.42304
G1 X121.861 Y135.485 E13.51438
G1 X121.151 Y135.641 E13.55972
G1 X120.428 Y135.771 E13.60553
G1 X119.705 Y135.872 E13.65106
G1 X118.988 Y135.943 E13.69599
G1 X118.271 Y135.985 E13.74078
G1 X117.536 Y136 E13.78662
G1 F3000 E7.28662
G0 X117.531 Y136.299
G0 X115.448 Y136.712
G0 X115.411 Y137.011
M104 S210
G1 F3000 E13.78662
G1 F1800 X115.418 Y137.02 E13.78734
G1 X116.249 Y137.083 E13.83931
G1 X116.999 Y137.118 E13.88613
G1 X117.724 Y137.125 E13.93135
G1 X118.455 Y137.103 E13.97695
G1 X119.203 Y137.053 E14.02371
G1 X119.934 Y136.976 E14.06954
G1 X120.662 Y136.873 E14.1154
G1 X121.405 Y136.738 E14.16249
G1 X122.093 Y136.585 E14.20644
G1 X122.85 Y136.389 E14.25521
G1 X123.585 Y136.165 E14.30313
G1 X124.247 Y135.937 E14.34679
G1 X124.924 Y135.676 E14.39204
G1 X125.611 Y135.382 E14.43864
G1 X126.277 Y135.067 E14.48459
G1 X126.916 Y134.732 E14.52958
G1 X127.567 Y134.362 E14.57628
G1 X128.182 Y133.979 E14.62146
G1 X128.829 Y133.543 E14.67012
G1 X129.423 Y133.109 E14.71599
G1 X130 Y132.651 E14.76193
G1 X130.547 Y132.183 E14.80683
G1 X131.09 Y131.681 E14.85295
G1 X131.611 Y131.162 E14.89881
G1 X132.121 Y130.616 E14.9454
G1 X132.597 Y130.065 E14.99081
G1 X133.063 Y129.486 E15.03716
G1 X133.483 Y128.922 E15.08101
G1 X133.918 Y128.288 E15.12896
G1 X134.37 Y127.569 E15.18193
G1 X134.384 Y127.565 E15.18283
G1 X134.676 Y127.036 E15.22052
G1 X135.032 Y126.366 E15.26783
G1 X135.311 Y125.788 E15.30786
G1 X135.649 Y125.025 E15.3599
G1 X135.919 Y124.336 E15.40605
G1 X136.165 Y123.634 E15.45244
G1 X136.358 Y123.021 E15.49251
G1 X136.368 Y123.014 E15.49328
G1 X136.569 Y122.237 E15.54333
G1 X136.736 Y121.504 E15.59021
G1 X136.874 Y120.779 E15.63623
G1 X136.982 Y120.062 E15.68145
G1 X137.065 Y119.331 E15.72733
G1 X137.119 Y118.598 E15.77317
G1 X137.145 Y117.892 E15.81723
G1 X137.145 Y117.084 E15.86762
G1 X137.117 Y116.376 E15.9118
G1 X137.061 Y115.648 E15.95734
G1 X136.978 Y114.918 E16.00316
G1 X136.863 Y114.157 E16.05115
G1 X136.729 Y113.455 E16.09572
G1 X136.558 Y112.717 E16.14296
G1 X136.324 Y111.868 E16.19789
G1 X136.332 Y111.855 E16.19884
G1 X135.899 Y110.609 E16.2811
G1 X135.711 Y110.128 E16.31331
G1 X135.716 Y110.122 E16.31379
G1 X135.33 Y109.248 E16.37338
G1 X134.963 Y108.493 E16.42573
G1 X134.621 Y107.869 E16.4701
G1 X134.277 Y107.278 E16.51275
G1 X133.884 Y106.661 E16.55837
G1 X133.465 Y106.054 E16.60437
G1 X133.044 Y105.486 E16.64846
G1 X132.564 Y104.892 E16.69608
G1 X132.079 Y104.336 E16.7421
G1 X131.576 Y103.799 E16.78798
G1 X130.924 Y103.16 E16.84491
G1 X130.924 Y103.15 E16.84554
G1 X129.957 Y102.315 E16.92521
G1 X129.371 Y101.856 E16.97163
G1 X128.76 Y101.41 E17.01881
G1 X128.14 Y100.995 E17.06534
G1 X127.524 Y100.614 E17.11051
G1 X126.874 Y100.246 E17.15709
G1 X126.257 Y99.925 E17.20046
G1 X125.573 Y99.601 E17.24766
G1 X124.877 Y99.305 E17.29483
G1 X124.188 Y99.042 E17.34082
G1 X123.512 Y98.811 E17.38537
G1 X122.799 Y98.597 E17.43179
G1 X122.056 Y98.406 E17.47964
G1 X121.316 Y98.245 E17.52686
G1 X120.601 Y98.117 E17.57216
G1 X119.915 Y98.022 E17.61535
G1 X119.183 Y97.948 E17.66123
G1 X118.403 Y97.896 E17.70998
G1 X117.691 Y97.876 E17.7544
G1 X116.945 Y97.883 E17.80093
G1 X116.199 Y97.92 E17.84751
G1 X115.299 Y98.001 E17.90386
G1 X115.291 Y97.994 E17.90453
G1 X114.018 Y98.19 E17.98485
G1 X113.454 Y98.302 E18.02071
G1 X113.445 Y98.294 E18.02146
G1 X112.428 Y98.549 E18.08685
G1 X112.418 Y98.542 E18.08761
G1 X111.159 Y98.935 E18.16986
G1 X110.455 Y99.193 E18.21662
G1 X109.762 Y99.478 E18.26335
G1 X108.975 Y99.837 E18.31729
G1 X108.961 Y99.832 E18.31822
G1 X107.785 Y100.462 E18.40142
G1 X107.154 Y100.839 E18.44726
G1 X106.549 Y101.232 E18.49225
G1 X105.935 Y101.663 E18.53903
G1 X105.36 Y102.102 E18.58414
G1 X104.753 Y102.602 E18.63319
G1 X104.245 Y103.05 E18.67543
G1 X103.699 Y103.572 E18.72254
G1 X103.197 Y104.09 E18.76752
G1 X102.683 Y104.662 E18.81548
G1 X102.202 Y105.239 E18.86232
G1 X101.775 Y105.795 E18.90604
G1 X101.334 Y106.41 E18.95324
G1 X100.925 Y107.034 E18.99977
G1 X100.543 Y107.664 E19.04571
G1 X100.185 Y108.308 E19.09166
G1 X99.857 Y108.957 E19.13701
G1 X99.555 Y109.609 E19.18182
G1 X99.168 Y110.556 E19.24562
G1 X99.158 Y110.559 E19.24627
G1 X98.803 Y111.613 E19.31563
G1 X98.793 Y111.619 E19.31636
G1 X98.576 Y112.392 E19.36643
G1 X98.391 Y113.141 E19.41454
G1 X98.246 Y113.842 E19.45918
G1 X98.117 Y114.6 E19.50713
G1 X98.026 Y115.297 E19.55097
G1 X97.955 Y116.04 E19.59752
G1 X97.913 Y116.796 E19.64473
G1 X97.899 Y117.553 E19.69195
G1 X97.914 Y118.257 E19.73586
G1 X97.957 Y119.004 E19.78253
G1 X98.047 Y119.904 E19.83893
G1 X98.039 Y119.913 E19.83968
G1 X98.226 Y121.033 E19.9105
G1 X98.217 Y121.043 E19.91134
G1 X98.406 Y121.928 E19.96777
G1 X98.578 Y122.609 E20.01157
G1 X98.794 Y123.355 E20.06001
G1 X98.963 Y123.866 E20.09357
G1 X98.958 Y123.873 E20.09411
G1 X99.283 Y124.738 E20.15173
G1 X99.624 Y125.544 E20.20631
G1 X99.619 Y125.558 E20.20724
G1 X100.211 Y126.739 E20.28963
G1 X100.569 Y127.379 E20.33536
G1 X100.951 Y128.008 E20.38125
G1 X101.363 Y128.633 E20.42793
G1 X101.784 Y129.222 E20.47308
G1 X102.234 Y129.803 E20.51891
G1 X102.731 Y130.394 E20.56707
G1 X103.186 Y130.899 E20.60946
G1 X103.713 Y131.441 E20.65661
G1 X104.268 Y131.97 E20.70442
