;FLAVOR:Marlin
;TIME:452
;Filament used: 0.283685m
;Layer height: 0.2
;MINX:80.17
;MINY:82.966
;MINZ:0.25
;MAXX:142.974
;MAXY:127.409
;MAXZ:0.65
;Generated with Cura_SteamEngine 5.3.0
M140 S55
M105
M190 S55
M104 S212
M105
M109 S212
M82 ;absolute extrusion mode
START_PRINT
G92 E0
G92 E0
G1 F3000 E-6.5
;LAYER_COUNT:3
;LAYER:0
M107
G0 X93.508 Y84.888 Z0.25
;TYPE:SKIRT
G1 F3000 E0
G1 F600 X93.776 Y84.753 E0.01248
G1 X93.953 Y84.722 E0.01995
G1 X97.334 Y84.899 E0.1607
G1 X100.709 Y84.89 E0.30102
G1 X104.091 Y84.693 E0.44187
G1 X104.337 Y84.737 E0.45226
G1 X104.495 Y84.82 E0.45968
G1 X104.669 Y85.07 E0.47234
G1 X104.724 Y85.241 E0.47981
G1 X106.198 Y102.458 E1.19823
G1 X106.161 Y102.703 E1.20853
G1 X106.028 Y102.92 E1.21911
G1 X105.917 Y103.013 E1.22513
G1 X105.681 Y103.105 E1.23566
G1 X101.227 Y103.343 E1.4211
G1 X96.815 Y103.363 E1.60453
G1 X92.436 Y103.169 E1.78677
G1 X92.196 Y103.099 E1.79716
G1 X92 Y102.94 E1.80766
G1 X91.923 Y102.819 E1.81362
G1 X91.861 Y102.57 E1.82429
G1 X93.324 Y85.27 E2.5461
G1 X93.404 Y85.032 E2.55654
G1 X93.508 Y84.888 E2.56393
G0 F3000 X93.772 Y85.189
G1 F600 X93.932 Y85.121 E2.57116
G1 X97.332 Y85.299 E2.71271
G1 X100.715 Y85.29 E2.85335
G1 X104.114 Y85.092 E2.99491
G1 X104.235 Y85.124 E3.00011
G1 X104.325 Y85.275 E3.00742
G1 X105.799 Y102.492 E3.72584
G1 X105.771 Y102.613 E3.731
G1 X105.66 Y102.706 E3.73702
G1 X101.225 Y102.943 E3.92167
G1 X96.833 Y102.963 E4.10427
G1 X92.454 Y102.769 E4.28651
G1 X92.337 Y102.725 E4.2917
G1 X92.26 Y102.604 E4.29767
G1 X93.723 Y85.304 E5.01948
G1 X93.772 Y85.189 E5.02468
G1 F3000 E-1.47532
G0 X93.269 Y85.147
G0 X91.755 Y103.191
G0 X92.397 Y108.674
G0 X92.401 Y108.737
G1 F3000 E5.02468
G1 F600 X92.647 Y108.781 E5.03507
G1 X92.805 Y108.864 E5.04249
G1 X92.979 Y109.114 E5.05516
G1 X93.034 Y109.285 E5.06262
G1 X94.508 Y126.502 E5.78104
G1 X94.471 Y126.747 E5.79134
G1 X94.338 Y126.964 E5.80192
G1 X94.227 Y127.057 E5.80794
G1 X93.991 Y127.149 E5.81848
G1 X89.536 Y127.387 E6.00396
G1 X85.125 Y127.407 E6.18735
G1 X80.745 Y127.213 E6.36962
G1 X80.505 Y127.143 E6.38002
G1 X80.309 Y126.984 E6.39051
G1 X80.232 Y126.863 E6.39647
G1 X80.17 Y126.614 E6.40714
G1 X81.633 Y109.314 E7.12896
G1 X81.713 Y109.076 E7.1394
G1 X81.817 Y108.932 E7.14678
G1 X82.085 Y108.797 E7.15926
G1 X82.262 Y108.766 E7.16673
G1 X85.644 Y108.943 E7.30753
G1 X89.018 Y108.933 E7.44781
G1 X92.401 Y108.737 E7.58869
G1 F3000 E1.08869
G0 X92.397 Y108.674
G0 X82.109 Y108.693
G0 X82.081 Y109.233
G1 F3000 E7.58869
G1 F600 X82.241 Y109.165 E7.59592
G1 X85.642 Y109.343 E7.73751
G1 X89.024 Y109.333 E7.87812
G1 X92.424 Y109.136 E8.01971
G1 X92.545 Y109.168 E8.02491
G1 X92.635 Y109.319 E8.03222
G1 X94.109 Y126.536 E8.75064
G1 X94.081 Y126.657 E8.7558
G1 X93.97 Y126.75 E8.76182
G1 X89.534 Y126.987 E8.94651
G1 X85.143 Y127.007 E9.12907
G1 X80.763 Y126.813 E9.31135
G1 X80.646 Y126.769 E9.31655
G1 X80.569 Y126.648 E9.32251
G1 X82.032 Y109.348 E10.04433
G1 X82.081 Y109.233 E10.04952
G1 F3000 E3.54952
G0 X82.109 Y108.693
G0 X90.956 Y108.657
G0 X105.602 Y108.737
G0 X105.666 Y108.742
G1 F3000 E10.04952
G1 F600 X105.746 Y108.504 E10.05996
G1 X105.85 Y108.36 E10.06735
G1 X106.119 Y108.225 E10.07986
G1 X106.296 Y108.194 E10.08733
G1 X109.677 Y108.372 E10.22809
G1 X113.051 Y108.362 E10.36837
G1 X116.433 Y108.166 E10.50921
G1 X116.679 Y108.21 E10.5196
G1 X116.837 Y108.293 E10.52702
G1 X117.011 Y108.543 E10.53968
G1 X117.066 Y108.714 E10.54715
G1 X118.54 Y125.931 E11.26557
G1 X118.503 Y126.176 E11.27587
G1 X118.37 Y126.393 E11.28645
G1 X118.259 Y126.486 E11.29247
G1 X118.023 Y126.578 E11.30301
G1 X113.569 Y126.815 E11.48844
G1 X109.157 Y126.835 E11.67187
G1 X104.778 Y126.642 E11.85411
G1 X104.538 Y126.572 E11.8645
G1 X104.342 Y126.413 E11.875
G1 X104.265 Y126.292 E11.88096
G1 X104.203 Y126.043 E11.89163
G1 X105.666 Y108.742 E12.61349
G0 F3000 X106.114 Y108.661
G1 F600 X106.275 Y108.593 E12.62075
G1 X109.675 Y108.772 E12.7623
G1 X113.057 Y108.762 E12.90291
G1 X116.456 Y108.565 E13.04446
G1 X116.577 Y108.597 E13.04967
G1 X116.667 Y108.748 E13.05697
G1 X118.141 Y125.965 E13.77539
G1 X118.113 Y126.086 E13.78056
G1 X118.002 Y126.179 E13.78658
G1 X113.567 Y126.415 E13.97122
G1 X109.175 Y126.435 E14.15382
G1 X104.796 Y126.242 E14.33606
G1 X104.679 Y126.198 E14.34125
G1 X104.602 Y126.077 E14.34722
G1 X106.065 Y108.776 E15.06908
G1 X106.114 Y108.661 E15.07427
G1 F3000 E8.57427
G0 X106.142 Y108.121
G0 X116.175 Y101.194
G0 X116.409 Y101.213
G1 F3000 E15.07427
G1 F600 X116.332 Y101.092 E15.08024
G1 X116.27 Y100.843 E15.0909
G1 X117.733 Y83.543 E15.81272
G1 X117.813 Y83.305 E15.82316
G1 X117.917 Y83.161 E15.83055
G1 X118.185 Y83.026 E15.84302
G1 X118.362 Y82.995 E15.85049
G1 X121.743 Y83.172 E15.99125
G1 X125.118 Y83.162 E16.13157
G1 X128.5 Y82.966 E16.27241
G1 X128.746 Y83.01 E16.2828
G1 X128.904 Y83.093 E16.29022
G1 X129.078 Y83.343 E16.30288
G1 X129.133 Y83.514 E16.31035
G1 X130.608 Y100.731 E17.02877
G1 X130.571 Y100.976 E17.03908
G1 X130.438 Y101.193 E17.04966
G1 X130.327 Y101.286 E17.05568
G1 X130.091 Y101.378 E17.06621
G1 X125.636 Y101.615 E17.25169
G1 X121.225 Y101.635 E17.43508
G1 X116.845 Y101.442 E17.61735
G1 X116.605 Y101.372 E17.62775
G1 X116.409 Y101.213 E17.63824
G1 F3000 E11.13824
G0 X116.175 Y101.194
G0 X117.678 Y83.42
G0 X118.181 Y83.462
G1 F3000 E17.63824
G1 F600 X118.341 Y83.394 E17.64547
G1 X121.741 Y83.572 E17.78702
G1 X125.124 Y83.562 E17.92767
G1 X128.523 Y83.365 E18.06922
G1 X128.644 Y83.397 E18.07442
G1 X128.734 Y83.548 E18.08173
G1 X130.209 Y100.765 E18.80015
G1 X130.181 Y100.886 E18.80531
G1 X130.07 Y100.979 E18.81134
G1 X125.634 Y101.215 E18.99602
G1 X121.243 Y101.235 E19.17858
G1 X116.863 Y101.042 E19.36086
G1 X116.746 Y100.998 E19.36606
G1 X116.669 Y100.877 E19.37202
G1 X118.132 Y83.577 E20.09384
G1 X118.181 Y83.462 E20.09903
G1 F3000 E13.59903
G0 X117.678 Y83.42
G0 X116.164 Y101.464
G0 X130.556 Y108.695
G0 X130.551 Y108.8
G1 F3000 E20.09903
G1 F600 X130.728 Y108.769 E20.1065
G1 X134.109 Y108.946 E20.24726
G1 X137.484 Y108.936 E20.38758
G1 X140.866 Y108.74 E20.52842
G1 X141.112 Y108.784 E20.53881
G1 X141.27 Y108.867 E20.54623
G1 X141.444 Y109.117 E20.55889
G1 X141.499 Y109.288 E20.56636
G1 X142.974 Y126.505 E21.28478
G1 X142.937 Y126.75 E21.29509
G1 X142.804 Y126.967 E21.30567
G1 X142.693 Y127.06 E21.31169
G1 X142.457 Y127.152 E21.32222
G1 X138.002 Y127.389 E21.5077
G1 X133.591 Y127.409 E21.69109
G1 X129.211 Y127.216 E21.87336
G1 X128.971 Y127.146 E21.88376
G1 X128.775 Y126.987 E21.89425
G1 X128.698 Y126.866 E21.90021
G1 X128.636 Y126.617 E21.91088
G1 X130.099 Y109.317 E22.6327
G1 X130.179 Y109.079 E22.64314
G1 X130.283 Y108.935 E22.65052
G1 X130.551 Y108.8 E22.663
G0 F3000 X130.547 Y109.236
G1 F600 X130.707 Y109.168 E22.67023
G1 X134.107 Y109.346 E22.81178
G1 X137.49 Y109.336 E22.95243
G1 X140.889 Y109.139 E23.09398
G1 X141.01 Y109.171 E23.09918
G1 X141.1 Y109.322 E23.10649
G1 X142.575 Y126.539 E23.82491
G1 X142.547 Y126.66 E23.83007
G1 X142.436 Y126.753 E23.83609
G1 X138 Y126.989 E24.02078
G1 X133.609 Y127.009 E24.20334
G1 X129.229 Y126.816 E24.38562
G1 X129.112 Y126.772 E24.39081
G1 X129.035 Y126.651 E24.39678
G1 X130.498 Y109.351 E25.11859
G1 X130.547 Y109.236 E25.12379
G1 F3000 E18.62379
;MESH:roulette-wheel-19.stl
G0 X130.044 Y109.194
G0 X106.225 Y102.027
G0 X105.151 Y102.119
G0 X104.082 Y101.187
;TYPE:WALL-INNER
G1 F3000 E25.12379
G1 F1800 X102.848 Y86.769 E25.72541
G1 X100.817 Y86.888 E25.81
G1 X97.256 Y86.898 E25.95805
G1 X95.203 Y86.791 E26.04352
G1 X93.98 Y101.234 E26.64614
G1 X96.874 Y101.363 E26.76657
G1 X101.175 Y101.343 E26.94539
G1 X104.082 Y101.187 E27.06642
G0 F3000 X104.515 Y101.564
G1 F1800 X103.213 Y86.347 E27.70139
G1 X100.794 Y86.489 E27.80213
G1 X97.277 Y86.498 E27.94835
G1 X94.837 Y86.371 E28.04993
G1 X93.547 Y101.616 E28.68601
G1 X96.866 Y101.763 E28.82413
G1 X101.186 Y101.743 E29.00374
G1 X104.515 Y101.564 E29.14234
G0 F3000 X104.949 Y101.942
G1 F1800 X103.578 Y85.925 E29.81069
G1 X100.737 Y86.09 E29.929
G1 X97.298 Y86.099 E30.07198
G1 X94.471 Y85.951 E30.18967
G1 X93.113 Y101.997 E30.85917
G1 X96.858 Y102.163 E31.01502
G1 X101.198 Y102.143 E31.19546
G1 X104.949 Y101.942 E31.35163
G0 F3000 X105.383 Y102.319
;TYPE:WALL-OUTER
G1 F1800 X103.944 Y85.503 E32.05332
G1 X100.736 Y85.69 E32.18692
G1 X97.319 Y85.699 E32.32898
G1 X94.105 Y85.531 E32.46278
G1 X92.679 Y102.378 E33.16571
G1 X96.85 Y102.563 E33.33929
G1 X101.21 Y102.543 E33.52056
G1 X105.383 Y102.319 E33.6943
G0 F3000 X105.091 Y102.067
G0 X103.691 Y100.846
;TYPE:SKIN
G1 F1500 X101.156 Y100.983 E33.79985
G1 X96.886 Y101.003 E33.97737
G1 X94.371 Y100.891 E34.08204
G1 X95.533 Y87.169 E34.65458
G1 X97.245 Y87.258 E34.72585
G1 X100.836 Y87.249 E34.87515
G1 X102.52 Y87.15 E34.94528
G1 X103.691 Y100.846 E35.51677
G0 F3000 X94.623 Y100.28
G1 F1500 X95.063 Y100.72 E35.54264
G0 F3000 X95.655 Y100.746
G1 F1500 X94.667 Y99.758 E35.60073
G0 F3000 X94.711 Y99.236
G1 F1500 X96.247 Y100.773 E35.69107
G0 F3000 X96.839 Y100.799
G1 F1500 X94.755 Y98.715 E35.8136
G0 F3000 X94.799 Y98.193
G1 F1500 X97.405 Y100.799 E35.96682
G0 F3000 X97.968 Y100.797
G1 F1500 X94.844 Y97.672 E36.15053
G0 F3000 X94.888 Y97.15
G1 F1500 X98.531 Y100.794 E36.36476
G0 F3000 X99.095 Y100.792
G1 F1500 X94.931 Y96.628 E36.60958
G0 F3000 X94.976 Y96.107
G1 F1500 X99.658 Y100.789 E36.88487
G0 F3000 X100.221 Y100.786
G1 F1500 X95.02 Y95.585 E37.19067
G0 F3000 X95.064 Y95.064
G1 F1500 X100.784 Y100.784 E37.52698
G0 F3000 X101.338 Y100.772
G1 F1500 X95.108 Y94.543 E37.89325
G0 F3000 X95.153 Y94.021
G1 F1500 X101.874 Y100.743 E38.28845
G0 F3000 X102.411 Y100.714
G1 F1500 X95.197 Y93.5 E38.71261
G0 F3000 X95.24 Y92.978
G1 F1500 X102.948 Y100.685 E39.16578
G0 F3000 X103.472 Y100.643
G1 F1500 X95.285 Y92.457 E39.64711
G0 F3000 X95.329 Y91.935
G1 F1500 X103.419 Y100.025 E40.12277
G0 F3000 X103.366 Y99.406
G1 F1500 X95.373 Y91.414 E40.5927
G0 F3000 X95.417 Y90.892
G1 F1500 X103.313 Y98.787 E41.05693
G0 F3000 X103.26 Y98.169
G1 F1500 X95.461 Y90.37 E41.51548
G0 F3000 X95.506 Y89.849
G1 F1500 X103.207 Y97.551 E41.9683
G0 F3000 X103.154 Y96.932
G1 F1500 X95.549 Y89.327 E42.41544
G0 F3000 X95.594 Y88.806
G1 F1500 X103.101 Y96.313 E42.85682
G0 F3000 X103.048 Y95.694
G1 F1500 X95.638 Y88.284 E43.2925
G0 F3000 X95.682 Y87.762
G1 F1500 X102.996 Y95.076 E43.72254
G0 F3000 X102.943 Y94.458
G1 F1500 X95.872 Y87.387 E44.13829
G0 F3000 X96.469 Y87.418
G1 F1500 X102.89 Y93.839 E44.51582
G0 F3000 X102.837 Y93.22
G1 F1500 X97.065 Y87.449 E44.85516
G0 F3000 X97.639 Y87.457
G1 F1500 X102.784 Y92.601 E45.15764
G0 F3000 X102.732 Y91.983
G1 F1500 X98.203 Y87.455 E45.42389
G0 F3000 X98.767 Y87.454
G1 F1500 X102.678 Y91.365 E45.65385
G0 F3000 X102.625 Y90.746
G1 F1500 X99.332 Y87.453 E45.84746
G0 F3000 X99.897 Y87.452
G1 F1500 X102.572 Y90.127 E46.00474
G0 F3000 X102.519 Y89.509
G1 F1500 X100.461 Y87.45 E46.12577
G0 F3000 X101.015 Y87.439
G1 F1500 X102.466 Y88.89 E46.21109
G0 F3000 X102.414 Y88.272
G1 F1500 X101.549 Y87.407 E46.26195
G0 F3000 X102.084 Y87.376
G1 F1500 X102.361 Y87.653 E46.27823
G1 F3000 E39.77823
;MESH:roulette-wheel-12.stl
G0 X105.039 Y100.651
G0 X106.099 Y100.56
G0 X116.246 Y100.357
G0 X117.321 Y100.447
G0 X118.39 Y99.508
;TYPE:WALL-INNER
G1 F3000 E46.27823
G1 F1800 X121.285 Y99.635 E46.39871
G1 X125.584 Y99.615 E46.57744
G1 X128.492 Y99.46 E46.69851
G1 X127.257 Y85.042 E47.30014
G1 X125.225 Y85.16 E47.38476
G1 X121.665 Y85.171 E47.53277
G1 X119.612 Y85.064 E47.61824
G1 X118.39 Y99.508 E48.2209
G0 F3000 X117.957 Y99.889
G1 F1800 X121.277 Y100.035 E48.35906
G1 X125.596 Y100.015 E48.53863
G1 X128.925 Y99.837 E48.67723
G1 X127.622 Y84.62 E49.31219
G1 X125.202 Y84.761 E49.41297
G1 X121.686 Y84.771 E49.55915
G1 X119.246 Y84.644 E49.66073
G1 X117.957 Y99.889 E50.29681
G0 F3000 X117.523 Y100.27
G1 F1800 X121.269 Y100.435 E50.4527
G1 X125.607 Y100.415 E50.63306
G1 X129.359 Y100.214 E50.78927
G1 X127.987 Y84.198 E51.45758
G1 X125.146 Y84.362 E51.57589
G1 X121.707 Y84.372 E51.71886
G1 X118.88 Y84.224 E51.83656
G1 X117.523 Y100.27 E52.50606
G0 F3000 X117.089 Y100.652
;TYPE:WALL-OUTER
G1 F1800 X121.261 Y100.835 E52.67967
G1 X125.619 Y100.815 E52.86086
G1 X129.793 Y100.592 E53.03464
G1 X128.353 Y83.776 E53.73633
G1 X125.145 Y83.962 E53.86993
G1 X121.728 Y83.972 E54.01199
G1 X118.514 Y83.804 E54.14579
G1 X117.089 Y100.652 E54.84875
G0 F3000 X117.381 Y100.394
G0 X118.78 Y99.165
;TYPE:SKIN
G1 F1500 X119.942 Y85.442 E55.42133
G1 X121.654 Y85.531 E55.4926
G1 X125.244 Y85.52 E55.64186
G1 X126.929 Y85.422 E55.71203
G1 X128.101 Y99.119 E56.28357
G1 X125.565 Y99.255 E56.38915
G1 X121.298 Y99.275 E56.56656
G1 X118.78 Y99.165 E56.67134
G0 F3000 X119.022 Y98.657
G1 F1500 X119.353 Y98.989 E56.69083
G0 F3000 X119.945 Y99.015
G1 F1500 X119.066 Y98.136 E56.74252
G0 F3000 X119.11 Y97.614
G1 F1500 X120.537 Y99.041 E56.82642
G0 F3000 X121.129 Y99.067
G1 F1500 X119.155 Y97.093 E56.94248
G0 F3000 X119.199 Y96.571
G1 F1500 X121.7 Y99.073 E57.08956
G0 F3000 X122.263 Y99.07
G1 F1500 X119.243 Y96.05 E57.26713
G0 F3000 X119.287 Y95.528
G1 F1500 X122.826 Y99.067 E57.47521
G0 F3000 X123.389 Y99.064
G1 F1500 X119.332 Y95.007 E57.71374
G0 F3000 X119.375 Y94.485
G1 F1500 X123.952 Y99.062 E57.98285
G0 F3000 X124.515 Y99.06
G1 F1500 X119.42 Y93.964 E58.28245
G0 F3000 X119.464 Y93.442
G1 F1500 X125.078 Y99.057 E58.61256
G0 F3000 X125.637 Y99.05
G1 F1500 X119.508 Y92.921 E58.97292
G0 F3000 X119.552 Y92.399
G1 F1500 X126.174 Y99.021 E59.36227
G0 F3000 X126.711 Y98.992
G1 F1500 X119.597 Y91.878 E59.78054
G0 F3000 X119.641 Y91.356
G1 F1500 X127.248 Y98.963 E60.22781
G0 F3000 X127.784 Y98.934
G1 F1500 X119.684 Y90.834 E60.70406
G0 F3000 X119.729 Y90.313
G1 F1500 X127.839 Y98.424 E61.18092
G0 F3000 X127.786 Y97.805
G1 F1500 X119.773 Y89.791 E61.65208
G0 F3000 X119.817 Y89.27
G1 F1500 X127.734 Y97.187 E62.11757
G0 F3000 X127.681 Y96.568
G1 F1500 X119.861 Y88.748 E62.57736
G0 F3000 X119.906 Y88.227
G1 F1500 X127.628 Y95.95 E63.03141
G0 F3000 X127.575 Y95.331
G1 F1500 X119.95 Y87.705 E63.47976
G0 F3000 X119.994 Y87.184
G1 F1500 X127.522 Y94.712 E63.92238
G0 F3000 X127.469 Y94.093
G1 F1500 X120.038 Y86.663 E64.35927
G0 F3000 X120.082 Y86.141
G1 F1500 X127.416 Y93.475 E64.79048
G0 F3000 X127.364 Y92.857
G1 F1500 X120.16 Y85.653 E65.21404
G0 F3000 X120.757 Y85.685
G1 F1500 X127.311 Y92.238 E65.59937
G0 F3000 X127.258 Y91.619
G1 F1500 X121.354 Y85.716 E65.94647
G0 F3000 X121.934 Y85.73
G1 F1500 X127.204 Y91.001 E66.25635
G0 F3000 X127.151 Y90.382
G1 F1500 X122.498 Y85.728 E66.52996
G0 F3000 X123.062 Y85.727
G1 F1500 X127.098 Y89.763 E66.76726
G0 F3000 X127.045 Y89.144
G1 F1500 X123.626 Y85.725 E66.96829
G0 F3000 X124.19 Y85.723
G1 F1500 X126.993 Y88.526 E67.13309
G0 F3000 X126.94 Y87.908
G1 F1500 X124.754 Y85.722 E67.26162
G0 F3000 X125.315 Y85.717
G1 F1500 X126.887 Y87.289 E67.35405
G0 F3000 X126.834 Y86.67
G1 F1500 X125.85 Y85.686 E67.4119
G0 F3000 X126.384 Y85.654
G1 F1500 X126.781 Y86.052 E67.43528
G1 F3000 E60.93528
;MESH:roulette-wheel-14.stl
G0 X121.267 Y100.616
G0 X121.221 Y101.699
G0 X116.026 Y108.126
G0 X116.089 Y109.202
G0 X116.424 Y124.66
;TYPE:WALL-INNER
G1 F3000 E67.43528
G1 F1800 X115.19 Y110.242 E68.0369
G1 X113.158 Y110.36 E68.12152
G1 X109.598 Y110.371 E68.26953
G1 X107.546 Y110.263 E68.35496
G1 X106.323 Y124.708 E68.95766
G1 X109.216 Y124.835 E69.07805
G1 X113.517 Y124.815 E69.25687
G1 X116.424 Y124.66 E69.3779
G0 F3000 X116.857 Y125.037
G1 F1800 X115.555 Y109.82 E70.01286
G1 X113.135 Y109.961 E70.11365
G1 X109.619 Y109.971 E70.25982
G1 X107.18 Y109.843 E70.36137
G1 X105.89 Y125.089 E70.99749
G1 X109.208 Y125.235 E71.13557
G1 X113.529 Y125.215 E71.31521
G1 X116.857 Y125.037 E71.45377
G0 F3000 X117.291 Y125.414
G1 F1800 X115.92 Y109.398 E72.12208
G1 X113.079 Y109.562 E72.24039
G1 X109.64 Y109.572 E72.38337
G1 X106.814 Y109.423 E72.50102
G1 X105.456 Y125.47 E73.17056
G1 X109.2 Y125.635 E73.32637
G1 X113.54 Y125.615 E73.50681
G1 X117.291 Y125.414 E73.66298
G0 F3000 X117.725 Y125.792
;TYPE:WALL-OUTER
G1 F1800 X116.286 Y108.976 E74.36466
G1 X113.078 Y109.162 E74.49826
G1 X109.661 Y109.172 E74.64032
G1 X106.448 Y109.003 E74.77409
G1 X105.022 Y125.852 E75.47709
G1 X109.192 Y126.035 E75.65063
