;FLAVOR:Marlin
;TIME:3975
;Filament used: 2.42157m
;Layer height: 0.2
;MINX:88.575
;MINY:96.982
;MINZ:0.25
;MAXX:146.427
;MAXY:138.876
;MAXZ:16.65
;Generated with Cura_SteamEngine 5.3.0
M140 S85
M105
M190 S85
M104 S240
M105
M109 S240
M82 ;absolute extrusion mode
START_PRINT
G92 E0
G92 E0
G1 F1500 E-8
;LAYER_COUNT:83
;LAYER:0
M107
G0 F6000 X97.395 Y105.761 Z0.25
;TYPE:SKIRT
G1 F1500 E0
G1 F1200 X98.098 Y105.117 E0.03964
G1 X98.821 Y104.491 E0.0794
G1 X99.559 Y103.886 E0.11907
G1 X100.318 Y103.298 E0.15899
G1 X101.094 Y102.733 E0.1989
G1 X101.892 Y102.187 E0.2391
G1 X102.7 Y101.674 E0.27889
G1 X103.546 Y101.177 E0.31968
G1 X104.403 Y100.711 E0.36024
G1 X105.285 Y100.274 E0.40116
G1 X106.182 Y99.872 E0.44203
G1 X107.101 Y99.508 E0.48312
G1 X108.033 Y99.184 E0.52415
G1 X108.965 Y98.902 E0.56463
G1 X109.904 Y98.662 E0.60492
G1 X110.898 Y98.453 E0.64715
G1 X111.858 Y98.29 E0.68764
G1 X112.819 Y98.16 E0.72795
G1 X113.772 Y98.064 E0.76778
G1 X114.718 Y97.994 E0.80721
G1 X115.666 Y97.949 E0.84667
G1 X117.053 Y97.919 E0.90435
G1 X118.002 Y97.911 E0.94381
G1 X119.44 Y97.921 E1.00359
G1 X121.385 Y97.957 E1.08447
G1 X122.376 Y98.002 E1.12571
G1 X123.381 Y98.071 E1.16759
G1 X124.391 Y98.169 E1.20978
G1 X125.363 Y98.297 E1.25054
G1 X126.423 Y98.478 E1.29525
G1 X127.444 Y98.694 E1.33864
G1 X128.434 Y98.954 E1.38119
G1 X129.447 Y99.266 E1.42526
G1 X130.431 Y99.619 E1.46872
G1 X131.361 Y100.003 E1.51055
G1 X132.335 Y100.458 E1.55525
G1 X133.255 Y100.938 E1.59839
G1 X134.033 Y101.387 E1.63574
G1 X134.793 Y101.861 E1.67298
G1 X135.538 Y102.368 E1.71044
G1 X136.266 Y102.901 E1.74795
G1 X136.965 Y103.454 E1.78501
G1 X137.66 Y104.042 E1.82286
G1 X138.315 Y104.64 E1.85973
G1 X138.956 Y105.269 E1.89707
G1 X139.512 Y105.854 E1.93062
G1 X140.068 Y106.479 E1.9654
G1 X140.593 Y107.112 E1.99959
G1 X141.101 Y107.767 E2.03405
G1 X141.582 Y108.436 E2.06831
G1 X142.043 Y109.128 E2.10288
G1 X142.476 Y109.834 E2.13731
G1 X142.884 Y110.557 E2.17183
G1 X143.266 Y111.296 E2.20641
G1 X143.619 Y112.049 E2.24099
G1 X143.943 Y112.815 E2.27557
G1 X144.238 Y113.596 E2.31028
G1 X144.503 Y114.387 E2.34496
G1 X144.735 Y115.186 E2.37955
G1 X144.935 Y115.989 E2.41395
G1 X145.108 Y116.805 E2.44863
G1 X145.24 Y117.573 E2.48103
G1 X145.347 Y118.351 E2.51368
G1 X145.425 Y119.133 E2.54635
G1 X145.475 Y119.915 E2.57893
G1 X145.496 Y120.714 E2.61216
G1 X145.484 Y121.518 E2.64559
G1 X145.44 Y122.32 E2.67899
G1 X145.361 Y123.133 E2.71295
G1 X145.243 Y123.933 E2.74657
G1 X145.085 Y124.748 E2.78108
G1 X144.884 Y125.548 E2.81537
G1 X144.641 Y126.343 E2.84994
G1 X144.377 Y127.063 E2.88182
G1 X144.019 Y127.886 E2.91913
G1 X143.645 Y128.637 E2.95401
G1 X143.264 Y129.302 E2.98588
G1 X142.778 Y130.057 E3.02321
G1 X142.289 Y130.724 E3.05759
G1 X141.763 Y131.369 E3.09219
G1 X141.208 Y131.98 E3.12651
G1 X140.619 Y132.563 E3.16097
G1 X140.004 Y133.11 E3.19519
G1 X139.393 Y133.601 E3.22777
G1 X138.69 Y134.108 E3.26381
G1 X137.997 Y134.554 E3.29807
G1 X137.286 Y134.961 E3.33213
G1 X136.555 Y135.335 E3.36627
G1 X135.808 Y135.669 E3.40029
G1 X135.049 Y135.968 E3.43421
G1 X134.309 Y136.219 E3.46669
G1 X133.507 Y136.449 E3.50138
G1 X132.709 Y136.637 E3.53547
G1 X131.911 Y136.788 E3.56923
G1 X131.121 Y136.903 E3.60242
G1 X130.336 Y136.986 E3.63524
G1 X129.54 Y137.044 E3.66842
G1 X128.191 Y137.084 E3.72453
G1 X126.834 Y137.066 E3.78095
G1 X125.526 Y137.006 E3.83539
G1 X122.911 Y136.839 E3.94433
G1 X121.615 Y136.766 E3.9983
G1 X119.554 Y136.7 E4.08403
G1 X118.554 Y136.69 E4.12561
G1 X115.255 Y136.71 E4.26277
G1 X112.974 Y136.786 E4.35765
G1 X109.827 Y136.942 E4.48865
G1 X107.763 Y137.023 E4.57453
G1 X106.71 Y137.042 E4.61831
G1 X105.637 Y137.039 E4.66292
G1 X104.433 Y136.997 E4.71301
G1 X103.208 Y136.904 E4.76409
G1 X101.986 Y136.746 E4.81531
G1 X101.358 Y136.635 E4.84183
G1 X100.73 Y136.5 E4.86853
G1 X100.097 Y136.338 E4.8957
G1 X99.468 Y136.147 E4.92303
G1 X98.834 Y135.924 E4.95097
G1 X98.235 Y135.676 E4.97792
G1 X97.605 Y135.377 E5.00692
G1 X97.046 Y135.075 E5.03333
G1 X96.446 Y134.708 E5.06257
G1 X95.876 Y134.312 E5.09143
G1 X95.385 Y133.932 E5.11724
G1 X94.924 Y133.535 E5.14253
G1 X94.475 Y133.115 E5.1681
G1 X94.057 Y132.683 E5.19309
G1 X93.656 Y132.233 E5.21815
G1 X93.28 Y131.775 E5.24278
G1 X92.917 Y131.298 E5.2677
G1 X92.58 Y130.815 E5.29219
G1 X92.227 Y130.266 E5.31933
G1 X91.899 Y129.711 E5.34613
G1 X91.59 Y129.144 E5.37297
G1 X91.304 Y128.57 E5.39964
G1 X91.039 Y127.987 E5.42626
G1 X90.794 Y127.397 E5.45282
G1 X90.567 Y126.794 E5.47961
G1 X90.357 Y126.168 E5.50706
G1 X90.017 Y124.959 E5.55927
G1 X89.875 Y124.333 E5.58596
G1 X89.756 Y123.704 E5.61258
G1 X89.657 Y123.061 E5.63962
G1 X89.582 Y122.416 E5.66662
G1 X89.532 Y121.769 E5.6936
G1 X89.508 Y121.111 E5.72098
G1 X89.514 Y120.346 E5.75278
G1 X89.554 Y119.575 E5.78488
G1 X89.636 Y118.807 E5.81699
G1 X89.757 Y118.045 E5.84907
G1 X89.915 Y117.292 E5.88105
G1 X90.109 Y116.55 E5.91294
G1 X90.327 Y115.858 E5.9431
G1 X90.604 Y115.107 E5.97638
G1 X90.895 Y114.419 E6.00744
G1 X91.213 Y113.744 E6.03846
G1 X91.554 Y113.088 E6.0692
G1 X91.921 Y112.438 E6.10023
G1 X92.427 Y111.617 E6.14033
G1 X92.975 Y110.807 E6.18099
G1 X93.552 Y110.017 E6.22166
G1 X94.145 Y109.253 E6.26187
G1 X94.759 Y108.515 E6.30178
G1 X95.39 Y107.802 E6.34137
G1 X96.04 Y107.103 E6.38105
G1 X96.71 Y106.421 E6.4208
G1 X97.395 Y105.761 E6.46035
G0 F6000 X97.665 Y106.056
G1 F1200 X98.36 Y105.419 E6.49954
G1 X99.074 Y104.8 E6.53883
G1 X99.804 Y104.202 E6.57806
G1 X100.554 Y103.621 E6.6175
G1 X101.32 Y103.063 E6.6569
G1 X102.107 Y102.525 E6.69654
G1 X102.903 Y102.019 E6.73575
G1 X103.737 Y101.528 E6.77599
G1 X104.581 Y101.069 E6.81593
G1 X105.448 Y100.639 E6.85617
G1 X106.33 Y100.244 E6.89635
G1 X107.232 Y99.886 E6.93669
G1 X108.149 Y99.567 E6.97706
G1 X109.064 Y99.29 E7.0168
G1 X110.003 Y99.05 E7.0571
G1 X110.965 Y98.847 E7.09797
G1 X111.912 Y98.686 E7.13791
G1 X112.859 Y98.558 E7.17764
G1 X113.801 Y98.463 E7.217
G1 X114.737 Y98.394 E7.25602
G1 X115.675 Y98.349 E7.29507
G1 X117.056 Y98.319 E7.35249
G1 X117.999 Y98.311 E7.3917
G1 X119.433 Y98.321 E7.45132
G1 X121.367 Y98.357 E7.53174
G1 X122.349 Y98.401 E7.57261
G1 X123.342 Y98.469 E7.61399
G1 X124.339 Y98.566 E7.65564
G1 X125.311 Y98.694 E7.6964
G1 X126.34 Y98.869 E7.73979
G1 X127.342 Y99.081 E7.78237
G1 X128.332 Y99.341 E7.82493
G1 X129.312 Y99.642 E7.86755
G1 X130.278 Y99.989 E7.91022
G1 X131.208 Y100.373 E7.95206
G1 X132.15 Y100.813 E7.99528
G1 X133.055 Y101.285 E8.03772
G1 X133.821 Y101.726 E8.07446
G1 X134.568 Y102.192 E8.11107
G1 X135.302 Y102.691 E8.14797
G1 X136.018 Y103.215 E8.18486
G1 X136.707 Y103.759 E8.22135
G1 X137.39 Y104.337 E8.25855
G1 X138.035 Y104.926 E8.29487
G1 X138.666 Y105.545 E8.33162
G1 X139.213 Y106.12 E8.36461
G1 X139.76 Y106.734 E8.3988
G1 X140.277 Y107.357 E8.43246
G1 X140.776 Y108 E8.4663
G1 X141.249 Y108.658 E8.49999
G1 X141.702 Y109.337 E8.53392
G1 X142.128 Y110.031 E8.56778
G1 X142.529 Y110.741 E8.60168
G1 X142.904 Y111.466 E8.63561
G1 X143.251 Y112.205 E8.66956
G1 X143.569 Y112.956 E8.70346
G1 X143.859 Y113.723 E8.73756
G1 X144.119 Y114.499 E8.77158
G1 X144.347 Y115.283 E8.80553
G1 X144.544 Y116.072 E8.83934
G1 X144.714 Y116.873 E8.87338
G1 X144.844 Y117.628 E8.90523
G1 X144.949 Y118.391 E8.93725
G1 X145.026 Y119.158 E8.9693
G1 X145.075 Y119.926 E9.00129
G1 X145.096 Y120.708 E9.03382
G1 X145.085 Y121.496 E9.06658
G1 X145.042 Y122.281 E9.09927
G1 X144.965 Y123.075 E9.13243
G1 X144.85 Y123.857 E9.16529
G1 X144.697 Y124.651 E9.19891
G1 X144.502 Y125.431 E9.23234
G1 X144.265 Y126.205 E9.26599
G1 X144.001 Y126.925 E9.29788
G1 X143.661 Y127.708 E9.33337
G1 X143.298 Y128.438 E9.36726
G1 X142.917 Y129.103 E9.39912
G1 X142.455 Y129.821 E9.43462
G1 X141.979 Y130.471 E9.46812
G1 X141.467 Y131.1 E9.50184
G1 X140.926 Y131.696 E9.5353
G1 X140.353 Y132.264 E9.56884
G1 X139.753 Y132.798 E9.60224
G1 X139.142 Y133.289 E9.63483
G1 X138.473 Y133.772 E9.66913
G1 X137.798 Y134.207 E9.70252
G1 X137.104 Y134.605 E9.73578
G1 X136.391 Y134.97 E9.76908
G1 X135.662 Y135.297 E9.8023
G1 X134.92 Y135.589 E9.83545
G1 X134.199 Y135.834 E9.86711
G1 X133.397 Y136.064 E9.9018
G1 X132.635 Y136.244 E9.93435
G1 X131.853 Y136.392 E9.96744
G1 X131.079 Y136.505 E9.99996
G1 X130.307 Y136.587 E10.03223
G1 X129.528 Y136.644 E10.06471
G1 X128.196 Y136.684 E10.12011
G1 X126.852 Y136.666 E10.17599
G1 X125.551 Y136.607 E10.23014
G1 X122.936 Y136.44 E10.33908
G1 X121.628 Y136.366 E10.39354
G1 X119.567 Y136.3 E10.47928
G1 X118.556 Y136.29 E10.52131
G1 X115.242 Y136.31 E10.65909
G1 X112.954 Y136.386 E10.75427
G1 X109.811 Y136.542 E10.8851
G1 X107.756 Y136.623 E10.9706
G1 X106.711 Y136.642 E11.01406
G1 X105.651 Y136.639 E11.05813
G1 X104.463 Y136.598 E11.10755
G1 X103.259 Y136.507 E11.15775
G1 X102.055 Y136.352 E11.20822
G1 X101.442 Y136.244 E11.23409
G1 X100.829 Y136.113 E11.26016
G1 X100.213 Y135.955 E11.28659
G1 X99.601 Y135.77 E11.31318
G1 X98.987 Y135.554 E11.34024
G1 X98.388 Y135.306 E11.36719
G1 X97.795 Y135.025 E11.39447
G1 X97.255 Y134.734 E11.41997
G1 X96.655 Y134.367 E11.44922
G1 X96.12 Y133.995 E11.47631
G1 X95.646 Y133.629 E11.50121
G1 X95.197 Y133.243 E11.52582
G1 X94.762 Y132.837 E11.55056
G1 X94.355 Y132.417 E11.57488
G1 X93.965 Y131.98 E11.59923
G1 X93.598 Y131.532 E11.62331
G1 X93.245 Y131.069 E11.64751
G1 X92.916 Y130.598 E11.6714
G1 X92.571 Y130.063 E11.69786
G1 X92.25 Y129.519 E11.72412
G1 X91.948 Y128.966 E11.75032
G1 X91.668 Y128.404 E11.77642
G1 X91.408 Y127.834 E11.80247
G1 X91.168 Y127.256 E11.82849
G1 X90.946 Y126.667 E11.85466
G1 X90.742 Y126.06 E11.88128
G1 X90.407 Y124.871 E11.93264
G1 X90.268 Y124.258 E11.95877
G1 X90.151 Y123.643 E11.9848
G1 X90.054 Y123.015 E12.01122
G1 X89.981 Y122.385 E12.03759
G1 X89.932 Y121.754 E12.0639
G1 X89.908 Y121.114 E12.09053
G1 X89.913 Y120.367 E12.12158
G1 X89.952 Y119.617 E12.15281
G1 X90.031 Y118.869 E12.18408
G1 X90.148 Y118.127 E12.21531
G1 X90.302 Y117.393 E12.24649
G1 X90.491 Y116.67 E12.27756
G1 X90.709 Y115.978 E12.30772
G1 X90.972 Y115.263 E12.3394
G1 X91.257 Y114.589 E12.36982
G1 X91.568 Y113.928 E12.40019
G1 X91.902 Y113.285 E12.43032
G1 X92.262 Y112.648 E12.46074
G1 X92.768 Y111.827 E12.50083
G1 X93.298 Y111.043 E12.54017
G1 X93.868 Y110.262 E12.58037
G1 X94.453 Y109.509 E12.62002
G1 X95.059 Y108.78 E12.65943
G1 X95.683 Y108.074 E12.6986
G1 X96.325 Y107.383 E12.73782
G1 X96.987 Y106.709 E12.77709
G1 X97.665 Y106.056 E12.81623
G0 F6000 X97.935 Y106.351
G1 F1200 X98.622 Y105.721 E12.85498
G1 X99.328 Y105.109 E12.89383
G1 X100.049 Y104.518 E12.93259
G1 X100.79 Y103.944 E12.97156
G1 X101.546 Y103.393 E13.01045
G1 X102.322 Y102.863 E13.04952
G1 X103.118 Y102.357 E13.08873
G1 X103.928 Y101.879 E13.12784
G1 X104.759 Y101.427 E13.16716
G1 X105.611 Y101.004 E13.20671
G1 X106.478 Y100.616 E13.2462
G1 X107.364 Y100.264 E13.28584
G1 X108.265 Y99.95 E13.32551
G1 X109.163 Y99.678 E13.36452
G1 X110.102 Y99.438 E13.40481
G1 X111.032 Y99.241 E13.44433
G1 X111.965 Y99.082 E13.48368
G1 X112.899 Y98.956 E13.52287
G1 X113.83 Y98.862 E13.56177
G1 X114.756 Y98.794 E13.60037
G1 X115.684 Y98.749 E13.639
G1 X117.059 Y98.719 E13.69618
G1 X117.996 Y98.711 E13.73514
G1 X119.426 Y98.721 E13.79459
G1 X121.349 Y98.757 E13.87455
G1 X122.322 Y98.8 E13.91504
G1 X123.303 Y98.867 E13.95593
G1 X124.287 Y98.963 E13.99703
G1 X125.259 Y99.091 E14.03779
G1 X126.257 Y99.26 E14.07987
G1 X127.241 Y99.468 E14.12169
G1 X128.214 Y99.723 E14.1635
G1 X129.177 Y100.019 E14.20539
G1 X130.125 Y100.359 E14.24726
G1 X131.055 Y100.743 E14.28909
G1 X131.965 Y101.168 E14.33085
G1 X132.856 Y101.632 E14.37261
G1 X133.609 Y102.065 E14.40873
G1 X134.343 Y102.523 E14.4447
G1 X135.066 Y103.014 E14.48103
G1 X135.77 Y103.529 E14.5173
G1 X136.449 Y104.065 E14.55326
G1 X137.12 Y104.632 E14.58978
G1 X137.755 Y105.212 E14.62554
G1 X138.376 Y105.821 E14.6617
G1 X138.914 Y106.386 E14.69414
G1 X139.452 Y106.99 E14.72777
G1 X139.961 Y107.602 E14.76086
G1 X140.451 Y108.233 E14.79407
G1 X140.916 Y108.88 E14.8272
G1 X141.361 Y109.546 E14.8605
G1 X141.78 Y110.228 E14.89378
G1 X142.174 Y110.925 E14.92707
G1 X142.542 Y111.636 E14.96035
G1 X142.883 Y112.361 E14.99366
G1 X143.195 Y113.098 E15.02693
G1 X143.48 Y113.85 E15.06037
G1 X143.735 Y114.611 E15.09374
G1 X143.959 Y115.38 E15.12704
G1 X144.153 Y116.155 E15.16025
G1 X144.32 Y116.941 E15.19366
G1 X144.448 Y117.683 E15.22496
G1 X144.551 Y118.431 E15.25636
G1 X144.627 Y119.183 E15.28778
G1 X144.675 Y119.937 E15.31919
G1 X144.696 Y120.703 E15.35105
G1 X144.686 Y121.474 E15.38311
G1 X144.644 Y122.242 E15.41508
G1 X144.569 Y123.017 E15.44745
G1 X144.457 Y123.782 E15.4796
G1 X144.309 Y124.554 E15.51228
G1 X144.119 Y125.314 E15.54485
G1 X143.889 Y126.067 E15.57758
G1 X143.625 Y126.787 E15.60947
G1 X143.303 Y127.53 E15.64313
G1 X142.951 Y128.239 E15.67604
G1 X142.57 Y128.904 E15.70791
G1 X142.132 Y129.585 E15.74157
G1 X141.668 Y130.219 E15.77423
G1 X141.171 Y130.831 E15.80701
G1 X140.644 Y131.412 E15.83962
G1 X140.087 Y131.965 E15.87225
G1 X139.502 Y132.486 E15.90482
G1 X138.891 Y132.977 E15.93741
G1 X138.256 Y133.436 E15.96999
G1 X137.599 Y133.86 E16.00249
G1 X136.922 Y134.249 E16.03496
G1 X136.227 Y134.605 E16.06742
G1 X135.515 Y134.925 E16.09988
G1 X134.791 Y135.21 E16.13222
G1 X134.07 Y135.455 E16.16388
G1 X133.305 Y135.675 E16.19698
G1 X132.561 Y135.851 E16.22876
G1 X131.795 Y135.996 E16.26117
G1 X131.037 Y136.107 E16.29302
G1 X130.278 Y136.188 E16.32476
G1 X129.516 Y136.244 E16.35653
G1 X128.184 Y136.284 E16.41193
G1 X126.87 Y136.266 E16.46656
G1 X125.576 Y136.208 E16.52042
G1 X122.961 Y136.041 E16.62936
G1 X121.641 Y135.966 E16.68432
G1 X119.58 Y135.9 E16.77005
G1 X118.558 Y135.89 E16.81255
G1 X115.229 Y135.91 E16.95095
G1 X112.934 Y135.986 E17.04642
G1 X109.795 Y136.142 E17.17709
G1 X107.749 Y136.223 E17.26221
G1 X106.712 Y136.242 E17.30534
G1 X105.665 Y136.239 E17.34886
G1 X104.493 Y136.199 E17.39762
G1 X103.31 Y136.11 E17.44694
G1 X102.124 Y135.958 E17.49665
G1 X101.526 Y135.853 E17.5219
G1 X100.928 Y135.725 E17.54732
G1 X100.328 Y135.572 E17.57306
G1 X99.734 Y135.393 E17.59886
G1 X99.14 Y135.184 E17.62504
G1 X98.559 Y134.944 E17.65117
G1 X97.985 Y134.673 E17.67756
G1 X97.445 Y134.382 E17.70306
G1 X96.883 Y134.039 E17.73044
G1 X96.364 Y133.678 E17.75672
G1 X95.906 Y133.325 E17.78076
G1 X95.47 Y132.951 E17.80464
G1 X95.049 Y132.558 E17.82859
G1 X94.653 Y132.15 E17.85223
G1 X94.274 Y131.726 E17.87587
G1 X93.916 Y131.29 E17.89933
G1 X93.573 Y130.84 E17.92285
G1 X93.252 Y130.381 E17.94614
G1 X92.915 Y129.859 E17.97197
G1 X92.601 Y129.328 E17.99762
G1 X92.306 Y128.787 E18.02323
G1 X92.032 Y128.238 E18.04874
G1 X91.777 Y127.68 E18.07425
G1 X91.542 Y127.115 E18.09969
G1 X91.325 Y126.54 E18.12524
G1 X91.127 Y125.951 E18.15108
G1 X90.797 Y124.782 E18.20158
G1 X90.661 Y124.183 E18.22711
G1 X90.546 Y123.582 E18.25255
G1 X90.451 Y122.969 E18.27834
G1 X90.38 Y122.354 E18.30408
G1 X90.332 Y121.739 E18.32973
G1 X90.308 Y121.116 E18.35565
G1 X90.312 Y120.388 E18.38592
G1 X90.35 Y119.659 E18.41627
G1 X90.426 Y118.931 E18.4467
G1 X90.54 Y118.209 E18.47709
G1 X90.689 Y117.494 E18.50745
G1 X90.873 Y116.79 E18.5377
G1 X91.091 Y116.098 E18.56787
G1 X91.341 Y115.418 E18.59799
G1 X91.619 Y114.759 E18.62773
G1 X91.923 Y114.112 E18.65745
G1 X92.25 Y113.482 E18.68696
G1 X92.603 Y112.858 E18.71676
G1 X93.1 Y112.051 E18.75617
G1 X93.621 Y111.279 E18.79489
G1 X94.184 Y110.507 E18.83461
G1 X94.76 Y109.765 E18.87366
G1 X95.359 Y109.045 E18.9126
G1 X95.976 Y108.346 E18.95137
G1 X96.611 Y107.663 E18.99014
G1 X97.264 Y106.997 E19.02892
G1 X97.935 Y106.351 E19.06764
G0 F6000 X98.205 Y106.646
G1 F1200 X98.884 Y106.023 E19.10595
G1 X99.582 Y105.418 E19.14436
G1 X100.294 Y104.834 E19.18264
G1 X101.025 Y104.267 E19.2211
G1 X101.772 Y103.723 E19.25952
G1 X102.537 Y103.2 E19.29805
G1 X103.321 Y102.701 E19.33669
G1 X104.119 Y102.23 E19.37521
G1 X104.937 Y101.785 E19.41393
G1 X105.774 Y101.369 E19.45279
G1 X106.626 Y100.988 E19.49159
G1 X107.496 Y100.642 E19.53051
G1 X108.381 Y100.333 E19.56949
G1 X109.279 Y100.061 E19.6085
G1 X110.185 Y99.829 E19.64738
G1 X111.099 Y99.635 E19.68623
G1 X112.018 Y99.478 E19.72499
G1 X112.939 Y99.354 E19.76362
G1 X113.859 Y99.261 E19.80207
G1 X114.776 Y99.194 E19.84029
