;FLAVOR:Marlin
;TIME:9309
;Filament used: 5.77319m
;Layer height: 0.2
;MINX:88.348
;MINY:82.969
;MINZ:0.25
;MAXX:146.612
;MAXY:152.031
;MAXZ:60.85
;Generated with Cura_SteamEngine 5.3.0
M140 S85
M105
M190 S85
M104 S240
M105
M109 S240
M82 ;absolute extrusion mode
START_PRINT
G92 E0
G92 E0
G1 F1500 E-8
;LAYER_COUNT:304
;LAYER:0
M107
G0 F6000 X92.001 Y85.958 Z0.25
;TYPE:SKIRT
G1 F1500 E0
G1 F1200 X92.628 Y85.445 E0.03368
G1 X93.398 Y85.05 E0.06966
G1 X93.759 Y84.907 E0.0858
G1 X94.071 Y84.806 E0.09944
G1 X94.454 Y84.71 E0.11585
G1 X94.803 Y84.644 E0.13062
G1 X95.142 Y84.601 E0.14483
G1 X95.504 Y84.572 E0.15993
G1 X139.307 Y84.569 E1.98104
G1 X139.59 Y84.579 E1.99282
G1 X140.183 Y84.639 E2.0176
G1 X140.765 Y84.759 E2.0423
G1 X141.369 Y84.954 E2.06869
G1 X141.664 Y85.077 E2.08198
G1 X142.004 Y85.245 E2.09774
G1 X142.671 Y85.657 E2.13034
G1 X143.305 Y86.289 E2.16756
G1 X143.671 Y86.811 E2.19406
G1 X144.028 Y87.59 E2.22969
G1 X144.105 Y88.301 E2.25942
G1 X144.102 Y146.738 E4.68895
G1 X144.036 Y147.261 E4.71087
G1 X143.833 Y147.869 E4.73751
G1 X143.488 Y148.473 E4.76643
G1 X142.999 Y149.042 E4.79763
G1 X142.372 Y149.555 E4.83131
G1 X141.602 Y149.95 E4.86729
G1 X141.241 Y150.093 E4.88343
G1 X140.929 Y150.194 E4.89706
G1 X140.546 Y150.29 E4.91348
G1 X140.197 Y150.356 E4.92825
G1 X139.858 Y150.399 E4.94245
G1 X139.496 Y150.428 E4.95755
G1 X95.693 Y150.431 E6.77867
G1 X95.41 Y150.421 E6.79044
G1 X94.817 Y150.361 E6.81522
G1 X94.235 Y150.241 E6.83993
G1 X93.631 Y150.046 E6.86632
G1 X93.336 Y149.923 E6.8796
G1 X92.994 Y149.754 E6.89546
G1 X92.329 Y149.342 E6.92799
G1 X91.695 Y148.711 E6.96518
G1 X91.329 Y148.189 E6.99168
G1 X90.972 Y147.41 E7.02731
G1 X90.895 Y146.699 E7.05704
G1 X90.898 Y88.265 E9.48644
G1 X90.964 Y87.734 E9.50869
G1 X91.169 Y87.122 E9.53552
G1 X91.509 Y86.53 E9.56391
G1 X92.001 Y85.958 E9.59527
G0 F6000 X92.281 Y86.246
G1 F1200 X92.847 Y85.782 E9.6257
G1 X93.546 Y85.422 E9.65839
G1 X93.882 Y85.288 E9.67343
G1 X94.194 Y85.187 E9.68706
G1 X94.529 Y85.103 E9.70142
G1 X94.854 Y85.041 E9.71518
G1 X95.174 Y85 E9.72859
G1 X95.536 Y84.971 E9.74369
G1 X139.293 Y84.969 E11.56289
G1 X139.576 Y84.979 E11.57467
G1 X140.102 Y85.031 E11.59664
G1 X140.684 Y85.151 E11.62135
G1 X141.216 Y85.324 E11.64461
G1 X141.487 Y85.436 E11.6568
G1 X141.827 Y85.604 E11.67256
G1 X142.424 Y85.975 E11.70179
G1 X142.997 Y86.546 E11.73542
G1 X143.321 Y87.008 E11.75888
G1 X143.637 Y87.698 E11.79043
G1 X143.707 Y88.344 E11.81745
G1 X143.705 Y146.688 E14.24311
G1 X143.644 Y147.174 E14.26347
G1 X143.466 Y147.706 E14.28679
G1 X143.161 Y148.24 E14.31236
G1 X142.719 Y148.754 E14.34055
G1 X142.153 Y149.218 E14.37097
G1 X141.454 Y149.578 E14.40366
G1 X141.118 Y149.712 E14.4187
G1 X140.806 Y149.813 E14.43234
G1 X140.471 Y149.897 E14.4467
G1 X140.146 Y149.959 E14.46045
G1 X139.826 Y150 E14.47386
G1 X139.464 Y150.029 E14.48896
G1 X95.707 Y150.031 E16.30817
G1 X95.424 Y150.021 E16.31994
G1 X94.898 Y149.969 E16.34192
G1 X94.316 Y149.849 E16.36662
G1 X93.784 Y149.676 E16.38988
G1 X93.513 Y149.564 E16.40207
G1 X93.171 Y149.395 E16.41793
G1 X92.576 Y149.025 E16.44706
G1 X92.003 Y148.454 E16.48069
G1 X91.679 Y147.992 E16.50415
G1 X91.363 Y147.302 E16.5357
G1 X91.293 Y146.656 E16.56272
G1 X91.295 Y88.314 E18.9883
G1 X91.356 Y87.822 E19.00891
G1 X91.535 Y87.288 E19.03232
G1 X91.837 Y86.762 E19.05754
G1 X92.281 Y86.246 E19.08584
G0 F6000 X92.561 Y86.534
G1 F1200 X93.067 Y86.119 E19.11305
G1 X93.729 Y85.778 E19.14401
G1 X94.005 Y85.669 E19.15635
G1 X94.317 Y85.568 E19.16998
G1 X94.605 Y85.496 E19.18232
G1 X94.906 Y85.438 E19.19507
G1 X95.206 Y85.399 E19.20764
G1 X95.568 Y85.37 E19.22274
G1 X139.279 Y85.369 E21.04004
G1 X139.562 Y85.379 E21.05181
G1 X140.021 Y85.423 E21.07098
G1 X140.603 Y85.543 E21.09568
G1 X141.063 Y85.694 E21.11581
G1 X141.334 Y85.806 E21.128
G1 X141.616 Y85.944 E21.14106
G1 X142.176 Y86.292 E21.16847
G1 X142.688 Y86.802 E21.19851
G1 X142.971 Y87.206 E21.21902
G1 X143.246 Y87.806 E21.24646
G1 X143.309 Y88.387 E21.27076
G1 X143.308 Y146.638 E23.69255
G1 X143.252 Y147.087 E23.71137
G1 X143.099 Y147.543 E23.73136
G1 X142.834 Y148.007 E23.75358
G1 X142.439 Y148.466 E23.77875
G1 X141.933 Y148.881 E23.80596
G1 X141.271 Y149.222 E23.83692
G1 X140.995 Y149.331 E23.84926
G1 X140.683 Y149.432 E23.86289
G1 X140.395 Y149.504 E23.87523
G1 X140.094 Y149.562 E23.88798
G1 X139.794 Y149.601 E23.90056
G1 X139.432 Y149.63 E23.91565
G1 X95.721 Y149.631 E25.73295
G1 X95.438 Y149.621 E25.74472
G1 X94.979 Y149.577 E25.76389
G1 X94.397 Y149.457 E25.7886
G1 X93.937 Y149.306 E25.80872
G1 X93.666 Y149.194 E25.82092
G1 X93.382 Y149.055 E25.83406
G1 X92.824 Y148.708 E25.86138
G1 X92.312 Y148.198 E25.89143
G1 X92.029 Y147.794 E25.91193
G1 X91.754 Y147.194 E25.93937
G1 X91.691 Y146.613 E25.96367
G1 X91.692 Y88.363 E28.38542
G1 X91.748 Y87.91 E28.4044
G1 X91.901 Y87.454 E28.4244
G1 X92.165 Y86.994 E28.44645
G1 X92.561 Y86.534 E28.47168
G0 F6000 X92.841 Y86.822
G1 F1200 X93.288 Y86.455 E28.49573
G1 X93.876 Y86.15 E28.52327
G1 X94.152 Y86.041 E28.5356
G1 X94.414 Y85.956 E28.54706
G1 X94.682 Y85.889 E28.55854
G1 X94.958 Y85.835 E28.57023
G1 X95.238 Y85.798 E28.58198
G1 X95.6 Y85.769 E28.59707
G1 X139.265 Y85.769 E30.41245
G1 X139.548 Y85.779 E30.42423
G1 X139.982 Y85.821 E30.44235
G1 X140.521 Y85.934 E30.46525
G1 X140.911 Y86.064 E30.48234
G1 X141.16 Y86.166 E30.49353
G1 X141.405 Y86.284 E30.50484
G1 X141.928 Y86.609 E30.53044
G1 X142.379 Y87.058 E30.55689
G1 X142.621 Y87.404 E30.57445
G1 X142.855 Y87.914 E30.59778
G1 X142.911 Y88.43 E30.61936
G1 X142.911 Y146.589 E33.03733
G1 X142.86 Y146.999 E33.0545
G1 X142.732 Y147.38 E33.07121
G1 X142.507 Y147.774 E33.09008
G1 X142.159 Y148.178 E33.11225
G1 X141.712 Y148.545 E33.13629
G1 X141.124 Y148.85 E33.16383
G1 X140.848 Y148.959 E33.17617
G1 X140.586 Y149.044 E33.18762
G1 X140.318 Y149.111 E33.1991
G1 X140.042 Y149.165 E33.2108
G1 X139.762 Y149.202 E33.22254
G1 X139.4 Y149.231 E33.23764
G1 X95.735 Y149.231 E35.05302
G1 X95.452 Y149.221 E35.06479
G1 X95.018 Y149.179 E35.08292
G1 X94.479 Y149.066 E35.10581
G1 X94.089 Y148.936 E35.1229
G1 X93.84 Y148.834 E35.13409
G1 X93.593 Y148.715 E35.14549
G1 X93.072 Y148.391 E35.171
G1 X92.621 Y147.942 E35.19746
G1 X92.379 Y147.596 E35.21501
G1 X92.145 Y147.086 E35.23834
G1 X92.089 Y146.57 E35.25992
G1 X92.089 Y88.412 E37.67785
G1 X92.14 Y87.999 E37.69515
G1 X92.268 Y87.619 E37.71182
G1 X92.493 Y87.226 E37.73065
G1 X92.841 Y86.822 E37.75281
G1 F1500 E29.75281
;MESH:Shaver_holder.stl
G0 F6000 X93.319 Y87.796
G0 X139.389 Y148.431
;TYPE:WALL-INNER
G1 F1500 E37.75281
G1 F1200 X139.806 Y148.397 E37.77021
G1 X140.283 Y148.301 E37.79044
G1 X140.716 Y148.16 E37.80937
G1 X141.248 Y147.888 E37.83421
G1 X141.614 Y147.589 E37.85386
G1 X141.845 Y147.321 E37.86857
G1 X141.993 Y147.067 E37.88079
G1 X142.08 Y146.805 E37.89227
G1 X142.112 Y146.532 E37.9037
G1 X142.112 Y88.486 E40.31697
G1 X142.072 Y88.125 E40.33207
G1 X141.935 Y87.82 E40.34597
G1 X141.757 Y87.566 E40.35887
G1 X141.439 Y87.249 E40.37753
G1 X141.021 Y86.988 E40.39802
G1 X140.724 Y86.845 E40.41173
G1 X140.301 Y86.705 E40.43025
G1 X139.843 Y86.611 E40.44969
G1 X139.501 Y86.579 E40.46397
G1 X139.241 Y86.569 E40.47479
G1 X95.611 Y86.569 E42.28871
G1 X95.194 Y86.603 E42.30611
G1 X94.72 Y86.698 E42.32621
G1 X94.292 Y86.836 E42.3449
G1 X93.752 Y87.112 E42.37011
G1 X93.387 Y87.411 E42.38973
G1 X93.155 Y87.679 E42.40447
G1 X93.007 Y87.933 E42.41669
G1 X92.92 Y88.195 E42.42817
G1 X92.889 Y88.468 E42.43959
G1 X92.888 Y146.514 E44.85286
G1 X92.928 Y146.875 E44.86796
G1 X93.066 Y147.18 E44.88188
G1 X93.243 Y147.434 E44.89475
G1 X93.561 Y147.751 E44.91342
G1 X93.983 Y148.014 E44.93409
G1 X94.278 Y148.156 E44.94771
G1 X94.698 Y148.295 E44.9661
G1 X95.158 Y148.389 E44.98562
G1 X95.499 Y148.421 E44.99986
G1 X95.759 Y148.431 E45.01067
G1 X139.389 Y148.431 E46.8246
G0 F6000 X139.405 Y148.831
;TYPE:WALL-OUTER
G1 F1200 X139.862 Y148.794 E46.84366
G1 X140.378 Y148.689 E46.86555
G1 X140.868 Y148.532 E46.88695
G1 X141.468 Y148.224 E46.91499
G1 X141.894 Y147.877 E46.93783
G1 X142.172 Y147.555 E46.95552
G1 X142.359 Y147.233 E46.971
G1 X142.473 Y146.892 E46.98594
G1 X142.512 Y146.554 E47.00009
G1 X142.512 Y88.464 E49.41519
G1 X142.463 Y88.019 E49.4338
G1 X142.284 Y87.622 E49.45191
G1 X142.065 Y87.308 E49.46783
G1 X141.689 Y86.933 E49.4899
G1 X141.214 Y86.637 E49.51317
G1 X140.874 Y86.473 E49.52887
G1 X140.405 Y86.318 E49.5494
G1 X139.902 Y86.215 E49.57075
G1 X139.527 Y86.179 E49.58641
G1 X139.248 Y86.169 E49.59802
G1 X95.595 Y86.169 E51.4129
G1 X95.138 Y86.206 E51.43196
G1 X94.622 Y86.311 E51.45385
G1 X94.132 Y86.468 E51.47525
G1 X93.532 Y86.776 E51.50329
G1 X93.107 Y87.123 E51.5261
G1 X92.828 Y87.445 E51.54381
G1 X92.641 Y87.767 E51.55929
G1 X92.527 Y88.108 E51.57424
G1 X92.489 Y88.446 E51.58838
G1 X92.488 Y146.536 E54.00348
G1 X92.537 Y146.981 E54.02209
G1 X92.716 Y147.378 E54.0402
G1 X92.935 Y147.692 E54.05612
G1 X93.311 Y148.067 E54.07819
G1 X93.79 Y148.365 E54.10165
G1 X94.128 Y148.528 E54.11725
G1 X94.595 Y148.682 E54.13769
G1 X95.098 Y148.785 E54.15904
G1 X95.473 Y148.821 E54.1747
G1 X95.752 Y148.831 E54.18631
G1 X139.405 Y148.831 E56.00119
G0 F6000 X139.386 Y148.071
;TYPE:SKIN
G1 F1200 X95.771 Y148.071 E57.81449
G1 X95.513 Y148.061 E57.82522
G1 X95.221 Y148.033 E57.83742
G1 X94.79 Y147.945 E57.85571
G1 X94.412 Y147.821 E57.87225
G1 X94.153 Y147.694 E57.88424
G1 X93.786 Y147.466 E57.9022
G1 X93.518 Y147.2 E57.9179
G1 X93.281 Y146.782 E57.93788
G1 X93.249 Y146.493 E57.94997
G1 X93.249 Y88.49 E60.36145
G1 X93.285 Y88.177 E60.37455
G1 X93.452 Y87.89 E60.38836
G1 X93.64 Y87.671 E60.40036
G1 X93.952 Y87.416 E60.41711
G1 X94.421 Y87.174 E60.43905
G1 X94.81 Y87.049 E60.45604
G1 X95.259 Y86.959 E60.47508
G1 X95.614 Y86.929 E60.48989
G1 X139.229 Y86.929 E62.30319
G1 X139.487 Y86.939 E62.31392
G1 X139.779 Y86.967 E62.32612
G1 X140.207 Y87.055 E62.34429
G1 X140.589 Y87.18 E62.361
G1 X140.853 Y87.308 E62.37319
G1 X141.211 Y87.531 E62.39073
G1 X141.482 Y87.801 E62.40663
G1 X141.72 Y88.219 E62.42663
G1 X141.752 Y88.506 E62.43864
G1 X141.752 Y146.509 E64.85012
G1 X141.715 Y146.824 E64.86331
G1 X141.547 Y147.115 E64.87728
G1 X141.363 Y147.327 E64.88895
G1 X141.048 Y147.586 E64.9059
G1 X140.577 Y147.826 E64.92788
G1 X140.19 Y147.951 E64.94479
G1 X139.741 Y148.041 E64.96383
G1 X139.386 Y148.071 E64.97864
G1 F1500 E56.97864
G0 F6000 X139.991 Y148.258
G0 X95.51 Y148.261
G0 X94.74 Y148.139
G0 X94.061 Y147.873
G0 X93.662 Y147.624
G0 X93.294 Y147.201
G0 X93.009 Y146.691
G0 X93.466 Y146.64
G1 F1500 E64.97864
G1 F1200 X94.431 Y147.606 E65.03541
G0 F6000 X95.218 Y147.827
G1 F1200 X93.448 Y146.057 E65.13948
G0 F6000 X93.448 Y145.491
G1 F1200 X95.827 Y147.87 E65.27935
G0 F6000 X96.392 Y147.87
G1 F1200 X93.448 Y144.925 E65.45248
G0 F6000 X93.448 Y144.36
G1 F1200 X96.958 Y147.87 E65.65885
G0 F6000 X97.524 Y147.87
G1 F1200 X93.448 Y143.794 E65.89851
G0 F6000 X93.448 Y143.228
G1 F1200 X98.089 Y147.87 E66.17141
G0 F6000 X98.655 Y147.87
G1 F1200 X93.448 Y142.663 E66.47756
G0 F6000 X93.448 Y142.097
G1 F1200 X99.221 Y147.87 E66.81699
G0 F6000 X99.786 Y147.87
G1 F1200 X93.448 Y141.531 E67.18967
G0 F6000 X93.448 Y140.965
G1 F1200 X100.352 Y147.87 E67.59563
G0 F6000 X100.918 Y147.87
G1 F1200 X93.448 Y140.4 E68.03484
G0 F6000 X93.448 Y139.834
G1 F1200 X101.483 Y147.87 E68.50729
G0 F6000 X102.049 Y147.87
G1 F1200 X93.448 Y139.268 E69.01303
G0 F6000 X93.448 Y138.703
G1 F1200 X102.615 Y147.87 E69.55201
G0 F6000 X103.181 Y147.87
G1 F1200 X93.448 Y138.137 E70.12427
G0 F6000 X93.448 Y137.571
G1 F1200 X103.746 Y147.87 E70.72979
G0 F6000 X104.312 Y147.87
G1 F1200 X93.448 Y137.006 E71.36855
G0 F6000 X93.448 Y136.44
G1 F1200 X104.878 Y147.87 E72.04059
G0 F6000 X105.443 Y147.87
G1 F1200 X93.448 Y135.874 E72.74588
G0 F6000 X93.448 Y135.309
G1 F1200 X106.009 Y147.87 E73.48442
G0 F6000 X106.575 Y147.87
G1 F1200 X93.448 Y134.743 E74.25623
G0 F6000 X93.448 Y134.177
G1 F1200 X107.14 Y147.87 E75.0613
G0 F6000 X107.706 Y147.87
G1 F1200 X93.448 Y133.612 E75.89962
G0 F6000 X93.448 Y133.046
G1 F1200 X108.272 Y147.87 E76.77121
G0 F6000 X108.837 Y147.87
G1 F1200 X93.448 Y132.48 E77.67605
G0 F6000 X93.448 Y131.915
G1 F1200 X109.403 Y147.87 E78.61415
G0 F6000 X109.969 Y147.87
G1 F1200 X93.448 Y131.349 E79.58552
G0 F6000 X93.448 Y130.783
G1 F1200 X110.534 Y147.87 E80.59014
G0 F6000 X111.1 Y147.87
G1 F1200 X93.448 Y130.217 E81.62804
G0 F6000 X93.448 Y129.652
G1 F1200 X111.666 Y147.87 E82.69919
G0 F6000 X112.231 Y147.87
G1 F1200 X93.448 Y129.086 E83.80359
G0 F6000 X93.448 Y128.52
G1 F1200 X112.797 Y147.87 E84.94126
G0 F6000 X113.363 Y147.87
G1 F1200 X93.448 Y127.955 E86.11219
G0 F6000 X93.448 Y127.389
G1 F1200 X113.929 Y147.87 E87.31639
G0 F6000 X114.494 Y147.87
G1 F1200 X93.448 Y126.823 E88.55385
G0 F6000 X93.448 Y126.258
G1 F1200 X115.06 Y147.87 E89.82455
G0 F6000 X115.626 Y147.87
G1 F1200 X93.448 Y125.692 E91.12853
G0 F6000 X93.448 Y125.126
G1 F1200 X116.191 Y147.87 E92.46576
G0 F6000 X116.757 Y147.87
G1 F1200 X93.448 Y124.561 E93.83624
G0 F6000 X93.448 Y123.995
G1 F1200 X117.323 Y147.87 E95.24
G0 F6000 X117.888 Y147.87
G1 F1200 X93.448 Y123.429 E96.67701
G0 F6000 X93.448 Y122.864
G1 F1200 X118.454 Y147.87 E98.14726
G0 F6000 X119.02 Y147.87
G1 F1200 X93.448 Y122.298 E99.6508
G0 F6000 X93.448 Y121.732
G1 F1200 X119.585 Y147.87 E101.18758
G0 F6000 X120.151 Y147.87
G1 F1200 X93.448 Y121.166 E102.75765
G0 F6000 X93.448 Y120.601
G1 F1200 X120.717 Y147.87 E104.36096
G0 F6000 X121.282 Y147.87
G1 F1200 X93.448 Y120.035 E105.99752
G0 F6000 X93.448 Y119.469
G1 F1200 X121.848 Y147.87 E107.66736
G0 F6000 X122.414 Y147.87
G1 F1200 X93.448 Y118.904 E109.37045
G0 F6000 X93.448 Y118.338
G1 F1200 X122.98 Y147.87 E111.10682
G0 F6000 X123.545 Y147.87
G1 F1200 X93.448 Y117.772 E112.87644
G0 F6000 X93.448 Y117.207
G1 F1200 X124.111 Y147.87 E114.67931
G0 F6000 X124.677 Y147.87
G1 F1200 X93.448 Y116.641 E116.51545
G0 F6000 X93.448 Y116.075
G1 F1200 X125.242 Y147.87 E118.38485
G0 F6000 X125.808 Y147.87
G1 F1200 X93.448 Y115.51 E120.28749
G0 F6000 X93.448 Y114.944
G1 F1200 X126.374 Y147.87 E122.22341
G0 F6000 X126.939 Y147.87
G1 F1200 X93.448 Y114.378 E124.19258
G0 F6000 X93.448 Y113.813
G1 F1200 X127.505 Y147.87 E126.195
G0 F6000 X128.071 Y147.87
G1 F1200 X93.448 Y113.247 E128.2307
G0 F6000 X93.448 Y112.681
G1 F1200 X128.636 Y147.87 E130.29965
G0 F6000 X129.202 Y147.87
G1 F1200 X93.448 Y112.116 E132.40185
G0 F6000 X93.448 Y111.55
G1 F1200 X129.768 Y147.87 E134.53733
G0 F6000 X130.333 Y147.87
G1 F1200 X93.448 Y110.984 E136.70605
G0 F6000 X93.448 Y110.418
G1 F1200 X130.899 Y147.87 E138.90806
G0 F6000 X131.465 Y147.87
G1 F1200 X93.448 Y109.853 E141.14331
G0 F6000 X93.448 Y109.287
G1 F1200 X132.03 Y147.87 E143.41182
G0 F6000 X132.596 Y147.87
G1 F1200 X93.448 Y108.721 E145.7136
G0 F6000 X93.448 Y108.156
G1 F1200 X133.162 Y147.87 E148.04863
G0 F6000 X133.728 Y147.87
G1 F1200 X93.448 Y107.59 E150.41694
G0 F6000 X93.448 Y107.024
G1 F1200 X134.293 Y147.87 E152.8185
G0 F6000 X134.859 Y147.87
G1 F1200 X93.448 Y106.459 E155.25331
G0 F6000 X93.448 Y105.893
G1 F1200 X135.425 Y147.87 E157.72139
G0 F6000 X135.99 Y147.87
G1 F1200 X93.448 Y105.327 E160.22273
G0 F6000 X93.448 Y104.762
G1 F1200 X136.556 Y147.87 E162.75731
G0 F6000 X137.122 Y147.87
G1 F1200 X93.448 Y104.196 E165.32518
G0 F6000 X93.448 Y103.63
G1 F1200 X137.687 Y147.87 E167.92629
G0 F6000 X138.253 Y147.87
G1 F1200 X93.448 Y103.065 E170.56065
G0 F6000 X93.448 Y102.499
G1 F1200 X138.819 Y147.87 E173.22829
G0 F6000 X139.384 Y147.869
G1 F1200 X93.448 Y101.933 E175.92915
G0 F6000 X93.448 Y101.367
G1 F1200 X139.886 Y147.806 E178.65956
G0 F6000 X140.338 Y147.691
G1 F1200 X93.448 Y100.802 E181.41648
G0 F6000 X93.448 Y100.236
G1 F1200 X140.733 Y147.521 E184.19666
G0 F6000 X141.078 Y147.3
G1 F1200 X93.448 Y99.67 E186.99712
G0 F6000 X93.448 Y99.105
G1 F1200 X141.367 Y147.024 E189.81457
G0 F6000 X141.537 Y146.628
G1 F1200 X93.448 Y98.539 E192.64202
G0 F6000 X93.448 Y97.973
G1 F1200 X141.552 Y146.077 E195.47035
G0 F6000 X141.552 Y145.511
G1 F1200 X93.448 Y97.408 E198.29866
G0 F6000 X93.448 Y96.842
G1 F1200 X141.552 Y144.946 E201.12699
G0 F6000 X141.552 Y144.38
G1 F1200 X93.448 Y96.276 E203.95532
