;FLAVOR:Marlin
;TIME:3767
;Filament used: 1.83637m
;Layer height: 0.2
;MINX:105.786
;MINY:93.936
;MINZ:0.25
;MAXX:129.136
;MAXY:140.2
;MAXZ:25.05
;Generated with Cura_SteamEngine 5.3.0
M140 S85
M105
M190 S85
M104 S255
M105
M109 S255
M82 ;absolute extrusion mode
START_PRINT
G92 E0
G92 E0
G1 F1500 E-5
;LAYER_COUNT:125
;LAYER:0
M107
G0 F6000 X106.611 Y96.799 Z0.25
;TYPE:SKIRT
G1 F1500 E0
G1 F1200 X106.98 Y96.488 E0.02006
G1 X107.647 Y96.219 E0.04996
G1 X109.395 Y96.217 E0.12264
G1 X110.065 Y96.483 E0.15261
G1 X110.433 Y96.793 E0.17261
G1 X110.848 Y97.345 E0.20132
G1 X111.034 Y97.993 E0.22935
G1 X111.059 Y98.197 E0.2379
G1 X111.396 Y98.147 E0.25206
G1 X112.466 Y98.255 E0.29677
G1 X112.764 Y98.327 E0.30952
G1 X113.309 Y98.526 E0.33364
G1 X113.882 Y98.873 E0.36149
G1 X114.3 Y99.257 E0.38509
G1 X114.701 Y99.676 E0.4092
G1 X114.888 Y99.843 E0.41963
G1 X115.122 Y100.011 E0.4316
G1 X115.385 Y100.183 E0.44467
G1 X118.62 Y103.418 E0.63487
G1 X118.886 Y103.914 E0.65827
G1 X118.95 Y104.328 E0.67569
G1 X118.95 Y110.575 E0.93541
G1 X123.251 Y110.574 E1.11422
G1 X123.665 Y110.638 E1.13164
G1 X124.161 Y110.904 E1.15504
G1 X126.645 Y113.389 E1.30112
G1 X126.911 Y113.885 E1.32452
G1 X126.975 Y114.299 E1.34193
G1 X126.975 Y115.223 E1.38035
G1 X126.866 Y115.673 E1.3996
G1 X128.08 Y116.526 E1.46129
G1 X128.808 Y117.519 E1.51248
G1 X129.136 Y118.639 E1.561
G1 X129.134 Y120.504 E1.63853
G1 X128.989 Y121.275 E1.67115
G1 X128.533 Y122.159 E1.7125
G1 X127.884 Y122.918 E1.75402
G1 X126.651 Y123.668 E1.81402
G1 X126.145 Y123.828 E1.83609
G1 X125.672 Y123.77 E1.8559
G1 X125.33 Y123.818 E1.87026
G1 X125.054 Y123.788 E1.8818
G1 X124.746 Y123.869 E1.89504
G1 X124.282 Y123.893 E1.91436
G1 X124.109 Y123.864 E1.92165
G1 X123.702 Y123.697 E1.93994
G1 X123.563 Y123.602 E1.94694
G1 X123.253 Y123.274 E1.9657
G1 X122.786 Y122.426 E2.00595
G1 X122.705 Y122.195 E2.01613
G1 X112.999 Y122.193 E2.41966
G1 X112.697 Y122.213 E2.43224
G1 X112.371 Y122.276 E2.44605
G1 X112.12 Y122.379 E2.45732
G1 X111.749 Y122.582 E2.47491
G1 X111.466 Y122.853 E2.4912
G1 X111.237 Y123.163 E2.50722
G1 X111.116 Y123.392 E2.51799
G1 X111.028 Y123.632 E2.52862
G1 X110.957 Y123.943 E2.54188
G1 X110.943 Y124.211 E2.55304
G1 X110.942 Y136.416 E3.06046
G1 X110.893 Y136.977 E3.08387
G1 X110.702 Y137.647 E3.11284
G1 X110.289 Y138.201 E3.14157
G1 X109.92 Y138.512 E3.16163
G1 X109.253 Y138.781 E3.19153
G1 X107.655 Y138.783 E3.25797
G1 X107.063 Y138.549 E3.28443
G1 X106.666 Y138.272 E3.30456
G1 X106.198 Y137.646 E3.33706
G1 X105.995 Y136.912 E3.36872
G1 X105.96 Y136.503 E3.38578
G1 X105.958 Y98.584 E4.96227
G1 X106.007 Y98.023 E4.98569
G1 X106.198 Y97.352 E5.01469
G1 X106.611 Y96.799 E5.04339
G0 F6000 X106.904 Y97.075
G1 F1200 X107.189 Y96.835 E5.05888
G1 X107.725 Y96.619 E5.0829
G1 X109.319 Y96.617 E5.14917
G1 X109.856 Y96.83 E5.17319
G1 X110.141 Y97.07 E5.18868
G1 X110.484 Y97.527 E5.21244
G1 X110.65 Y98.104 E5.2374
G1 X110.693 Y98.599 E5.25806
G1 X110.693 Y98.863 E5.26903
G1 X110.823 Y98.752 E5.27614
G1 X111.134 Y98.589 E5.29074
G1 X111.357 Y98.545 E5.30019
G1 X112.372 Y98.644 E5.34259
G1 X112.67 Y98.716 E5.35533
G1 X113.136 Y98.889 E5.376
G1 X113.64 Y99.194 E5.40049
G1 X114.03 Y99.552 E5.4225
G1 X114.422 Y99.962 E5.44608
G1 X114.645 Y100.161 E5.45851
G1 X114.888 Y100.336 E5.47096
G1 X115.129 Y100.493 E5.48292
G1 X118.297 Y103.661 E5.66918
G1 X118.502 Y104.043 E5.68721
G1 X118.55 Y104.328 E5.69922
G1 X118.55 Y110.587 E5.95944
G1 X118.434 Y110.975 E5.97628
G1 X123.251 Y110.974 E6.17655
G1 X123.536 Y111.022 E6.18856
G1 X123.918 Y111.227 E6.20659
G1 X126.322 Y113.632 E6.34796
G1 X126.527 Y114.014 E6.36599
G1 X126.575 Y114.299 E6.378
G1 X126.575 Y115.174 E6.41438
G1 X126.505 Y115.463 E6.42674
G1 X126.368 Y115.726 E6.43907
G1 X126.125 Y115.927 E6.45218
G1 X126.436 Y115.929 E6.46511
G1 X126.701 Y116.045 E6.47714
G1 X127.796 Y116.815 E6.53279
G1 X128.444 Y117.698 E6.57833
G1 X128.736 Y118.696 E6.62156
G1 X128.734 Y120.467 E6.69519
G1 X128.607 Y121.142 E6.72375
G1 X128.198 Y121.935 E6.76084
G1 X127.622 Y122.609 E6.7977
G1 X126.482 Y123.302 E6.85317
G1 X126.109 Y123.42 E6.86943
G1 X125.766 Y123.382 E6.88378
G1 X125.687 Y123.359 E6.8872
G1 X125.373 Y123.42 E6.9005
G1 X125.024 Y123.382 E6.9151
G1 X124.681 Y123.472 E6.92984
G1 X124.261 Y123.494 E6.94732
G1 X123.854 Y123.327 E6.96561
G1 X123.577 Y123.034 E6.98238
G1 X123.136 Y122.233 E7.02039
G1 X123.034 Y121.905 E7.03467
G1 X123.026 Y121.795 E7.03926
G1 X112.987 Y121.793 E7.45663
G1 X112.643 Y121.816 E7.47097
G1 X112.258 Y121.89 E7.48727
G1 X111.943 Y122.019 E7.50142
G1 X111.632 Y122.19 E7.51617
G1 X111.394 Y122.368 E7.52853
G1 X111.165 Y122.588 E7.54173
G1 X110.896 Y122.951 E7.56052
G1 X110.751 Y123.227 E7.57348
G1 X110.643 Y123.52 E7.58646
G1 X110.56 Y123.886 E7.60206
G1 X110.543 Y124.211 E7.61559
G1 X110.542 Y136.416 E8.12302
G1 X110.499 Y136.9 E8.14322
G1 X110.337 Y137.467 E8.16774
G1 X109.996 Y137.925 E8.19148
G1 X109.711 Y138.165 E8.20697
G1 X109.175 Y138.381 E8.23099
G1 X107.731 Y138.383 E8.29103
G1 X107.254 Y138.194 E8.31236
G1 X106.948 Y137.981 E8.32786
G1 X106.563 Y137.466 E8.35459
G1 X106.391 Y136.846 E8.38134
G1 X106.359 Y136.469 E8.39707
G1 X106.358 Y98.584 E9.97215
G1 X106.402 Y98.099 E9.99239
G1 X106.563 Y97.533 E10.01686
G1 X106.904 Y97.075 E10.0406
G0 F6000 X107.225 Y97.314
G1 F1200 X107.397 Y97.182 E10.04961
G1 X107.802 Y97.019 E10.06776
G1 X109.243 Y97.017 E10.12767
G1 X109.649 Y97.178 E10.14583
G1 X109.821 Y97.31 E10.15485
G1 X110.12 Y97.709 E10.17557
G1 X110.255 Y98.178 E10.19587
G1 X110.293 Y98.599 E10.21344
G1 X110.296 Y103.727 E10.42664
G1 X110.436 Y103.412 E10.44097
G1 X110.614 Y102.937 E10.46206
G1 X110.734 Y102.367 E10.48627
G1 X110.782 Y101.812 E10.50944
G1 X110.795 Y101.47 E10.52366
G1 X110.8 Y99.55 E10.60349
G1 X110.859 Y99.307 E10.61389
G1 X111.009 Y99.106 E10.62431
G1 X111.32 Y98.943 E10.63891
G1 X112.278 Y99.033 E10.67891
G1 X112.576 Y99.105 E10.69166
G1 X112.961 Y99.25 E10.70876
G1 X113.398 Y99.515 E10.73001
G1 X113.741 Y99.829 E10.74935
G1 X114.142 Y100.248 E10.77346
G1 X114.397 Y100.476 E10.78768
G1 X114.664 Y100.668 E10.80135
G1 X114.846 Y100.776 E10.81015
G1 X117.974 Y103.904 E10.99407
G1 X118.119 Y104.174 E11.00681
G1 X118.15 Y104.328 E11.01334
G1 X118.15 Y110.529 E11.27115
G1 X118.044 Y110.883 E11.28651
G1 X117.633 Y111.295 E11.3107
G1 X117.385 Y111.444 E11.32273
G1 X117.212 Y111.487 E11.33014
G1 X117.05 Y111.456 E11.337
G1 X116.545 Y111.246 E11.35974
G1 X116.342 Y111.096 E11.37023
G1 X116.221 Y110.904 E11.37967
G1 X114.652 Y112.473 E11.47192
G1 X114.875 Y112.588 E11.48235
G1 X114.967 Y112.722 E11.48911
G1 X115.177 Y113.226 E11.51181
G1 X115.219 Y113.514 E11.52391
G1 X115.192 Y113.689 E11.53127
G1 X115.102 Y113.826 E11.53809
G1 X114.702 Y114.225 E11.56157
G1 X114.564 Y114.316 E11.56845
G1 X114.291 Y114.544 E11.58323
G1 X114.212 Y114.747 E11.59229
G1 X113.748 Y115.067 E11.61572
G1 X113.362 Y115.428 E11.6377
G1 X112.962 Y115.697 E11.65774
G1 X112.423 Y115.882 E11.68143
G1 X111.491 Y116.023 E11.72062
G1 X111.241 Y116.001 E11.73105
G1 X111.02 Y115.885 E11.74143
G1 X110.803 Y115.59 E11.75666
G1 X110.775 Y113.003 E11.86422
G1 X110.728 Y112.611 E11.88063
G1 X110.649 Y112.222 E11.89713
G1 X110.529 Y111.823 E11.91446
G1 X110.296 Y111.292 E11.93857
G1 X110.293 Y116.67 E12.16216
G1 X110.397 Y117.096 E12.18039
G1 X110.618 Y117.408 E12.19628
G1 X110.801 Y117.591 E12.20704
G1 X111.032 Y117.724 E12.21813
G1 X111.465 Y117.857 E12.23696
G1 X117.524 Y117.853 E12.48886
G1 X117.525 Y115.725 E12.57733
G1 X115.725 Y115.725 E12.65217
G1 X115.481 Y115.666 E12.66261
G1 X115.329 Y115.575 E12.66997
G1 X115.168 Y115.305 E12.68304
G1 X115.125 Y115.125 E12.69073
G1 X115.124 Y114.299 E12.72508
G1 X115.155 Y114.145 E12.73161
G1 X115.3 Y113.875 E12.74435
G1 X117.625 Y111.551 E12.88102
G1 X117.895 Y111.406 E12.89376
G1 X118.049 Y111.375 E12.90029
G1 X123.251 Y111.374 E13.11657
G1 X123.405 Y111.405 E13.1231
G1 X123.675 Y111.55 E13.13584
G1 X125.999 Y113.875 E13.27251
G1 X126.144 Y114.145 E13.28525
G1 X126.175 Y114.299 E13.29178
G1 X126.175 Y115.125 E13.32612
G1 X126.116 Y115.369 E13.33656
G1 X126.025 Y115.521 E13.34393
G1 X125.755 Y115.682 E13.357
G1 X125.575 Y115.725 E13.36469
G1 X123.776 Y115.726 E13.43948
G1 X123.776 Y116.676 E13.47898
G1 X123.913 Y116.435 E13.49051
G1 X124.086 Y116.252 E13.50098
G1 X124.324 Y116.15 E13.51174
G1 X124.597 Y116.154 E13.52309
G1 X125.044 Y116.279 E13.54239
G1 X125.347 Y116.189 E13.55553
G1 X125.902 Y116.383 E13.57997
G1 X126.291 Y116.302 E13.59649
G1 X126.471 Y116.372 E13.60452
G1 X127.512 Y117.104 E13.65743
G1 X128.08 Y117.877 E13.69731
G1 X128.336 Y118.753 E13.73526
G1 X128.334 Y120.43 E13.80498
G1 X128.225 Y121.009 E13.82947
G1 X127.863 Y121.711 E13.86231
G1 X127.36 Y122.3 E13.89451
G1 X126.312 Y122.937 E13.9455
G1 X126.071 Y123.013 E13.95601
G1 X125.81 Y122.984 E13.96692
G1 X125.722 Y122.942 E13.97098
G1 X125.373 Y123.02 E13.98584
G1 X125.195 Y123.02 E13.99325
G1 X125.053 Y122.96 E13.99965
G1 X124.579 Y123.085 E14.02003
G1 X124.33 Y123.09 E14.03039
G1 X124.086 Y122.99 E14.04135
G1 X123.901 Y122.794 E14.05256
G1 X123.486 Y122.04 E14.08834
G1 X123.42 Y121.799 E14.09873
G1 X123.452 Y121.553 E14.10904
G1 X123.547 Y121.395 E14.11671
G1 X112.975 Y121.393 E14.55624
G1 X112.589 Y121.419 E14.57232
G1 X112.147 Y121.504 E14.59104
G1 X111.763 Y121.661 E14.60828
G1 X111.417 Y121.851 E14.6247
G1 X111.138 Y122.059 E14.63916
G1 X110.867 Y122.32 E14.65481
G1 X110.702 Y122.522 E14.66565
G1 X110.552 Y122.746 E14.67686
G1 X110.385 Y123.064 E14.69179
G1 X110.259 Y123.405 E14.70691
G1 X110.163 Y123.83 E14.72502
G1 X110.143 Y124.211 E14.74088
G1 X110.142 Y136.416 E15.24831
G1 X110.105 Y136.823 E15.2653
G1 X109.972 Y137.287 E15.28537
G1 X109.675 Y137.686 E15.30605
G1 X109.503 Y137.818 E15.31506
G1 X109.098 Y137.981 E15.33321
G1 X107.807 Y137.983 E15.38688
G1 X107.401 Y137.822 E15.40504
G1 X107.229 Y137.69 E15.41406
G1 X106.928 Y137.287 E15.43497
G1 X106.787 Y136.78 E15.45685
G1 X106.758 Y136.435 E15.47124
G1 X106.758 Y98.584 E17.0449
G1 X106.796 Y98.176 E17.06194
G1 X106.928 Y97.713 E17.08195
G1 X107.225 Y97.314 E17.10263
G0 F6000 X107.546 Y97.553
G1 F1200 X107.879 Y97.419 E17.11756
G1 X109.166 Y97.417 E17.17107
G1 X109.501 Y97.55 E17.18605
G1 X109.756 Y97.891 E17.20375
G1 X109.86 Y98.252 E17.21937
G1 X109.893 Y98.599 E17.23386
G1 X109.897 Y104.774 E17.49059
G1 X112.825 Y104.775 E17.61232
G1 X112.825 Y102.575 E17.70379
G1 X112.864 Y102.456 E17.70899
G1 X113.025 Y102.375 E17.71649
G1 X113.851 Y102.374 E17.75083
G1 X113.992 Y102.433 E17.75718
G1 X116.316 Y104.758 E17.89385
G1 X116.375 Y104.899 E17.90021
G1 X116.376 Y110.101 E18.11648
G1 X116.317 Y110.242 E18.12284
G1 X113.992 Y112.566 E18.25951
G1 X113.851 Y112.625 E18.26586
G1 X113.025 Y112.625 E18.30021
G1 X112.906 Y112.586 E18.30541
G1 X112.825 Y112.425 E18.3129
G1 X112.824 Y110.226 E18.40433
G1 X109.897 Y110.226 E18.52602
G1 X109.893 Y116.551 E18.78898
G1 X109.913 Y116.801 E18.79941
G1 X109.99 Y117.113 E18.81277
G1 X110.123 Y117.402 E18.826
G1 X110.312 Y117.668 E18.83956
G1 X110.556 Y117.912 E18.85391
G1 X110.858 Y118.086 E18.8684
G1 X111.096 Y118.179 E18.87902
G1 X111.35 Y118.237 E18.88985
G1 X111.604 Y118.257 E18.90045
G1 X117.924 Y118.253 E19.1632
G1 X117.925 Y115.325 E19.28493
G1 X115.725 Y115.325 E19.3764
G1 X115.606 Y115.286 E19.38161
G1 X115.525 Y115.125 E19.3891
G1 X115.524 Y114.299 E19.42344
G1 X115.583 Y114.158 E19.4298
G1 X117.908 Y111.834 E19.56647
G1 X118.049 Y111.775 E19.57282
G1 X123.251 Y111.774 E19.7891
G1 X123.392 Y111.833 E19.79545
G1 X125.716 Y114.158 E19.93212
G1 X125.775 Y114.299 E19.93848
G1 X125.775 Y115.125 E19.97282
G1 X125.736 Y115.244 E19.97802
G1 X125.575 Y115.325 E19.98552
G1 X123.376 Y115.326 E20.07694
G1 X123.376 Y118.256 E20.19876
G1 X123.714 Y118.261 E20.21281
G1 X124.072 Y118.32 E20.22789
G1 X124.554 Y118.511 E20.24945
G1 X124.652 Y118.595 E20.25482
G1 X124.849 Y118.932 E20.27105
G1 X124.848 Y120.279 E20.32705
G1 X124.818 Y120.385 E20.33163
G1 X124.638 Y120.643 E20.34471
G1 X124.361 Y120.834 E20.35869
G1 X124.076 Y120.928 E20.37117
G1 X123.655 Y120.995 E20.38889
G1 X112.963 Y120.993 E20.83342
G1 X112.536 Y121.022 E20.85121
G1 X112.035 Y121.118 E20.87242
G1 X111.587 Y121.301 E20.89254
G1 X111.204 Y121.511 E20.9107
G1 X110.872 Y121.759 E20.92793
G1 X110.573 Y122.048 E20.94521
G1 X110.382 Y122.282 E20.95777
G1 X110.208 Y122.541 E20.97075
G1 X110.019 Y122.902 E20.98769
G1 X109.875 Y123.292 E21.00497
G1 X109.766 Y123.772 E21.02543
G1 X109.743 Y124.211 E21.04371
G1 X109.742 Y136.416 E21.55114
G1 X109.71 Y136.746 E21.56492
G1 X109.607 Y137.107 E21.58053
G1 X109.354 Y137.447 E21.59815
G1 X109.021 Y137.581 E21.61307
G1 X107.884 Y137.583 E21.66034
G1 X107.549 Y137.45 E21.67533
G1 X107.294 Y137.109 E21.69303
G1 X107.183 Y136.708 E21.71033
G1 X107.157 Y136.401 E21.72314
G1 X107.158 Y98.584 E23.29539
G1 X107.19 Y98.253 E23.30921
G1 X107.293 Y97.893 E23.32478
G1 X107.546 Y97.553 E23.3424
G1 F1500 E18.3424
G0 F6000 X107.347 Y97.137
G0 X107.729 Y96.955
G0 X109.313 Y96.953
G0 X109.807 Y97.185
G0 X111.239 Y99.433
G1 F1500 E23.3424
G1 F1200 X111.36 Y99.348 E23.34855
G1 X112.184 Y99.422 E23.38294
G1 X112.482 Y99.494 E23.39569
G1 X112.783 Y99.61 E23.4091
G1 X113.158 Y99.838 E23.42735
G1 X113.452 Y100.106 E23.44389
G1 X113.856 Y100.528 E23.46817
G1 X114.154 Y100.794 E23.48478
G1 X114.465 Y101.018 E23.50072
G1 X114.563 Y101.059 E23.50513
G1 X117.691 Y104.187 E23.68905
G1 X117.75 Y104.328 E23.6954
G1 X117.75 Y110.529 E23.95321
G1 X117.692 Y110.67 E23.95955
G1 X117.35 Y111.013 E23.97969
G1 X117.204 Y111.087 E23.98649
G1 X116.699 Y110.877 E24.00923
G1 X116.605 Y110.795 E24.01441
G1 X116.576 Y110.692 E24.01886
G1 X116.575 Y104.731 E24.26669
G1 X114.018 Y102.174 E24.41703
G1 X112.625 Y102.176 E24.47495
G1 X112.625 Y104.375 E24.56637
G1 X112.586 Y104.494 E24.57158
G1 X112.425 Y104.575 E24.57907
G1 X110.665 Y104.573 E24.65224
G1 X110.546 Y104.534 E24.65745
G1 X110.474 Y104.432 E24.66264
G1 X110.482 Y104.292 E24.66847
G1 X110.81 Y103.556 E24.70197
G1 X110.998 Y103.054 E24.72426
G1 X111.13 Y102.425 E24.75098
G1 X111.182 Y101.827 E24.77593
G1 X111.195 Y101.485 E24.79016
G1 X111.2 Y99.551 E24.87057
G1 X111.239 Y99.433 E24.87574
G1 F1500 E19.87574
G0 F6000 X114.125 Y101.913
G0 X126.236 Y114.025
G0 X126.228 Y115.778
G0 X124.354 Y116.549
G1 F1500 E24.87574
G1 F1200 X124.489 Y116.539 E24.88137
G1 X124.882 Y116.649 E24.89833
G1 X125.183 Y116.669 E24.91087
G1 X125.316 Y116.601 E24.91708
G1 X125.678 Y116.728 E24.93303
G1 X126.001 Y116.779 E24.94663
G1 X126.241 Y116.699 E24.95715
G1 X127.229 Y117.393 E25.00734
G1 X127.716 Y118.056 E25.04155
G1 X127.936 Y118.81 E25.0742
G1 X127.934 Y120.393 E25.14001
G1 X127.843 Y120.878 E25.16053
G1 X127.529 Y121.485 E25.18894
G1 X127.098 Y121.991 E25.21658
G1 X126.104 Y122.595 E25.26493
G1 X125.982 Y122.623 E25.27014
G1 X125.839 Y122.555 E25.27672
G1 X125.577 Y122.565 E25.28762
G1 X125.286 Y122.63 E25.30002
G1 X125.195 Y122.573 E25.30448
G1 X124.951 Y122.573 E25.31463
G1 X124.477 Y122.698 E25.33501
G1 X124.352 Y122.691 E25.34021
G1 X124.251 Y122.601 E25.34584
G1 X123.836 Y121.847 E25.38162
G1 X123.813 Y121.725 E25.38678
G1 X123.867 Y121.612 E25.39199
G1 X123.931 Y121.579 E25.39498
G1 X123.917 Y121.505 E25.39811
G1 X123.97 Y121.392 E25.4033
G1 X124.037 Y121.357 E25.40644
G1 X124.025 Y121.294 E25.40911
G1 X124.078 Y121.181 E25.4143
G1 X124.184 Y121.123 E25.41932
G1 X124.561 Y121.049 E25.4353
G1 X124.89 Y120.952 E25.44956
G1 X125.177 Y120.818 E25.46272
G1 X125.372 Y120.677 E25.47273
G1 X125.582 Y120.398 E25.48725
G1 X125.626 Y120.238 E25.49415
G1 X125.625 Y119.042 E25.54387
G1 X125.579 Y118.848 E25.55216
G1 X125.37 Y118.573 E25.56652
G1 X125.162 Y118.424 E25.57716
G1 X124.887 Y118.297 E25.58975
G1 X124.56 Y118.201 E25.60392
G1 X124.179 Y118.125 E25.62007
G1 X124.07 Y118.064 E25.62526
G1 X124.019 Y117.95 E25.63046
G1 X124.034 Y117.869 E25.63388
G1 X123.976 Y117.729 E25.64018
G1 X123.976 Y117.134 E25.66492
G1 X124.261 Y116.633 E25.68888
G1 X124.354 Y116.549 E25.69409
G1 F1500 E20.69409
G0 F6000 X126.228 Y115.778
G0 X126.236 Y114.025
G0 X123.525 Y111.313
G0 X117.775 Y111.314
G0 X114.82 Y113.543
G1 F1500 E25.69409
