;FLAVOR:Marlin
;TIME:4140
;Filament used: 2.60129m
;Layer height: 0.2
;MINX:86.259
;MINY:86.259
;MINZ:0.25
;MAXX:148.74
;MAXY:148.741
;MAXZ:12.45
;Generated with Cura_SteamEngine 5.3.0
M140 S85
M105
M190 S85
M104 S240
M105
M109 S240
M82 ;absolute extrusion mode
START_PRINT
G92 E0
G92 E0
G1 F1500 E-8
;LAYER_COUNT:62
;LAYER:0
M107
G0 F6000 X95.437 Y95.381 Z0.25
;TYPE:SKIRT
G1 F1500 E0
G1 F1200 X96.624 Y94.259 E0.06791
G1 X97.887 Y93.183 E0.13689
G1 X99.2 Y92.181 E0.20556
G1 X100.519 Y91.276 E0.27206
G1 X101.954 Y90.404 E0.34187
G1 X103.389 Y89.631 E0.40964
G1 X104.867 Y88.925 E0.47774
G1 X106.242 Y88.357 E0.53959
G1 X107.92 Y87.767 E0.61354
G1 X109.453 Y87.313 E0.68001
G1 X111.082 Y86.929 E0.74959
G1 X112.695 Y86.631 E0.81779
G1 X114.315 Y86.422 E0.8857
G1 X115.915 Y86.3 E0.95241
G1 X117.582 Y86.259 E1.02174
G1 X119.182 Y86.305 E1.08828
G1 X120.841 Y86.437 E1.15748
G1 X122.319 Y86.631 E1.21945
G1 X124.094 Y86.962 E1.29452
G1 X125.524 Y87.306 E1.35567
G1 X127.257 Y87.823 E1.43086
G1 X128.674 Y88.325 E1.49336
G1 X130.273 Y88.988 E1.56532
G1 X131.683 Y89.664 E1.63033
G1 X133.211 Y90.499 E1.70273
G1 X134.584 Y91.34 E1.76967
G1 X135.811 Y92.184 E1.83158
G1 X137.203 Y93.256 E1.90463
G1 X138.447 Y94.325 E1.97282
G1 X139.602 Y95.423 E2.03907
G1 X140.768 Y96.655 E2.1096
G1 X141.833 Y97.905 E2.17787
G1 X142.82 Y99.201 E2.2456
G1 X143.738 Y100.54 E2.31309
G1 X144.564 Y101.897 E2.37914
G1 X145.353 Y103.35 E2.44788
G1 X146.075 Y104.866 E2.51769
G1 X146.644 Y106.241 E2.57956
G1 X147.234 Y107.919 E2.65351
G1 X147.682 Y109.431 E2.71907
G1 X148.071 Y111.082 E2.78959
G1 X148.369 Y112.694 E2.85775
G1 X148.578 Y114.314 E2.92566
G1 X148.7 Y115.916 E2.99245
G1 X148.74 Y117.58 E3.06165
G1 X148.695 Y119.182 E3.12828
G1 X148.563 Y120.841 E3.19748
G1 X148.369 Y122.318 E3.25941
G1 X148.042 Y124.077 E3.33379
G1 X147.693 Y125.523 E3.39564
G1 X147.177 Y127.256 E3.47081
G1 X146.634 Y128.776 E3.53792
G1 X146.007 Y130.279 E3.60563
G1 X145.326 Y131.7 E3.67114
G1 X144.501 Y133.211 E3.74271
G1 X143.654 Y134.59 E3.80999
G1 X142.731 Y135.919 E3.87727
G1 X141.723 Y137.227 E3.94592
G1 X140.661 Y138.458 E4.01351
G1 X139.528 Y139.65 E4.08189
G1 X138.324 Y140.785 E4.15068
G1 X137.094 Y141.834 E4.21789
G1 X135.801 Y142.821 E4.28552
G1 X134.535 Y143.69 E4.34936
G1 X133.046 Y144.596 E4.42182
G1 X131.611 Y145.369 E4.48959
G1 X130.133 Y146.075 E4.55769
G1 X128.759 Y146.644 E4.61951
G1 X127.08 Y147.233 E4.69349
G1 X125.547 Y147.687 E4.75996
G1 X123.918 Y148.071 E4.82954
G1 X122.305 Y148.369 E4.89774
G1 X120.685 Y148.578 E4.96565
G1 X119.085 Y148.7 E5.03236
G1 X117.418 Y148.741 E5.10169
G1 X115.818 Y148.695 E5.16824
G1 X114.159 Y148.563 E5.23743
G1 X112.713 Y148.373 E5.29806
G1 X110.923 Y148.042 E5.37374
G1 X109.476 Y147.694 E5.43562
G1 X107.743 Y147.177 E5.51081
G1 X106.307 Y146.668 E5.57415
G1 X104.726 Y146.012 E5.64531
G1 X103.267 Y145.311 E5.71261
G1 X101.863 Y144.548 E5.77904
G1 X100.43 Y143.664 E5.84904
G1 X99.083 Y142.731 E5.91717
G1 X97.777 Y141.728 E5.98563
G1 X96.535 Y140.662 E6.05368
G1 X95.44 Y139.621 E6.11649
G1 X94.233 Y138.346 E6.18948
G1 X93.21 Y137.146 E6.25504
G1 X92.186 Y135.802 E6.32529
G1 X91.249 Y134.44 E6.39402
G1 X90.404 Y133.046 E6.46179
G1 X89.631 Y131.611 E6.52956
G1 X88.925 Y130.133 E6.59766
G1 X88.357 Y128.758 E6.65951
G1 X87.767 Y127.08 E6.73346
G1 X87.313 Y125.547 E6.79993
G1 X86.929 Y123.918 E6.86951
G1 X86.631 Y122.305 E6.93771
G1 X86.422 Y120.685 E7.00562
G1 X86.3 Y119.085 E7.07233
G1 X86.259 Y117.419 E7.14162
G1 X86.305 Y115.815 E7.20833
G1 X86.438 Y114.16 E7.27736
G1 X86.631 Y112.682 E7.33933
G1 X86.958 Y110.923 E7.41371
G1 X87.306 Y109.476 E7.47559
G1 X87.823 Y107.743 E7.55077
G1 X88.332 Y106.307 E7.61412
G1 X88.988 Y104.726 E7.68528
G1 X89.635 Y103.375 E7.74756
G1 X90.5 Y101.789 E7.82266
G1 X91.346 Y100.413 E7.88982
G1 X92.239 Y99.122 E7.95508
G1 X93.253 Y97.801 E8.02432
G1 X94.337 Y96.536 E8.09358
G1 X95.437 Y95.381 E8.15989
G0 F6000 X95.712 Y95.672
G1 F1200 X96.899 Y94.55 E8.2278
G1 X98.13 Y93.501 E8.29504
G1 X99.426 Y92.511 E8.36284
G1 X100.727 Y91.618 E8.42845
G1 X102.144 Y90.756 E8.4974
G1 X103.561 Y89.992 E8.56433
G1 X105.02 Y89.295 E8.63156
G1 X106.395 Y88.727 E8.69341
G1 X108.034 Y88.151 E8.76564
G1 X109.567 Y87.697 E8.83211
G1 X111.155 Y87.322 E8.89994
G1 X112.746 Y87.028 E8.96721
G1 X114.346 Y86.821 E9.03429
G1 X115.925 Y86.7 E9.10012
G1 X117.571 Y86.659 E9.16858
G1 X119.15 Y86.704 E9.23425
G1 X120.789 Y86.834 E9.30261
G1 X122.267 Y87.028 E9.36458
G1 X124 Y87.351 E9.43787
G1 X125.43 Y87.695 E9.49902
G1 X127.123 Y88.2 E9.57247
G1 X128.54 Y88.702 E9.63497
G1 X130.1 Y89.349 E9.70519
G1 X131.491 Y90.015 E9.76931
G1 X133.002 Y90.84 E9.84088
G1 X134.357 Y91.67 E9.90694
G1 X135.584 Y92.514 E9.96886
G1 X136.942 Y93.559 E10.0401
G1 X138.171 Y94.615 E10.10747
G1 X139.326 Y95.713 E10.17372
G1 X140.464 Y96.914 E10.24251
G1 X141.515 Y98.147 E10.30987
G1 X142.49 Y99.427 E10.37676
G1 X143.396 Y100.748 E10.44336
G1 X144.212 Y102.088 E10.50859
G1 X145.001 Y103.541 E10.57733
G1 X145.705 Y105.019 E10.64539
G1 X146.274 Y106.394 E10.70726
G1 X146.85 Y108.033 E10.77948
G1 X147.298 Y109.545 E10.84505
G1 X147.678 Y111.155 E10.91382
G1 X147.972 Y112.745 E10.98105
G1 X148.179 Y114.345 E11.04812
G1 X148.3 Y115.926 E11.11404
G1 X148.34 Y117.569 E11.18237
G1 X148.296 Y119.15 E11.24813
G1 X148.166 Y120.789 E11.31648
G1 X147.972 Y122.266 E11.37842
G1 X147.653 Y123.983 E11.45102
G1 X147.304 Y125.429 E11.51287
G1 X146.8 Y127.122 E11.58631
G1 X146.265 Y128.622 E11.65252
G1 X145.646 Y130.106 E11.71937
G1 X144.975 Y131.508 E11.78399
G1 X144.16 Y133.002 E11.85474
G1 X143.325 Y134.362 E11.92109
G1 X142.414 Y135.675 E11.98753
G1 X141.42 Y136.966 E12.05527
G1 X140.371 Y138.183 E12.12207
G1 X139.254 Y139.359 E12.1895
G1 X138.064 Y140.481 E12.2575
G1 X136.851 Y141.516 E12.32379
G1 X135.574 Y142.491 E12.39059
G1 X134.327 Y143.348 E12.4535
G1 X132.856 Y144.244 E12.52511
G1 X131.439 Y145.008 E12.59204
G1 X129.98 Y145.705 E12.65926
G1 X128.606 Y146.274 E12.72109
G1 X126.966 Y146.849 E12.79334
G1 X125.433 Y147.303 E12.85981
G1 X123.845 Y147.678 E12.92765
G1 X122.254 Y147.972 E12.99492
G1 X120.654 Y148.179 E13.06199
G1 X119.075 Y148.3 E13.12783
G1 X117.429 Y148.341 E13.19629
G1 X115.85 Y148.296 E13.26196
G1 X114.211 Y148.166 E13.33031
G1 X112.765 Y147.976 E13.39095
G1 X111.017 Y147.653 E13.46485
G1 X109.57 Y147.305 E13.52673
G1 X107.877 Y146.8 E13.60018
G1 X106.441 Y146.291 E13.66352
G1 X104.899 Y145.651 E13.73293
G1 X103.44 Y144.95 E13.80023
G1 X102.073 Y144.207 E13.86491
G1 X100.658 Y143.335 E13.93402
G1 X99.327 Y142.414 E14.00131
G1 X98.037 Y141.424 E14.06891
G1 X96.811 Y140.372 E14.13608
G1 X95.716 Y139.331 E14.19889
G1 X94.537 Y138.086 E14.27018
G1 X93.514 Y136.886 E14.33574
G1 X92.515 Y135.575 E14.40426
G1 X91.591 Y134.233 E14.472
G1 X90.756 Y132.856 E14.53896
G1 X89.992 Y131.439 E14.60589
G1 X89.295 Y129.98 E14.67311
G1 X88.727 Y128.605 E14.73496
G1 X88.151 Y126.966 E14.80719
G1 X87.697 Y125.433 E14.87366
G1 X87.322 Y123.845 E14.9415
G1 X87.028 Y122.254 E15.00876
G1 X86.821 Y120.654 E15.07584
G1 X86.7 Y119.075 E15.14168
G1 X86.659 Y117.43 E15.21009
G1 X86.704 Y115.847 E15.27593
G1 X86.835 Y114.212 E15.34412
G1 X87.028 Y112.734 E15.40609
G1 X87.347 Y111.017 E15.4787
G1 X87.695 Y109.57 E15.54057
G1 X88.2 Y107.877 E15.61403
G1 X88.709 Y106.441 E15.67737
G1 X89.349 Y104.899 E15.74678
G1 X89.996 Y103.548 E15.80906
G1 X90.841 Y101.998 E15.88245
G1 X91.675 Y100.641 E15.94867
G1 X92.568 Y99.35 E16.01393
G1 X93.557 Y98.061 E16.08148
G1 X94.627 Y96.812 E16.14986
G1 X95.712 Y95.672 E16.21529
G0 F6000 X95.987 Y95.963
G1 F1200 X97.174 Y94.841 E16.2832
G1 X98.373 Y93.819 E16.3487
G1 X99.652 Y92.841 E16.41564
G1 X100.935 Y91.96 E16.48034
G1 X102.334 Y91.108 E16.54844
G1 X103.733 Y90.353 E16.61454
G1 X105.173 Y89.665 E16.68089
G1 X106.548 Y89.097 E16.74274
G1 X108.148 Y88.535 E16.81324
G1 X109.681 Y88.081 E16.87971
G1 X111.228 Y87.715 E16.9458
G1 X112.797 Y87.425 E17.01214
G1 X114.377 Y87.22 E17.07838
G1 X115.935 Y87.1 E17.14335
G1 X117.56 Y87.059 E17.21093
G1 X119.118 Y87.103 E17.27573
G1 X120.737 Y87.231 E17.34325
G1 X122.215 Y87.425 E17.40522
G1 X123.906 Y87.74 E17.47674
G1 X125.336 Y88.084 E17.53788
G1 X126.989 Y88.577 E17.6096
G1 X128.406 Y89.079 E17.6721
G1 X129.927 Y89.71 E17.74056
G1 X131.299 Y90.366 E17.80379
G1 X132.793 Y91.181 E17.87454
G1 X134.13 Y92 E17.93973
G1 X135.357 Y92.844 E18.00164
G1 X136.681 Y93.862 E18.07108
G1 X137.895 Y94.905 E18.13762
G1 X139.05 Y96.003 E18.20388
G1 X140.16 Y97.173 E18.27093
G1 X141.197 Y98.39 E18.3374
G1 X142.16 Y99.653 E18.40343
G1 X143.054 Y100.956 E18.46913
G1 X143.86 Y102.279 E18.53354
G1 X144.649 Y103.732 E18.60228
G1 X145.335 Y105.172 E18.66859
G1 X145.904 Y106.547 E18.73046
G1 X146.466 Y108.147 E18.80096
G1 X146.914 Y109.659 E18.86653
G1 X147.285 Y111.228 E18.93356
G1 X147.575 Y112.796 E18.99985
G1 X147.78 Y114.376 E19.06609
G1 X147.9 Y115.936 E19.13114
G1 X147.94 Y117.558 E19.1986
G1 X147.897 Y119.118 E19.26348
G1 X147.769 Y120.737 E19.331
G1 X147.575 Y122.214 E19.39293
G1 X147.264 Y123.889 E19.46376
G1 X146.915 Y125.335 E19.5256
G1 X146.423 Y126.988 E19.59731
G1 X145.896 Y128.468 E19.66262
G1 X145.285 Y129.933 E19.72862
G1 X144.614 Y131.335 E19.79324
G1 X143.819 Y132.793 E19.86228
G1 X142.996 Y134.134 E19.92769
G1 X142.097 Y135.431 E19.9933
G1 X141.117 Y136.705 E20.06013
G1 X140.081 Y137.908 E20.12613
G1 X138.98 Y139.068 E20.19262
G1 X137.804 Y140.177 E20.25983
G1 X136.608 Y141.198 E20.32521
G1 X135.347 Y142.161 E20.39117
G1 X134.119 Y143.006 E20.45315
G1 X132.666 Y143.892 E20.5239
G1 X131.267 Y144.647 E20.58999
G1 X129.827 Y145.335 E20.65634
G1 X128.453 Y145.904 E20.71817
G1 X126.852 Y146.465 E20.7887
G1 X125.319 Y146.919 E20.85517
G1 X123.772 Y147.285 E20.92126
G1 X122.203 Y147.575 E20.9876
G1 X120.623 Y147.78 E21.05384
G1 X119.065 Y147.9 E21.11881
G1 X117.44 Y147.941 E21.18639
G1 X115.882 Y147.897 E21.25119
G1 X114.263 Y147.769 E21.31871
G1 X112.817 Y147.579 E21.37934
G1 X111.111 Y147.264 E21.45147
G1 X109.664 Y146.916 E21.51334
G1 X108.011 Y146.423 E21.58506
G1 X106.594 Y145.921 E21.64756
G1 X105.072 Y145.29 E21.71606
G1 X103.631 Y144.598 E21.78252
G1 X102.283 Y143.866 E21.84629
G1 X100.886 Y143.006 E21.91449
G1 X99.555 Y142.085 E21.98179
G1 X98.297 Y141.12 E22.0477
G1 X97.087 Y140.082 E22.11398
G1 X95.992 Y139.041 E22.1768
G1 X94.841 Y137.826 E22.24638
G1 X93.818 Y136.626 E22.31194
G1 X92.844 Y135.348 E22.37874
G1 X91.933 Y134.026 E22.44549
G1 X91.108 Y132.666 E22.51162
G1 X90.353 Y131.267 E22.57772
G1 X89.665 Y129.827 E22.64407
G1 X89.097 Y128.452 E22.70592
G1 X88.535 Y126.852 E22.77642
G1 X88.081 Y125.319 E22.84289
G1 X87.715 Y123.772 E22.90899
G1 X87.425 Y122.203 E22.97532
G1 X87.22 Y120.623 E23.04156
G1 X87.1 Y119.065 E23.10653
G1 X87.059 Y117.441 E23.17407
G1 X87.103 Y115.879 E23.23903
G1 X87.232 Y114.264 E23.30639
G1 X87.425 Y112.786 E23.36836
G1 X87.736 Y111.111 E23.43919
G1 X88.084 Y109.664 E23.50107
G1 X88.577 Y108.011 E23.57278
G1 X89.079 Y106.594 E23.63528
G1 X89.71 Y105.072 E23.70378
G1 X90.357 Y103.721 E23.76606
G1 X91.182 Y102.207 E23.83774
G1 X92.004 Y100.869 E23.90303
G1 X92.897 Y99.578 E23.96829
G1 X93.861 Y98.321 E24.03415
G1 X94.917 Y97.088 E24.10164
G1 X95.987 Y95.963 E24.16619
G0 F6000 X96.262 Y96.254
G1 F1200 X97.434 Y95.145 E24.23327
G1 X98.616 Y94.137 E24.29786
G1 X99.879 Y93.171 E24.36397
G1 X101.143 Y92.302 E24.42774
G1 X102.524 Y91.46 E24.49498
G1 X103.905 Y90.714 E24.56024
G1 X105.326 Y90.035 E24.62572
G1 X106.701 Y89.467 E24.68757
G1 X108.262 Y88.918 E24.75636
G1 X109.773 Y88.47 E24.82189
G1 X111.301 Y88.108 E24.88717
G1 X112.849 Y87.822 E24.95262
G1 X114.408 Y87.619 E25.01798
G1 X115.945 Y87.5 E25.08207
G1 X117.549 Y87.459 E25.14878
G1 X119.087 Y87.502 E25.21275
G1 X120.685 Y87.628 E25.27939
G1 X122.163 Y87.822 E25.34137
G1 X123.812 Y88.129 E25.4111
G1 X125.242 Y88.473 E25.47225
G1 X126.855 Y88.954 E25.54223
G1 X128.272 Y89.456 E25.60473
G1 X129.754 Y90.071 E25.67144
G1 X131.126 Y90.727 E25.73467
G1 X132.584 Y91.522 E25.80371
G1 X133.903 Y92.33 E25.86802
G1 X135.13 Y93.174 E25.92993
G1 X136.42 Y94.166 E25.99759
G1 X137.619 Y95.195 E26.06328
G1 X138.774 Y96.293 E26.12953
G1 X139.856 Y97.433 E26.19488
G1 X140.879 Y98.633 E26.26044
G1 X141.83 Y99.879 E26.3256
G1 X142.712 Y101.164 E26.3904
G1 X143.518 Y102.487 E26.45481
G1 X144.288 Y103.904 E26.52186
G1 X144.965 Y105.325 E26.5873
G1 X145.534 Y106.7 E26.64917
G1 X146.082 Y108.261 E26.71795
G1 X146.53 Y109.773 E26.78351
G1 X146.892 Y111.301 E26.8488
G1 X147.178 Y112.848 E26.9142
G1 X147.381 Y114.407 E26.97957
G1 X147.5 Y115.946 E27.04374
G1 X147.54 Y117.547 E27.11032
G1 X147.498 Y119.087 E27.17437
G1 X147.372 Y120.685 E27.24102
G1 X147.178 Y122.162 E27.30295
G1 X146.875 Y123.795 E27.372
G1 X146.526 Y125.241 E27.43385
G1 X146.046 Y126.854 E27.50381
G1 X145.527 Y128.314 E27.56823
G1 X144.924 Y129.76 E27.63337
G1 X144.253 Y131.162 E27.69799
G1 X143.478 Y132.584 E27.76532
G1 X142.667 Y133.906 E27.8298
G1 X141.78 Y135.187 E27.89458
G1 X140.814 Y136.444 E27.96049
G1 X139.791 Y137.633 E28.0257
G1 X138.706 Y138.777 E28.09125
G1 X137.544 Y139.873 E28.15766
G1 X136.365 Y140.88 E28.22212
G1 X135.12 Y141.831 E28.28726
G1 X133.892 Y142.676 E28.34923
G1 X132.476 Y143.54 E28.41819
G1 X131.095 Y144.286 E28.48345
G1 X129.674 Y144.965 E28.54893
G1 X128.3 Y145.534 E28.61076
G1 X126.738 Y146.082 E28.67958
G1 X125.227 Y146.53 E28.7451
G1 X123.699 Y146.892 E28.81039
G1 X122.151 Y147.178 E28.87583
G1 X120.592 Y147.381 E28.9412
G1 X119.055 Y147.5 E29.00529
G1 X117.451 Y147.541 E29.072
G1 X115.913 Y147.498 E29.13596
G1 X114.315 Y147.372 E29.20261
G1 X112.869 Y147.182 E29.26324
G1 X111.205 Y146.875 E29.33359
G1 X109.758 Y146.527 E29.39547
G1 X108.145 Y146.046 E29.46544
G1 X106.728 Y145.544 E29.52794
G1 X105.245 Y144.929 E29.59469
G1 X103.822 Y144.246 E29.66031
G1 X102.493 Y143.525 E29.72318
G1 X101.114 Y142.677 E29.79048
G1 X99.783 Y141.756 E29.85777
G1 X98.557 Y140.816 E29.922
G1 X97.363 Y139.792 E29.9874
G1 X96.268 Y138.751 E30.05021
G1 X95.145 Y137.566 E30.11809
G1 X94.136 Y136.383 E30.18273
G1 X93.173 Y135.121 E30.24873
G1 X92.275 Y133.818 E30.31452
G1 X91.46 Y132.476 E30.3798
G1 X90.714 Y131.095 E30.44506
G1 X90.035 Y129.674 E30.51053
G1 X89.467 Y128.299 E30.57238
G1 X88.918 Y126.738 E30.64118
G1 X88.47 Y125.227 E30.7067
G1 X88.108 Y123.699 E30.77199
G1 X87.822 Y122.151 E30.83743
G1 X87.619 Y120.592 E30.9028
G1 X87.5 Y119.055 E30.96689
G1 X87.459 Y117.452 E31.03356
G1 X87.502 Y115.911 E31.09765
G1 X87.629 Y114.316 E31.16417
G1 X87.822 Y112.838 E31.22614
G1 X88.125 Y111.205 E31.29519
G1 X88.473 Y109.758 E31.35707
G1 X88.954 Y108.145 E31.42705
G1 X89.456 Y106.728 E31.48954
G1 X90.071 Y105.245 E31.55629
G1 X90.718 Y103.894 E31.61857
G1 X91.523 Y102.416 E31.68854
G1 X92.333 Y101.097 E31.75289
G1 X93.226 Y99.806 E31.81816
G1 X94.165 Y98.581 E31.88233
G1 X95.207 Y97.364 E31.94894
G1 X96.262 Y96.254 E32.0126
G0 F6000 X96.552 Y96.53
G1 F1200 X97.694 Y95.449 E32.07798
G1 X98.859 Y94.455 E32.14165
G1 X100.106 Y93.501 E32.20692
G1 X101.37 Y92.632 E32.2707
G1 X102.714 Y91.812 E32.33615
G1 X104.077 Y91.075 E32.40057
G1 X105.479 Y90.405 E32.46518
G1 X106.854 Y89.837 E32.52703
G1 X108.376 Y89.301 E32.59411
G1 X109.865 Y88.859 E32.65869
G1 X111.374 Y88.501 E32.72317
G1 X112.901 Y88.219 E32.78773
G1 X114.439 Y88.018 E32.85221
G1 X115.955 Y87.9 E32.91543
G1 X117.538 Y87.859 E32.98127
G1 X119.056 Y87.901 E33.0444
G1 X120.633 Y88.025 E33.11017
G1 X122.111 Y88.219 E33.17214
G1 X123.718 Y88.518 E33.2401
G1 X125.148 Y88.862 E33.30125
G1 X126.721 Y89.331 E33.36949
G1 X128.119 Y89.826 E33.43115
G1 X129.581 Y90.432 E33.49695
G1 X130.953 Y91.088 E33.56017
G1 X132.375 Y91.863 E33.6275
G1 X133.676 Y92.66 E33.69094
G1 X134.903 Y93.504 E33.75285
G1 X136.159 Y94.47 E33.81873
G1 X137.358 Y95.499 E33.88442
G1 X138.484 Y96.568 E33.94897
G1 X139.552 Y97.693 E34.01346
G1 X140.561 Y98.876 E34.0781
G1 X141.5 Y100.106 E34.14244
G1 X142.37 Y101.372 E34.2063
G1 X143.176 Y102.695 E34.27071
G1 X143.927 Y104.076 E34.33607
G1 X144.595 Y105.478 E34.40063
G1 X145.164 Y106.853 E34.4625
G1 X145.699 Y108.375 E34.52957
G1 X146.141 Y109.865 E34.59419
G1 X146.499 Y111.374 E34.65867
